; ### Klipper Pressure Advance Calibration Pattern ###
;
; Original Marlin linear advance calibration tool by Sineos [https://github.com/Sineos]
; Heavily modified/rewritten by Andrew Ellis [https://github.com/AndrewEllis93]
;
; -------------------------------------------
; Generated: Tue Dec 06 2022 09:30:39 GMT+0100 (Central European Standard Time)
; -------------------------------------------
;
; Printer:
;  - Firmware: klipper
;  - Bed Shape: Rect
;  - Bed Size X: 250 mm
;  - Bed Size Y: 250 mm
;  - Origin Bed Center: false
;  - Extruder Name: 
;  - Travel Speed: 200 mm/s
;  - Nozzle Diameter: 0.4 mm
;
; Start / End G-code:
;  - Start G-code Type: standalone_temp_passing
;  - Hotend Temp: 260C
;  - Bed Temp: 110C
;
; Filament / Flow:
;  - Filament Diameter: 1.75 mm
;  - Extrusion Multiplier: 0.94
;  - Line Width: 115 %
;
; Retraction / Z Hop:
;  - Retraction Distance: 0.5 mm
;  - Retract Speed: 35 mm/s
;  - Unretract Speed: 35 mm/s
;  - Z Hop Enable: true
;  - Z Hop Height: 0.1mm
;
; First Layer Settings:
;  - First Layer Height: 0.2 mm
;  - First Layer Printing Speed: 30 mm/s
;  - First Layer Fan: 0%
;  - Anchor Option: anchor_frame
;  - Anchor Frame Perimeters: 4
;  - Anchor Line Width: 140 %
;
; Print Settings:
;  - Layer Height: 0.2 mm
;  - Print Speed: 200 mm/s
;  - Acceleration: 8000 mm/s^2
;  - Fan Speed: 100%
;
; Pattern Settings (Using defaults):
;  - Print Height: 1 mm
;  - Perimeter Count: 3
;  - Side Length: 30 mm
;  - Spacing: 3 mm
;  - Corner Angle: 90 degrees 
;  - Printing Direction: 0 degree
;
; Pressure Advance Stepping:
;  - PA Start Value: 0
;  - PA End Value: 0.08
;  - PA Increment: 0.005
;  - Numbering: true
;  - No Leading Zeroes: false
;  - Show on LCD: true
;
; Calculated Values:
;  - Number of Patterns to Print: 17
;  - PA Values: 0, 0.005, 0.01, 0.015, 0.02, 0.025, 0.03, 0.035, 0.04, 0.045, 0.05, 0.055, 0.06, 0.065, 0.07, 0.075, 0.08
;  - Print Size X: 101.39 mm
;  - Print Size Y: 53.99 mm
;  - Total Number of Layers: 5
;
; Prepare printing
; 
PRINT_START EXTRUDER=260 BED=110 CHAMBER=40 ; Start macro w/ temp params. Keep the variables!
;
; - Make sure the macro name AND parameter names match YOUR start macro setup!
;     (For example, some macros use EXTRUDER=X rather than HOTEND=X, or START_PRINT instead of PRINT_START)!
; - Replace any slicer variables with those listed above! It should look like the top example, !!! NOT !!! like this:
;     PRINT_START BED=[first_layer_bed_temperature](...)
;
M112                                                       ; Reading comprehension check! (emergency stop)
G21 ; Millimeter units
G90 ; Absolute XYZ
M83 ; Relative E
G92 E0 ; Reset extruder distance
;
;  Begin printing
;
M106 S0 ; Set fan speed
SET_VELOCITY_LIMIT ACCEL=8000 ; Set printing acceleration
G1 E-0.5 F2100 ; Retract
G0 Z5 F12000 ; Z raise
G0 X74.3069 Y98.0068 F12000 ; Move to start position
G0 Z0.2 F12000 ; Move to start layer height
G1 E0.5 F2100 ; Un-retract
SET_PRESSURE_ADVANCE ADVANCE=0 ; Set pressure advance to start value
M117 PA 0
G1 X74.3069 Y140.4332 E1.85702 F1800 ; Draw perimeter (up)
G1 X175.6931 Y140.4332 E4.43771 F1800 ; Draw perimeter (right)
G1 X175.6931 Y98.0068 E1.85702 F1800 ; Draw perimeter (down)
G1 X74.3069 Y98.0068 E4.43771 F1800 ; Draw perimeter (left)
G0 X74.8239 Y98.5239 F12000 ; Step inwards to print next perimeter
G1 X74.8239 Y139.9161 E1.81175 F1800 ; Draw perimeter (up)
G1 X175.1761 Y139.9161 E4.39245 F1800 ; Draw perimeter (right)
G1 X175.1761 Y98.5239 E1.81175 F1800 ; Draw perimeter (down)
G1 X74.8239 Y98.5239 E4.39245 F1800 ; Draw perimeter (left)
G0 X75.341 Y99.041 F12000 ; Step inwards to print next perimeter
G1 X75.341 Y139.399 E1.76649 F1800 ; Draw perimeter (up)
G1 X174.659 Y139.399 E4.34718 F1800 ; Draw perimeter (right)
G1 X174.659 Y99.041 E1.76649 F1800 ; Draw perimeter (down)
G1 X75.341 Y99.041 E4.34718 F1800 ; Draw perimeter (left)
G0 X75.8581 Y99.558 F12000 ; Step inwards to print next perimeter
G1 X75.8581 Y138.882 E1.72122 F1800 ; Draw perimeter (up)
G1 X174.1419 Y138.882 E4.30192 F1800 ; Draw perimeter (right)
G1 X174.1419 Y99.558 E1.72122 F1800 ; Draw perimeter (down)
G1 X75.8581 Y99.558 E4.30192 F1800 ; Draw perimeter (left)
G1 E-0.5 F2100 ; Retract
G1 Z0.3 F12000 ; Z hop
G0 X74.3069 Y140.7693 F12000 ; Move to box start
G1 Z0.2 F12000 ; Z hop return
G1 E0.5 F2100 ; Un-retract
G1 X74.3069 Y152.2864 E0.50411 F1800 ; Draw perimeter (up)
G1 X155.1668 Y152.2864 E3.53927 F1800 ; Draw perimeter (right)
G1 X155.1668 Y140.7693 E0.50411 F1800 ; Draw perimeter (down)
G1 X74.3069 Y140.7693 E3.53927 F1800 ; Draw perimeter (left)
G0 X74.8239 Y141.2864 F12000 ; Step inwards to print next perimeter
G1 X74.8239 Y151.7693 E0.45884 F1800 ; Draw perimeter (up)
G1 X154.6497 Y151.7693 E3.494 F1800 ; Draw perimeter (right)
G1 X154.6497 Y141.2864 E0.45884 F1800 ; Draw perimeter (down)
G1 X74.8239 Y141.2864 E3.494 F1800 ; Draw perimeter (left)
G0 X75.341 Y141.8035 F12000 ; Step inwards to print next perimeter
G1 X75.341 Y151.2522 E0.41358 F1800 ; Draw perimeter (up)
G1 X154.1327 Y151.2522 E3.44874 F1800 ; Draw perimeter (right)
G1 X154.1327 Y141.8035 E0.41358 F1800 ; Draw perimeter (down)
G1 X75.341 Y141.8035 E3.44874 F1800 ; Draw perimeter (left)
G0 X75.8581 Y142.3205 F12000 ; Step inwards to print next perimeter
G1 X75.8581 Y150.7351 E0.36831 F1800 ; Draw perimeter (up)
G1 X153.6156 Y150.7351 E3.40347 F1800 ; Draw perimeter (right)
G1 X153.6156 Y142.3205 E0.36831 F1800 ; Draw perimeter (down)
G1 X75.8581 Y142.3205 E3.40347 F1800 ; Draw perimeter (left)
G0 X75.9874 Y142.4498 F12000 ; Move to fill start
G0 X76.7186 Y142.4498 F12000 ; Move
G1 X75.9874 Y143.1811 E0.04527 F1800 ; Fill
G0 X75.9874 Y143.9123 F12000 ; Move
G1 X77.4499 Y142.4498 E0.09053 F1800 ; Fill
G0 X78.1812 Y142.4498 F12000 ; Move
G1 X75.9874 Y144.6436 E0.1358 F1800 ; Fill
G0 X75.9874 Y145.3749 F12000 ; Move
G1 X78.9124 Y142.4498 E0.18106 F1800 ; Fill
G0 X79.6437 Y142.4498 F12000 ; Move
G1 X75.9874 Y146.1061 E0.22633 F1800 ; Fill
G0 X75.9874 Y146.8374 F12000 ; Move
G1 X80.3749 Y142.4498 E0.27159 F1800 ; Fill
G0 X81.1062 Y142.4498 F12000 ; Move
G1 X75.9874 Y147.5686 E0.31686 F1800 ; Fill
G0 X75.9874 Y148.2999 F12000 ; Move
G1 X81.8375 Y142.4498 E0.36212 F1800 ; Fill
G0 X82.5687 Y142.4498 F12000 ; Move
G1 X75.9874 Y149.0312 E0.40739 F1800 ; Fill
G0 X75.9874 Y149.7624 F12000 ; Move
G1 X83.3 Y142.4498 E0.45266 F1800 ; Fill
G0 X84.0312 Y142.4498 F12000 ; Move
G1 X75.9874 Y150.4937 E0.49792 F1800 ; Fill
G0 X76.6064 Y150.6059 F12000 ; Move
G1 X84.7625 Y142.4498 E0.50487 F1800 ; Fill
G0 X85.4938 Y142.4498 F12000 ; Move
G1 X77.3377 Y150.6059 E0.50487 F1800 ; Fill
G0 X78.069 Y150.6059 F12000 ; Move
G1 X86.225 Y142.4498 E0.50487 F1800 ; Fill
G0 X86.9563 Y142.4498 F12000 ; Move
G1 X78.8002 Y150.6059 E0.50487 F1800 ; Fill
G0 X79.5315 Y150.6059 F12000 ; Move
G1 X87.6875 Y142.4498 E0.50487 F1800 ; Fill
G0 X88.4188 Y142.4498 F12000 ; Move
G1 X80.2627 Y150.6059 E0.50487 F1800 ; Fill
G0 X80.994 Y150.6059 F12000 ; Move
G1 X89.1501 Y142.4498 E0.50487 F1800 ; Fill
G0 X89.8813 Y142.4498 F12000 ; Move
G1 X81.7253 Y150.6059 E0.50487 F1800 ; Fill
G0 X82.4565 Y150.6059 F12000 ; Move
G1 X90.6126 Y142.4498 E0.50487 F1800 ; Fill
G0 X91.3439 Y142.4498 F12000 ; Move
G1 X83.1878 Y150.6059 E0.50487 F1800 ; Fill
G0 X83.9191 Y150.6059 F12000 ; Move
G1 X92.0751 Y142.4498 E0.50487 F1800 ; Fill
G0 X92.8064 Y142.4498 F12000 ; Move
G1 X84.6503 Y150.6059 E0.50487 F1800 ; Fill
G0 X85.3816 Y150.6059 F12000 ; Move
G1 X93.5376 Y142.4498 E0.50487 F1800 ; Fill
G0 X94.2689 Y142.4498 F12000 ; Move
G1 X86.1128 Y150.6059 E0.50487 F1800 ; Fill
G0 X86.8441 Y150.6059 F12000 ; Move
G1 X95.0002 Y142.4498 E0.50487 F1800 ; Fill
G0 X95.7314 Y142.4498 F12000 ; Move
G1 X87.5754 Y150.6059 E0.50487 F1800 ; Fill
G0 X88.3066 Y150.6059 F12000 ; Move
G1 X96.4627 Y142.4498 E0.50487 F1800 ; Fill
G0 X97.1939 Y142.4498 F12000 ; Move
G1 X89.0379 Y150.6059 E0.50487 F1800 ; Fill
G0 X89.7691 Y150.6059 F12000 ; Move
G1 X97.9252 Y142.4498 E0.50487 F1800 ; Fill
G0 X98.6565 Y142.4498 F12000 ; Move
G1 X90.5004 Y150.6059 E0.50487 F1800 ; Fill
G0 X91.2317 Y150.6059 F12000 ; Move
G1 X99.3877 Y142.4498 E0.50487 F1800 ; Fill
G0 X100.119 Y142.4498 F12000 ; Move
G1 X91.9629 Y150.6059 E0.50487 F1800 ; Fill
G0 X92.6942 Y150.6059 F12000 ; Move
G1 X100.8502 Y142.4498 E0.50487 F1800 ; Fill
G0 X101.5815 Y142.4498 F12000 ; Move
G1 X93.4254 Y150.6059 E0.50487 F1800 ; Fill
G0 X94.1567 Y150.6059 F12000 ; Move
G1 X102.3128 Y142.4498 E0.50487 F1800 ; Fill
G0 X103.044 Y142.4498 F12000 ; Move
G1 X94.888 Y150.6059 E0.50487 F1800 ; Fill
G0 X95.6192 Y150.6059 F12000 ; Move
G1 X103.7753 Y142.4498 E0.50487 F1800 ; Fill
G0 X104.5065 Y142.4498 F12000 ; Move
G1 X96.3505 Y150.6059 E0.50487 F1800 ; Fill
G0 X97.0817 Y150.6059 F12000 ; Move
G1 X105.2378 Y142.4498 E0.50487 F1800 ; Fill
G0 X105.9691 Y142.4498 F12000 ; Move
G1 X97.813 Y150.6059 E0.50487 F1800 ; Fill
G0 X98.5443 Y150.6059 F12000 ; Move
G1 X106.7003 Y142.4498 E0.50487 F1800 ; Fill
G0 X107.4316 Y142.4498 F12000 ; Move
G1 X99.2755 Y150.6059 E0.50487 F1800 ; Fill
G0 X100.0068 Y150.6059 F12000 ; Move
G1 X108.1629 Y142.4498 E0.50487 F1800 ; Fill
G0 X108.8941 Y142.4498 F12000 ; Move
G1 X100.7381 Y150.6059 E0.50487 F1800 ; Fill
G0 X101.4693 Y150.6059 F12000 ; Move
G1 X109.6254 Y142.4498 E0.50487 F1800 ; Fill
G0 X110.3566 Y142.4498 F12000 ; Move
G1 X102.2006 Y150.6059 E0.50487 F1800 ; Fill
G0 X102.9318 Y150.6059 F12000 ; Move
G1 X111.0879 Y142.4498 E0.50487 F1800 ; Fill
G0 X111.8192 Y142.4498 F12000 ; Move
G1 X103.6631 Y150.6059 E0.50487 F1800 ; Fill
G0 X104.3944 Y150.6059 F12000 ; Move
G1 X112.5504 Y142.4498 E0.50487 F1800 ; Fill
G0 X113.2817 Y142.4498 F12000 ; Move
G1 X105.1256 Y150.6059 E0.50487 F1800 ; Fill
G0 X105.8569 Y150.6059 F12000 ; Move
G1 X114.0129 Y142.4498 E0.50487 F1800 ; Fill
G0 X114.7442 Y142.4498 F12000 ; Move
G1 X106.5881 Y150.6059 E0.50487 F1800 ; Fill
G0 X107.3194 Y150.6059 F12000 ; Move
G1 X115.4755 Y142.4498 E0.50487 F1800 ; Fill
G0 X116.2067 Y142.4498 F12000 ; Move
G1 X108.0507 Y150.6059 E0.50487 F1800 ; Fill
G0 X108.7819 Y150.6059 F12000 ; Move
G1 X116.938 Y142.4498 E0.50487 F1800 ; Fill
G0 X117.6692 Y142.4498 F12000 ; Move
G1 X109.5132 Y150.6059 E0.50487 F1800 ; Fill
G0 X110.2444 Y150.6059 F12000 ; Move
G1 X118.4005 Y142.4498 E0.50487 F1800 ; Fill
G0 X119.1318 Y142.4498 F12000 ; Move
G1 X110.9757 Y150.6059 E0.50487 F1800 ; Fill
G0 X111.707 Y150.6059 F12000 ; Move
G1 X119.863 Y142.4498 E0.50487 F1800 ; Fill
G0 X120.5943 Y142.4498 F12000 ; Move
G1 X112.4382 Y150.6059 E0.50487 F1800 ; Fill
G0 X113.1695 Y150.6059 F12000 ; Move
G1 X121.3256 Y142.4498 E0.50487 F1800 ; Fill
G0 X122.0568 Y142.4498 F12000 ; Move
G1 X113.9008 Y150.6059 E0.50487 F1800 ; Fill
G0 X114.632 Y150.6059 F12000 ; Move
G1 X122.7881 Y142.4498 E0.50487 F1800 ; Fill
G0 X123.5193 Y142.4498 F12000 ; Move
G1 X115.3633 Y150.6059 E0.50487 F1800 ; Fill
G0 X116.0945 Y150.6059 F12000 ; Move
G1 X124.2506 Y142.4498 E0.50487 F1800 ; Fill
G0 X124.9819 Y142.4498 F12000 ; Move
G1 X116.8258 Y150.6059 E0.50487 F1800 ; Fill
G0 X117.5571 Y150.6059 F12000 ; Move
G1 X125.7131 Y142.4498 E0.50487 F1800 ; Fill
G0 X126.4444 Y142.4498 F12000 ; Move
G1 X118.2883 Y150.6059 E0.50487 F1800 ; Fill
G0 X119.0196 Y150.6059 F12000 ; Move
G1 X127.1756 Y142.4498 E0.50487 F1800 ; Fill
G0 X127.9069 Y142.4498 F12000 ; Move
G1 X119.7508 Y150.6059 E0.50487 F1800 ; Fill
G0 X120.4821 Y150.6059 F12000 ; Move
G1 X128.6382 Y142.4498 E0.50487 F1800 ; Fill
G0 X129.3694 Y142.4498 F12000 ; Move
G1 X121.2134 Y150.6059 E0.50487 F1800 ; Fill
G0 X121.9446 Y150.6059 F12000 ; Move
G1 X130.1007 Y142.4498 E0.50487 F1800 ; Fill
G0 X130.8319 Y142.4498 F12000 ; Move
G1 X122.6759 Y150.6059 E0.50487 F1800 ; Fill
G0 X123.4071 Y150.6059 F12000 ; Move
G1 X131.5632 Y142.4498 E0.50487 F1800 ; Fill
G0 X132.2945 Y142.4498 F12000 ; Move
G1 X124.1384 Y150.6059 E0.50487 F1800 ; Fill
G0 X124.8697 Y150.6059 F12000 ; Move
G1 X133.0257 Y142.4498 E0.50487 F1800 ; Fill
G0 X133.757 Y142.4498 F12000 ; Move
G1 X125.6009 Y150.6059 E0.50487 F1800 ; Fill
G0 X126.3322 Y150.6059 F12000 ; Move
G1 X134.4883 Y142.4498 E0.50487 F1800 ; Fill
G0 X135.2195 Y142.4498 F12000 ; Move
G1 X127.0635 Y150.6059 E0.50487 F1800 ; Fill
G0 X127.7947 Y150.6059 F12000 ; Move
G1 X135.9508 Y142.4498 E0.50487 F1800 ; Fill
G0 X136.682 Y142.4498 F12000 ; Move
G1 X128.526 Y150.6059 E0.50487 F1800 ; Fill
G0 X129.2572 Y150.6059 F12000 ; Move
G1 X137.4133 Y142.4498 E0.50487 F1800 ; Fill
G0 X138.1446 Y142.4498 F12000 ; Move
G1 X129.9885 Y150.6059 E0.50487 F1800 ; Fill
G0 X130.7198 Y150.6059 F12000 ; Move
G1 X138.8758 Y142.4498 E0.50487 F1800 ; Fill
G0 X139.6071 Y142.4498 F12000 ; Move
G1 X131.451 Y150.6059 E0.50487 F1800 ; Fill
G0 X132.1823 Y150.6059 F12000 ; Move
G1 X140.3383 Y142.4498 E0.50487 F1800 ; Fill
G0 X141.0696 Y142.4498 F12000 ; Move
G1 X132.9135 Y150.6059 E0.50487 F1800 ; Fill
G0 X133.6448 Y150.6059 F12000 ; Move
G1 X141.8009 Y142.4498 E0.50487 F1800 ; Fill
G0 X142.5321 Y142.4498 F12000 ; Move
G1 X134.3761 Y150.6059 E0.50487 F1800 ; Fill
G0 X135.1073 Y150.6059 F12000 ; Move
G1 X143.2634 Y142.4498 E0.50487 F1800 ; Fill
G0 X143.9946 Y142.4498 F12000 ; Move
G1 X135.8386 Y150.6059 E0.50487 F1800 ; Fill
G0 X136.5698 Y150.6059 F12000 ; Move
G1 X144.7259 Y142.4498 E0.50487 F1800 ; Fill
G0 X145.4572 Y142.4498 F12000 ; Move
G1 X137.3011 Y150.6059 E0.50487 F1800 ; Fill
G0 X138.0324 Y150.6059 F12000 ; Move
G1 X146.1884 Y142.4498 E0.50487 F1800 ; Fill
G0 X146.9197 Y142.4498 F12000 ; Move
G1 X138.7636 Y150.6059 E0.50487 F1800 ; Fill
G0 X139.4949 Y150.6059 F12000 ; Move
G1 X147.651 Y142.4498 E0.50487 F1800 ; Fill
G0 X148.3822 Y142.4498 F12000 ; Move
G1 X140.2261 Y150.6059 E0.50487 F1800 ; Fill
G0 X140.9574 Y150.6059 F12000 ; Move
G1 X149.1135 Y142.4498 E0.50487 F1800 ; Fill
G0 X149.8447 Y142.4498 F12000 ; Move
G1 X141.6887 Y150.6059 E0.50487 F1800 ; Fill
G0 X142.4199 Y150.6059 F12000 ; Move
G1 X150.576 Y142.4498 E0.50487 F1800 ; Fill
G0 X151.3073 Y142.4498 F12000 ; Move
G1 X143.1512 Y150.6059 E0.50487 F1800 ; Fill
G0 X143.8825 Y150.6059 F12000 ; Move
G1 X152.0385 Y142.4498 E0.50487 F1800 ; Fill
G0 X152.7698 Y142.4498 F12000 ; Move
G1 X144.6137 Y150.6059 E0.50487 F1800 ; Fill
G0 X145.2328 Y150.6059 F12000 ; Move
G1 X153.4863 Y142.3524 E0.5109 F1800 ; Fill
G0 X153.4863 Y143.0836 F12000 ; Move
G1 X145.964 Y150.6059 E0.46563 F1800 ; Fill
G0 X146.6953 Y150.6059 F12000 ; Move
G1 X153.4863 Y143.8149 E0.42037 F1800 ; Fill
G0 X153.4863 Y144.5461 F12000 ; Move
G1 X147.4266 Y150.6059 E0.3751 F1800 ; Fill
G0 X148.1578 Y150.6059 F12000 ; Move
G1 X153.4863 Y145.2774 E0.32984 F1800 ; Fill
G0 X153.4863 Y146.0087 F12000 ; Move
G1 X148.8891 Y150.6059 E0.28457 F1800 ; Fill
G0 X149.6204 Y150.6059 F12000 ; Move
G1 X153.4863 Y146.7399 E0.2393 F1800 ; Fill
G0 X153.4863 Y147.4712 F12000 ; Move
G1 X150.3516 Y150.6059 E0.19404 F1800 ; Fill
G0 X151.0829 Y150.6059 F12000 ; Move
G1 X153.4863 Y148.2025 E0.14877 F1800 ; Fill
G0 X153.4863 Y148.9337 F12000 ; Move
G1 X151.8141 Y150.6059 E0.10351 F1800 ; Fill
G0 X152.5454 Y150.6059 F12000 ; Move
G1 X153.4863 Y149.665 E0.05824 F1800 ; Fill
G0 Z0.2 F12000 ; Move to layer height
G1 E-0.5 F2100 ; Retract
G1 Z0.3 F12000 ; Z hop
G0 X78.5483 Y99.558 F12000 ; Move to pattern start

G1 Z0.2 F12000 ; Z hop return
G1 E0.5 F2100 ; Un-retract
SET_PRESSURE_ADVANCE ADVANCE=0 ; Set pressure advance
M117 PA 0
G1 X98.2102 Y119.22 E0.99975 F1800 ; Print pattern perimeter
G1 X78.5483 Y138.882 E0.99975 F1800 ; Print pattern perimeter
G1 E-0.5 F2100 ; Retract
G1 Z0.3 F12000 ; Z hop
G0 X79.1381 Y99.558 F12000 ; Move to start next pattern perimeter
G1 Z0.2 F12000 ; Z hop return
G1 E0.5 F2100 ; Un-retract
G1 X98.8001 Y119.22 E0.99975 F1800 ; Print pattern perimeter
G1 X79.1381 Y138.882 E0.99975 F1800 ; Print pattern perimeter
G1 E-0.5 F2100 ; Retract
G1 Z0.3 F12000 ; Z hop
G0 X79.7279 Y99.558 F12000 ; Move to start next pattern perimeter
G1 Z0.2 F12000 ; Z hop return
G1 E0.5 F2100 ; Un-retract
G1 X99.3899 Y119.22 E0.99975 F1800 ; Print pattern perimeter
G1 X79.7279 Y138.882 E0.99975 F1800 ; Print pattern perimeter
G1 E-0.5 F2100 ; Retract
G1 Z0.3 F12000 ; Z hop
G0 X83.1879 Y99.558 F12000 ; Move to next pattern
G1 Z0.2 F12000 ; Z hop return
G1 E0.5 F2100 ; Un-retract
SET_PRESSURE_ADVANCE ADVANCE=0.005 ; Set pressure advance
M117 PA 0.005
G1 X102.8499 Y119.22 E0.99975 F1800 ; Print pattern perimeter
G1 X83.1879 Y138.882 E0.99975 F1800 ; Print pattern perimeter
G1 E-0.5 F2100 ; Retract
G1 Z0.3 F12000 ; Z hop
G0 X83.7778 Y99.558 F12000 ; Move to start next pattern perimeter
G1 Z0.2 F12000 ; Z hop return
G1 E0.5 F2100 ; Un-retract
G1 X103.4397 Y119.22 E0.99975 F1800 ; Print pattern perimeter
G1 X83.7778 Y138.882 E0.99975 F1800 ; Print pattern perimeter
G1 E-0.5 F2100 ; Retract
G1 Z0.3 F12000 ; Z hop
G0 X84.3676 Y99.558 F12000 ; Move to start next pattern perimeter
G1 Z0.2 F12000 ; Z hop return
G1 E0.5 F2100 ; Un-retract
G1 X104.0296 Y119.22 E0.99975 F1800 ; Print pattern perimeter
G1 X84.3676 Y138.882 E0.99975 F1800 ; Print pattern perimeter
G1 E-0.5 F2100 ; Retract
G1 Z0.3 F12000 ; Z hop
G0 X87.8276 Y99.558 F12000 ; Move to next pattern
G1 Z0.2 F12000 ; Z hop return
G1 E0.5 F2100 ; Un-retract
SET_PRESSURE_ADVANCE ADVANCE=0.01 ; Set pressure advance
M117 PA 0.01
G1 X107.4896 Y119.22 E0.99975 F1800 ; Print pattern perimeter
G1 X87.8276 Y138.882 E0.99975 F1800 ; Print pattern perimeter
G1 E-0.5 F2100 ; Retract
G1 Z0.3 F12000 ; Z hop
G0 X88.4175 Y99.558 F12000 ; Move to start next pattern perimeter
G1 Z0.2 F12000 ; Z hop return
G1 E0.5 F2100 ; Un-retract
G1 X108.0794 Y119.22 E0.99975 F1800 ; Print pattern perimeter
G1 X88.4175 Y138.882 E0.99975 F1800 ; Print pattern perimeter
G1 E-0.5 F2100 ; Retract
G1 Z0.3 F12000 ; Z hop
G0 X89.0073 Y99.558 F12000 ; Move to start next pattern perimeter
G1 Z0.2 F12000 ; Z hop return
G1 E0.5 F2100 ; Un-retract
G1 X108.6693 Y119.22 E0.99975 F1800 ; Print pattern perimeter
G1 X89.0073 Y138.882 E0.99975 F1800 ; Print pattern perimeter
G1 E-0.5 F2100 ; Retract
G1 Z0.3 F12000 ; Z hop
G0 X92.4673 Y99.558 F12000 ; Move to next pattern
G1 Z0.2 F12000 ; Z hop return
G1 E0.5 F2100 ; Un-retract
SET_PRESSURE_ADVANCE ADVANCE=0.015 ; Set pressure advance
M117 PA 0.015
G1 X112.1293 Y119.22 E0.99975 F1800 ; Print pattern perimeter
G1 X92.4673 Y138.882 E0.99975 F1800 ; Print pattern perimeter
G1 E-0.5 F2100 ; Retract
G1 Z0.3 F12000 ; Z hop
G0 X93.0571 Y99.558 F12000 ; Move to start next pattern perimeter
G1 Z0.2 F12000 ; Z hop return
G1 E0.5 F2100 ; Un-retract
G1 X112.7191 Y119.22 E0.99975 F1800 ; Print pattern perimeter
G1 X93.0571 Y138.882 E0.99975 F1800 ; Print pattern perimeter
G1 E-0.5 F2100 ; Retract
G1 Z0.3 F12000 ; Z hop
G0 X93.647 Y99.558 F12000 ; Move to start next pattern perimeter
G1 Z0.2 F12000 ; Z hop return
G1 E0.5 F2100 ; Un-retract
G1 X113.3089 Y119.22 E0.99975 F1800 ; Print pattern perimeter
G1 X93.647 Y138.882 E0.99975 F1800 ; Print pattern perimeter
G1 E-0.5 F2100 ; Retract
G1 Z0.3 F12000 ; Z hop
G0 X97.107 Y99.558 F12000 ; Move to next pattern
G1 Z0.2 F12000 ; Z hop return
G1 E0.5 F2100 ; Un-retract
SET_PRESSURE_ADVANCE ADVANCE=0.02 ; Set pressure advance
M117 PA 0.02
G1 X116.7689 Y119.22 E0.99975 F1800 ; Print pattern perimeter
G1 X97.107 Y138.882 E0.99975 F1800 ; Print pattern perimeter
G1 E-0.5 F2100 ; Retract
G1 Z0.3 F12000 ; Z hop
G0 X97.6968 Y99.558 F12000 ; Move to start next pattern perimeter
G1 Z0.2 F12000 ; Z hop return
G1 E0.5 F2100 ; Un-retract
G1 X117.3588 Y119.22 E0.99975 F1800 ; Print pattern perimeter
G1 X97.6968 Y138.882 E0.99975 F1800 ; Print pattern perimeter
G1 E-0.5 F2100 ; Retract
G1 Z0.3 F12000 ; Z hop
G0 X98.2867 Y99.558 F12000 ; Move to start next pattern perimeter
G1 Z0.2 F12000 ; Z hop return
G1 E0.5 F2100 ; Un-retract
G1 X117.9486 Y119.22 E0.99975 F1800 ; Print pattern perimeter
G1 X98.2867 Y138.882 E0.99975 F1800 ; Print pattern perimeter
G1 E-0.5 F2100 ; Retract
G1 Z0.3 F12000 ; Z hop
G0 X101.7467 Y99.558 F12000 ; Move to next pattern
G1 Z0.2 F12000 ; Z hop return
G1 E0.5 F2100 ; Un-retract
SET_PRESSURE_ADVANCE ADVANCE=0.025 ; Set pressure advance
M117 PA 0.025
G1 X121.4086 Y119.22 E0.99975 F1800 ; Print pattern perimeter
G1 X101.7467 Y138.882 E0.99975 F1800 ; Print pattern perimeter
G1 E-0.5 F2100 ; Retract
G1 Z0.3 F12000 ; Z hop
G0 X102.3365 Y99.558 F12000 ; Move to start next pattern perimeter
G1 Z0.2 F12000 ; Z hop return
G1 E0.5 F2100 ; Un-retract
G1 X121.9985 Y119.22 E0.99975 F1800 ; Print pattern perimeter
G1 X102.3365 Y138.882 E0.99975 F1800 ; Print pattern perimeter
G1 E-0.5 F2100 ; Retract
G1 Z0.3 F12000 ; Z hop
G0 X102.9263 Y99.558 F12000 ; Move to start next pattern perimeter
G1 Z0.2 F12000 ; Z hop return
G1 E0.5 F2100 ; Un-retract
G1 X122.5883 Y119.22 E0.99975 F1800 ; Print pattern perimeter
G1 X102.9263 Y138.882 E0.99975 F1800 ; Print pattern perimeter
G1 E-0.5 F2100 ; Retract
G1 Z0.3 F12000 ; Z hop
G0 X106.3863 Y99.558 F12000 ; Move to next pattern
G1 Z0.2 F12000 ; Z hop return
G1 E0.5 F2100 ; Un-retract
SET_PRESSURE_ADVANCE ADVANCE=0.03 ; Set pressure advance
M117 PA 0.03
G1 X126.0483 Y119.22 E0.99975 F1800 ; Print pattern perimeter
G1 X106.3863 Y138.882 E0.99975 F1800 ; Print pattern perimeter
G1 E-0.5 F2100 ; Retract
G1 Z0.3 F12000 ; Z hop
G0 X106.9762 Y99.558 F12000 ; Move to start next pattern perimeter
G1 Z0.2 F12000 ; Z hop return
G1 E0.5 F2100 ; Un-retract
G1 X126.6381 Y119.22 E0.99975 F1800 ; Print pattern perimeter
G1 X106.9762 Y138.882 E0.99975 F1800 ; Print pattern perimeter
G1 E-0.5 F2100 ; Retract
G1 Z0.3 F12000 ; Z hop
G0 X107.566 Y99.558 F12000 ; Move to start next pattern perimeter
G1 Z0.2 F12000 ; Z hop return
G1 E0.5 F2100 ; Un-retract
G1 X127.228 Y119.22 E0.99975 F1800 ; Print pattern perimeter
G1 X107.566 Y138.882 E0.99975 F1800 ; Print pattern perimeter
G1 E-0.5 F2100 ; Retract
G1 Z0.3 F12000 ; Z hop
G0 X111.026 Y99.558 F12000 ; Move to next pattern
G1 Z0.2 F12000 ; Z hop return
G1 E0.5 F2100 ; Un-retract
SET_PRESSURE_ADVANCE ADVANCE=0.035 ; Set pressure advance
M117 PA 0.035
G1 X130.688 Y119.22 E0.99975 F1800 ; Print pattern perimeter
G1 X111.026 Y138.882 E0.99975 F1800 ; Print pattern perimeter
G1 E-0.5 F2100 ; Retract
G1 Z0.3 F12000 ; Z hop
G0 X111.6159 Y99.558 F12000 ; Move to start next pattern perimeter
G1 Z0.2 F12000 ; Z hop return
G1 E0.5 F2100 ; Un-retract
G1 X131.2778 Y119.22 E0.99975 F1800 ; Print pattern perimeter
G1 X111.6159 Y138.882 E0.99975 F1800 ; Print pattern perimeter
G1 E-0.5 F2100 ; Retract
G1 Z0.3 F12000 ; Z hop
G0 X112.2057 Y99.558 F12000 ; Move to start next pattern perimeter
G1 Z0.2 F12000 ; Z hop return
G1 E0.5 F2100 ; Un-retract
G1 X131.8677 Y119.22 E0.99975 F1800 ; Print pattern perimeter
G1 X112.2057 Y138.882 E0.99975 F1800 ; Print pattern perimeter
G1 E-0.5 F2100 ; Retract
G1 Z0.3 F12000 ; Z hop
G0 X115.6657 Y99.558 F12000 ; Move to next pattern
G1 Z0.2 F12000 ; Z hop return
G1 E0.5 F2100 ; Un-retract
SET_PRESSURE_ADVANCE ADVANCE=0.04 ; Set pressure advance
M117 PA 0.04
G1 X135.3277 Y119.22 E0.99975 F1800 ; Print pattern perimeter
G1 X115.6657 Y138.882 E0.99975 F1800 ; Print pattern perimeter
G1 E-0.5 F2100 ; Retract
G1 Z0.3 F12000 ; Z hop
G0 X116.2555 Y99.558 F12000 ; Move to start next pattern perimeter
G1 Z0.2 F12000 ; Z hop return
G1 E0.5 F2100 ; Un-retract
G1 X135.9175 Y119.22 E0.99975 F1800 ; Print pattern perimeter
G1 X116.2555 Y138.882 E0.99975 F1800 ; Print pattern perimeter
G1 E-0.5 F2100 ; Retract
G1 Z0.3 F12000 ; Z hop
G0 X116.8454 Y99.558 F12000 ; Move to start next pattern perimeter
G1 Z0.2 F12000 ; Z hop return
G1 E0.5 F2100 ; Un-retract
G1 X136.5073 Y119.22 E0.99975 F1800 ; Print pattern perimeter
G1 X116.8454 Y138.882 E0.99975 F1800 ; Print pattern perimeter
G1 E-0.5 F2100 ; Retract
G1 Z0.3 F12000 ; Z hop
G0 X120.3054 Y99.558 F12000 ; Move to next pattern
G1 Z0.2 F12000 ; Z hop return
G1 E0.5 F2100 ; Un-retract
SET_PRESSURE_ADVANCE ADVANCE=0.045 ; Set pressure advance
M117 PA 0.045
G1 X139.9673 Y119.22 E0.99975 F1800 ; Print pattern perimeter
G1 X120.3054 Y138.882 E0.99975 F1800 ; Print pattern perimeter
G1 E-0.5 F2100 ; Retract
G1 Z0.3 F12000 ; Z hop
G0 X120.8952 Y99.558 F12000 ; Move to start next pattern perimeter
G1 Z0.2 F12000 ; Z hop return
G1 E0.5 F2100 ; Un-retract
G1 X140.5572 Y119.22 E0.99975 F1800 ; Print pattern perimeter
G1 X120.8952 Y138.882 E0.99975 F1800 ; Print pattern perimeter
G1 E-0.5 F2100 ; Retract
G1 Z0.3 F12000 ; Z hop
G0 X121.4851 Y99.558 F12000 ; Move to start next pattern perimeter
G1 Z0.2 F12000 ; Z hop return
G1 E0.5 F2100 ; Un-retract
G1 X141.147 Y119.22 E0.99975 F1800 ; Print pattern perimeter
G1 X121.4851 Y138.882 E0.99975 F1800 ; Print pattern perimeter
G1 E-0.5 F2100 ; Retract
G1 Z0.3 F12000 ; Z hop
G0 X124.9451 Y99.558 F12000 ; Move to next pattern
G1 Z0.2 F12000 ; Z hop return
G1 E0.5 F2100 ; Un-retract
SET_PRESSURE_ADVANCE ADVANCE=0.05 ; Set pressure advance
M117 PA 0.05
G1 X144.607 Y119.22 E0.99975 F1800 ; Print pattern perimeter
G1 X124.9451 Y138.882 E0.99975 F1800 ; Print pattern perimeter
G1 E-0.5 F2100 ; Retract
G1 Z0.3 F12000 ; Z hop
G0 X125.5349 Y99.558 F12000 ; Move to start next pattern perimeter
G1 Z0.2 F12000 ; Z hop return
G1 E0.5 F2100 ; Un-retract
G1 X145.1969 Y119.22 E0.99975 F1800 ; Print pattern perimeter
G1 X125.5349 Y138.882 E0.99975 F1800 ; Print pattern perimeter
G1 E-0.5 F2100 ; Retract
G1 Z0.3 F12000 ; Z hop
G0 X126.1247 Y99.558 F12000 ; Move to start next pattern perimeter
G1 Z0.2 F12000 ; Z hop return
G1 E0.5 F2100 ; Un-retract
G1 X145.7867 Y119.22 E0.99975 F1800 ; Print pattern perimeter
G1 X126.1247 Y138.882 E0.99975 F1800 ; Print pattern perimeter
G1 E-0.5 F2100 ; Retract
G1 Z0.3 F12000 ; Z hop
G0 X129.5847 Y99.558 F12000 ; Move to next pattern
G1 Z0.2 F12000 ; Z hop return
G1 E0.5 F2100 ; Un-retract
SET_PRESSURE_ADVANCE ADVANCE=0.055 ; Set pressure advance
M117 PA 0.055
G1 X149.2467 Y119.22 E0.99975 F1800 ; Print pattern perimeter
G1 X129.5847 Y138.882 E0.99975 F1800 ; Print pattern perimeter
G1 E-0.5 F2100 ; Retract
G1 Z0.3 F12000 ; Z hop
G0 X130.1746 Y99.558 F12000 ; Move to start next pattern perimeter
G1 Z0.2 F12000 ; Z hop return
G1 E0.5 F2100 ; Un-retract
G1 X149.8365 Y119.22 E0.99975 F1800 ; Print pattern perimeter
G1 X130.1746 Y138.882 E0.99975 F1800 ; Print pattern perimeter
G1 E-0.5 F2100 ; Retract
G1 Z0.3 F12000 ; Z hop
G0 X130.7644 Y99.558 F12000 ; Move to start next pattern perimeter
G1 Z0.2 F12000 ; Z hop return
G1 E0.5 F2100 ; Un-retract
G1 X150.4264 Y119.22 E0.99975 F1800 ; Print pattern perimeter
G1 X130.7644 Y138.882 E0.99975 F1800 ; Print pattern perimeter
G1 E-0.5 F2100 ; Retract
G1 Z0.3 F12000 ; Z hop
G0 X134.2244 Y99.558 F12000 ; Move to next pattern
G1 Z0.2 F12000 ; Z hop return
G1 E0.5 F2100 ; Un-retract
SET_PRESSURE_ADVANCE ADVANCE=0.06 ; Set pressure advance
M117 PA 0.06
G1 X153.8864 Y119.22 E0.99975 F1800 ; Print pattern perimeter
G1 X134.2244 Y138.882 E0.99975 F1800 ; Print pattern perimeter
G1 E-0.5 F2100 ; Retract
G1 Z0.3 F12000 ; Z hop
G0 X134.8143 Y99.558 F12000 ; Move to start next pattern perimeter
G1 Z0.2 F12000 ; Z hop return
G1 E0.5 F2100 ; Un-retract
G1 X154.4762 Y119.22 E0.99975 F1800 ; Print pattern perimeter
G1 X134.8143 Y138.882 E0.99975 F1800 ; Print pattern perimeter
G1 E-0.5 F2100 ; Retract
G1 Z0.3 F12000 ; Z hop
G0 X135.4041 Y99.558 F12000 ; Move to start next pattern perimeter
G1 Z0.2 F12000 ; Z hop return
G1 E0.5 F2100 ; Un-retract
G1 X155.0661 Y119.22 E0.99975 F1800 ; Print pattern perimeter
G1 X135.4041 Y138.882 E0.99975 F1800 ; Print pattern perimeter
G1 E-0.5 F2100 ; Retract
G1 Z0.3 F12000 ; Z hop
G0 X138.8641 Y99.558 F12000 ; Move to next pattern
G1 Z0.2 F12000 ; Z hop return
G1 E0.5 F2100 ; Un-retract
SET_PRESSURE_ADVANCE ADVANCE=0.065 ; Set pressure advance
M117 PA 0.065
G1 X158.5261 Y119.22 E0.99975 F1800 ; Print pattern perimeter
G1 X138.8641 Y138.882 E0.99975 F1800 ; Print pattern perimeter
G1 E-0.5 F2100 ; Retract
G1 Z0.3 F12000 ; Z hop
G0 X139.4539 Y99.558 F12000 ; Move to start next pattern perimeter
G1 Z0.2 F12000 ; Z hop return
G1 E0.5 F2100 ; Un-retract
G1 X159.1159 Y119.22 E0.99975 F1800 ; Print pattern perimeter
G1 X139.4539 Y138.882 E0.99975 F1800 ; Print pattern perimeter
G1 E-0.5 F2100 ; Retract
G1 Z0.3 F12000 ; Z hop
G0 X140.0438 Y99.558 F12000 ; Move to start next pattern perimeter
G1 Z0.2 F12000 ; Z hop return
G1 E0.5 F2100 ; Un-retract
G1 X159.7057 Y119.22 E0.99975 F1800 ; Print pattern perimeter
G1 X140.0438 Y138.882 E0.99975 F1800 ; Print pattern perimeter
G1 E-0.5 F2100 ; Retract
G1 Z0.3 F12000 ; Z hop
G0 X143.5038 Y99.558 F12000 ; Move to next pattern
G1 Z0.2 F12000 ; Z hop return
G1 E0.5 F2100 ; Un-retract
SET_PRESSURE_ADVANCE ADVANCE=0.07 ; Set pressure advance
M117 PA 0.07
G1 X163.1657 Y119.22 E0.99975 F1800 ; Print pattern perimeter
G1 X143.5038 Y138.882 E0.99975 F1800 ; Print pattern perimeter
G1 E-0.5 F2100 ; Retract
G1 Z0.3 F12000 ; Z hop
G0 X144.0936 Y99.558 F12000 ; Move to start next pattern perimeter
G1 Z0.2 F12000 ; Z hop return
G1 E0.5 F2100 ; Un-retract
G1 X163.7556 Y119.22 E0.99975 F1800 ; Print pattern perimeter
G1 X144.0936 Y138.882 E0.99975 F1800 ; Print pattern perimeter
G1 E-0.5 F2100 ; Retract
G1 Z0.3 F12000 ; Z hop
G0 X144.6834 Y99.558 F12000 ; Move to start next pattern perimeter
G1 Z0.2 F12000 ; Z hop return
G1 E0.5 F2100 ; Un-retract
G1 X164.3454 Y119.22 E0.99975 F1800 ; Print pattern perimeter
G1 X144.6834 Y138.882 E0.99975 F1800 ; Print pattern perimeter
G1 E-0.5 F2100 ; Retract
G1 Z0.3 F12000 ; Z hop
G0 X148.1434 Y99.558 F12000 ; Move to next pattern
G1 Z0.2 F12000 ; Z hop return
G1 E0.5 F2100 ; Un-retract
SET_PRESSURE_ADVANCE ADVANCE=0.075 ; Set pressure advance
M117 PA 0.075
G1 X167.8054 Y119.22 E0.99975 F1800 ; Print pattern perimeter
G1 X148.1434 Y138.882 E0.99975 F1800 ; Print pattern perimeter
G1 E-0.5 F2100 ; Retract
G1 Z0.3 F12000 ; Z hop
G0 X148.7333 Y99.558 F12000 ; Move to start next pattern perimeter
G1 Z0.2 F12000 ; Z hop return
G1 E0.5 F2100 ; Un-retract
G1 X168.3953 Y119.22 E0.99975 F1800 ; Print pattern perimeter
G1 X148.7333 Y138.882 E0.99975 F1800 ; Print pattern perimeter
G1 E-0.5 F2100 ; Retract
G1 Z0.3 F12000 ; Z hop
G0 X149.3231 Y99.558 F12000 ; Move to start next pattern perimeter
G1 Z0.2 F12000 ; Z hop return
G1 E0.5 F2100 ; Un-retract
G1 X168.9851 Y119.22 E0.99975 F1800 ; Print pattern perimeter
G1 X149.3231 Y138.882 E0.99975 F1800 ; Print pattern perimeter
G1 E-0.5 F2100 ; Retract
G1 Z0.3 F12000 ; Z hop
G0 X152.7831 Y99.558 F12000 ; Move to next pattern
G1 Z0.2 F12000 ; Z hop return
G1 E0.5 F2100 ; Un-retract
SET_PRESSURE_ADVANCE ADVANCE=0.08 ; Set pressure advance
M117 PA 0.08
G1 X172.4451 Y119.22 E0.99975 F1800 ; Print pattern perimeter
G1 X152.7831 Y138.882 E0.99975 F1800 ; Print pattern perimeter
G1 E-0.5 F2100 ; Retract
G1 Z0.3 F12000 ; Z hop
G0 X153.373 Y99.558 F12000 ; Move to start next pattern perimeter
G1 Z0.2 F12000 ; Z hop return
G1 E0.5 F2100 ; Un-retract
G1 X173.0349 Y119.22 E0.99975 F1800 ; Print pattern perimeter
G1 X153.373 Y138.882 E0.99975 F1800 ; Print pattern perimeter
G1 E-0.5 F2100 ; Retract
G1 Z0.3 F12000 ; Z hop
G0 X153.9628 Y99.558 F12000 ; Move to start next pattern perimeter
G1 Z0.2 F12000 ; Z hop return
G1 E0.5 F2100 ; Un-retract
G1 X173.6248 Y119.22 E0.99975 F1800 ; Print pattern perimeter
G1 X153.9628 Y138.882 E0.99975 F1800 ; Print pattern perimeter
G1 E-0.5 F2100 ; Retract
G1 Z0.3 F12000 ; Z hop
G0 X78.5483 Y99.558 F12000 ; Move back to start position
G1 Z0.2 F12000 ; Z hop return
G1 E0.5 F2100 ; Un-retract
M106 S255 ; Set fan speed
G0 Z0.4 F12000 ; Move to layer height
G1 E-0.5 F2100 ; Retract
G1 Z0.5 F12000 ; Z hop
G0 X75.5869 Y141.8932 F12000 ; Move
G1 Z0.4 F12000 ; Z hop return
G1 E0.5 F2100 ; Un-retract
G1 X77.5869 Y141.8932 E0.07191 F12000 ; Glyph: 0
G1 X79.5869 Y141.8932 E0.07191 F12000 ; Glyph: 0
G1 X79.5869 Y143.8932 E0.07191 F12000 ; Glyph: 0
G1 X77.5869 Y143.8932 E0.07191 F12000 ; Glyph: 0
G1 X75.5869 Y143.8932 E0.07191 F12000 ; Glyph: 0
G1 X75.5869 Y141.8932 E0.07191 F12000 ; Glyph: 0
G1 E-0.5 F2100 ; Retract
G1 Z0.5 F12000 ; Z hop
G0 X84.8662 Y141.8932 F12000 ; Move
G1 Z0.4 F12000 ; Z hop return
G1 E0.5 F2100 ; Un-retract
G1 X86.8662 Y141.8932 E0.07191 F12000 ; Glyph: 0
G1 X88.8662 Y141.8932 E0.07191 F12000 ; Glyph: 0
G1 X88.8662 Y143.8932 E0.07191 F12000 ; Glyph: 0
G1 X86.8662 Y143.8932 E0.07191 F12000 ; Glyph: 0
G1 X84.8662 Y143.8932 E0.07191 F12000 ; Glyph: 0
G1 X84.8662 Y141.8932 E0.07191 F12000 ; Glyph: 0
G1 E-0.5 F2100 ; Retract
G1 Z0.5 F12000 ; Z hop
G0 X88.8662 Y144.8932 F12000 ; Move
G1 Z0.4 F12000 ; Z hop return
G1 E0.5 F2100 ; Un-retract
G1 X88.1162 Y144.8932 E0.02697 F12000 ; Glyph: .
G1 E-0.5 F2100 ; Retract
G1 Z0.5 F12000 ; Z hop
G0 X84.8662 Y145.8932 F12000 ; Move
G1 Z0.4 F12000 ; Z hop return
G1 E0.5 F2100 ; Un-retract
G1 X86.8662 Y145.8932 E0.07191 F12000 ; Glyph: 0
G1 X88.8662 Y145.8932 E0.07191 F12000 ; Glyph: 0
G1 X88.8662 Y147.8932 E0.07191 F12000 ; Glyph: 0
G1 X86.8662 Y147.8932 E0.07191 F12000 ; Glyph: 0
G1 X84.8662 Y147.8932 E0.07191 F12000 ; Glyph: 0
G1 X84.8662 Y145.8932 E0.07191 F12000 ; Glyph: 0
G1 E-0.5 F2100 ; Retract
G1 Z0.5 F12000 ; Z hop
G0 X84.8662 Y148.8932 F12000 ; Move
G1 Z0.4 F12000 ; Z hop return
G1 E0.5 F2100 ; Un-retract
G1 X86.8662 Y148.8932 E0.07191 F12000 ; Glyph: 1
G1 X88.8662 Y148.8932 E0.07191 F12000 ; Glyph: 1
G1 E-0.5 F2100 ; Retract
G1 Z0.5 F12000 ; Z hop
G0 X94.1456 Y141.8932 F12000 ; Move
G1 Z0.4 F12000 ; Z hop return
G1 E0.5 F2100 ; Un-retract
G1 X96.1456 Y141.8932 E0.07191 F12000 ; Glyph: 0
G1 X98.1456 Y141.8932 E0.07191 F12000 ; Glyph: 0
G1 X98.1456 Y143.8932 E0.07191 F12000 ; Glyph: 0
G1 X96.1456 Y143.8932 E0.07191 F12000 ; Glyph: 0
G1 X94.1456 Y143.8932 E0.07191 F12000 ; Glyph: 0
G1 X94.1456 Y141.8932 E0.07191 F12000 ; Glyph: 0
G1 E-0.5 F2100 ; Retract
G1 Z0.5 F12000 ; Z hop
G0 X98.1456 Y144.8932 F12000 ; Move
G1 Z0.4 F12000 ; Z hop return
G1 E0.5 F2100 ; Un-retract
G1 X97.3956 Y144.8932 E0.02697 F12000 ; Glyph: .
G1 E-0.5 F2100 ; Retract
G1 Z0.5 F12000 ; Z hop
G0 X94.1456 Y145.8932 F12000 ; Move
G1 Z0.4 F12000 ; Z hop return
G1 E0.5 F2100 ; Un-retract
G1 X96.1456 Y145.8932 E0.07191 F12000 ; Glyph: 0
G1 X98.1456 Y145.8932 E0.07191 F12000 ; Glyph: 0
G1 X98.1456 Y147.8932 E0.07191 F12000 ; Glyph: 0
G1 X96.1456 Y147.8932 E0.07191 F12000 ; Glyph: 0
G1 X94.1456 Y147.8932 E0.07191 F12000 ; Glyph: 0
G1 X94.1456 Y145.8932 E0.07191 F12000 ; Glyph: 0
G1 E-0.5 F2100 ; Retract
G1 Z0.5 F12000 ; Z hop
G0 X94.1456 Y148.8932 F12000 ; Move
G1 Z0.4 F12000 ; Z hop return
G1 E0.5 F2100 ; Un-retract
G1 X94.1456 Y150.8932 E0.07191 F12000 ; Glyph: 2
G1 X96.1456 Y150.8932 E0.07191 F12000 ; Glyph: 2
G1 X96.1456 Y148.8932 E0.07191 F12000 ; Glyph: 2
G1 X98.1456 Y148.8932 E0.07191 F12000 ; Glyph: 2
G1 X98.1456 Y150.8932 E0.07191 F12000 ; Glyph: 2
G1 E-0.5 F2100 ; Retract
G1 Z0.5 F12000 ; Z hop
G0 X103.4249 Y141.8932 F12000 ; Move
G1 Z0.4 F12000 ; Z hop return
G1 E0.5 F2100 ; Un-retract
G1 X105.4249 Y141.8932 E0.07191 F12000 ; Glyph: 0
G1 X107.4249 Y141.8932 E0.07191 F12000 ; Glyph: 0
G1 X107.4249 Y143.8932 E0.07191 F12000 ; Glyph: 0
G1 X105.4249 Y143.8932 E0.07191 F12000 ; Glyph: 0
G1 X103.4249 Y143.8932 E0.07191 F12000 ; Glyph: 0
G1 X103.4249 Y141.8932 E0.07191 F12000 ; Glyph: 0
G1 E-0.5 F2100 ; Retract
G1 Z0.5 F12000 ; Z hop
G0 X107.4249 Y144.8932 F12000 ; Move
G1 Z0.4 F12000 ; Z hop return
G1 E0.5 F2100 ; Un-retract
G1 X106.6749 Y144.8932 E0.02697 F12000 ; Glyph: .
G1 E-0.5 F2100 ; Retract
G1 Z0.5 F12000 ; Z hop
G0 X103.4249 Y145.8932 F12000 ; Move
G1 Z0.4 F12000 ; Z hop return
G1 E0.5 F2100 ; Un-retract
G1 X105.4249 Y145.8932 E0.07191 F12000 ; Glyph: 0
G1 X107.4249 Y145.8932 E0.07191 F12000 ; Glyph: 0
G1 X107.4249 Y147.8932 E0.07191 F12000 ; Glyph: 0
G1 X105.4249 Y147.8932 E0.07191 F12000 ; Glyph: 0
G1 X103.4249 Y147.8932 E0.07191 F12000 ; Glyph: 0
G1 X103.4249 Y145.8932 E0.07191 F12000 ; Glyph: 0
G1 E-0.5 F2100 ; Retract
G1 Z0.5 F12000 ; Z hop
G0 X103.4249 Y148.8932 F12000 ; Move
G1 Z0.4 F12000 ; Z hop return
G1 E0.5 F2100 ; Un-retract
G1 X103.4249 Y150.8932 E0.07191 F12000 ; Glyph: 3
G1 X105.4249 Y150.8932 E0.07191 F12000 ; Glyph: 3
G1 X105.4249 Y148.8932 E0.07191 F12000 ; Glyph: 3
G0 X105.4249 Y150.8932 F12000 ; Move
G1 X107.4249 Y150.8932 E0.07191 F12000 ; Glyph: 3
G1 X107.4249 Y148.8932 E0.07191 F12000 ; Glyph: 3
G1 E-0.5 F2100 ; Retract
G1 Z0.5 F12000 ; Z hop
G0 X112.7043 Y141.8932 F12000 ; Move
G1 Z0.4 F12000 ; Z hop return
G1 E0.5 F2100 ; Un-retract
G1 X114.7043 Y141.8932 E0.07191 F12000 ; Glyph: 0
G1 X116.7043 Y141.8932 E0.07191 F12000 ; Glyph: 0
G1 X116.7043 Y143.8932 E0.07191 F12000 ; Glyph: 0
G1 X114.7043 Y143.8932 E0.07191 F12000 ; Glyph: 0
G1 X112.7043 Y143.8932 E0.07191 F12000 ; Glyph: 0
G1 X112.7043 Y141.8932 E0.07191 F12000 ; Glyph: 0
G1 E-0.5 F2100 ; Retract
G1 Z0.5 F12000 ; Z hop
G0 X116.7043 Y144.8932 F12000 ; Move
G1 Z0.4 F12000 ; Z hop return
G1 E0.5 F2100 ; Un-retract
G1 X115.9543 Y144.8932 E0.02697 F12000 ; Glyph: .
G1 E-0.5 F2100 ; Retract
G1 Z0.5 F12000 ; Z hop
G0 X112.7043 Y145.8932 F12000 ; Move
G1 Z0.4 F12000 ; Z hop return
G1 E0.5 F2100 ; Un-retract
G1 X114.7043 Y145.8932 E0.07191 F12000 ; Glyph: 0
G1 X116.7043 Y145.8932 E0.07191 F12000 ; Glyph: 0
G1 X116.7043 Y147.8932 E0.07191 F12000 ; Glyph: 0
G1 X114.7043 Y147.8932 E0.07191 F12000 ; Glyph: 0
G1 X112.7043 Y147.8932 E0.07191 F12000 ; Glyph: 0
G1 X112.7043 Y145.8932 E0.07191 F12000 ; Glyph: 0
G1 E-0.5 F2100 ; Retract
G1 Z0.5 F12000 ; Z hop
G0 X112.7043 Y150.8932 F12000 ; Move
G1 Z0.4 F12000 ; Z hop return
G1 E0.5 F2100 ; Un-retract
G1 X114.7043 Y150.8932 E0.07191 F12000 ; Glyph: 4
G1 X116.7043 Y150.8932 E0.07191 F12000 ; Glyph: 4
G0 X114.7043 Y150.8932 F12000 ; Move
G1 X114.7043 Y148.8932 E0.07191 F12000 ; Glyph: 4
G1 X112.7043 Y148.8932 E0.07191 F12000 ; Glyph: 4
G1 E-0.5 F2100 ; Retract
G1 Z0.5 F12000 ; Z hop
G0 X121.9837 Y141.8932 F12000 ; Move
G1 Z0.4 F12000 ; Z hop return
G1 E0.5 F2100 ; Un-retract
G1 X123.9837 Y141.8932 E0.07191 F12000 ; Glyph: 0
G1 X125.9837 Y141.8932 E0.07191 F12000 ; Glyph: 0
G1 X125.9837 Y143.8932 E0.07191 F12000 ; Glyph: 0
G1 X123.9837 Y143.8932 E0.07191 F12000 ; Glyph: 0
G1 X121.9837 Y143.8932 E0.07191 F12000 ; Glyph: 0
G1 X121.9837 Y141.8932 E0.07191 F12000 ; Glyph: 0
G1 E-0.5 F2100 ; Retract
G1 Z0.5 F12000 ; Z hop
G0 X125.9837 Y144.8932 F12000 ; Move
G1 Z0.4 F12000 ; Z hop return
G1 E0.5 F2100 ; Un-retract
G1 X125.2337 Y144.8932 E0.02697 F12000 ; Glyph: .
G1 E-0.5 F2100 ; Retract
G1 Z0.5 F12000 ; Z hop
G0 X121.9837 Y145.8932 F12000 ; Move
G1 Z0.4 F12000 ; Z hop return
G1 E0.5 F2100 ; Un-retract
G1 X123.9837 Y145.8932 E0.07191 F12000 ; Glyph: 0
G1 X125.9837 Y145.8932 E0.07191 F12000 ; Glyph: 0
G1 X125.9837 Y147.8932 E0.07191 F12000 ; Glyph: 0
G1 X123.9837 Y147.8932 E0.07191 F12000 ; Glyph: 0
G1 X121.9837 Y147.8932 E0.07191 F12000 ; Glyph: 0
G1 X121.9837 Y145.8932 E0.07191 F12000 ; Glyph: 0
G1 E-0.5 F2100 ; Retract
G1 Z0.5 F12000 ; Z hop
G0 X121.9837 Y150.8932 F12000 ; Move
G1 Z0.4 F12000 ; Z hop return
G1 E0.5 F2100 ; Un-retract
G1 X121.9837 Y148.8932 E0.07191 F12000 ; Glyph: 5
G1 X123.9837 Y148.8932 E0.07191 F12000 ; Glyph: 5
G1 X123.9837 Y150.8932 E0.07191 F12000 ; Glyph: 5
G1 X125.9837 Y150.8932 E0.07191 F12000 ; Glyph: 5
G1 X125.9837 Y148.8932 E0.07191 F12000 ; Glyph: 5
G1 E-0.5 F2100 ; Retract
G1 Z0.5 F12000 ; Z hop
G0 X131.263 Y141.8932 F12000 ; Move
G1 Z0.4 F12000 ; Z hop return
G1 E0.5 F2100 ; Un-retract
G1 X133.263 Y141.8932 E0.07191 F12000 ; Glyph: 0
G1 X135.263 Y141.8932 E0.07191 F12000 ; Glyph: 0
G1 X135.263 Y143.8932 E0.07191 F12000 ; Glyph: 0
G1 X133.263 Y143.8932 E0.07191 F12000 ; Glyph: 0
G1 X131.263 Y143.8932 E0.07191 F12000 ; Glyph: 0
G1 X131.263 Y141.8932 E0.07191 F12000 ; Glyph: 0
G1 E-0.5 F2100 ; Retract
G1 Z0.5 F12000 ; Z hop
G0 X135.263 Y144.8932 F12000 ; Move
G1 Z0.4 F12000 ; Z hop return
G1 E0.5 F2100 ; Un-retract
G1 X134.513 Y144.8932 E0.02697 F12000 ; Glyph: .
G1 E-0.5 F2100 ; Retract
G1 Z0.5 F12000 ; Z hop
G0 X131.263 Y145.8932 F12000 ; Move
G1 Z0.4 F12000 ; Z hop return
G1 E0.5 F2100 ; Un-retract
G1 X133.263 Y145.8932 E0.07191 F12000 ; Glyph: 0
G1 X135.263 Y145.8932 E0.07191 F12000 ; Glyph: 0
G1 X135.263 Y147.8932 E0.07191 F12000 ; Glyph: 0
G1 X133.263 Y147.8932 E0.07191 F12000 ; Glyph: 0
G1 X131.263 Y147.8932 E0.07191 F12000 ; Glyph: 0
G1 X131.263 Y145.8932 E0.07191 F12000 ; Glyph: 0
G1 E-0.5 F2100 ; Retract
G1 Z0.5 F12000 ; Z hop
G0 X131.263 Y150.8932 F12000 ; Move
G1 Z0.4 F12000 ; Z hop return
G1 E0.5 F2100 ; Un-retract
G1 X131.263 Y148.8932 E0.07191 F12000 ; Glyph: 6
G1 X133.263 Y148.8932 E0.07191 F12000 ; Glyph: 6
G1 X135.263 Y148.8932 E0.07191 F12000 ; Glyph: 6
G1 X135.263 Y150.8932 E0.07191 F12000 ; Glyph: 6
G1 X133.263 Y150.8932 E0.07191 F12000 ; Glyph: 6
G1 X133.263 Y148.8932 E0.07191 F12000 ; Glyph: 6
G1 E-0.5 F2100 ; Retract
G1 Z0.5 F12000 ; Z hop
G0 X140.5424 Y141.8932 F12000 ; Move
G1 Z0.4 F12000 ; Z hop return
G1 E0.5 F2100 ; Un-retract
G1 X142.5424 Y141.8932 E0.07191 F12000 ; Glyph: 0
G1 X144.5424 Y141.8932 E0.07191 F12000 ; Glyph: 0
G1 X144.5424 Y143.8932 E0.07191 F12000 ; Glyph: 0
G1 X142.5424 Y143.8932 E0.07191 F12000 ; Glyph: 0
G1 X140.5424 Y143.8932 E0.07191 F12000 ; Glyph: 0
G1 X140.5424 Y141.8932 E0.07191 F12000 ; Glyph: 0
G1 E-0.5 F2100 ; Retract
G1 Z0.5 F12000 ; Z hop
G0 X144.5424 Y144.8932 F12000 ; Move
G1 Z0.4 F12000 ; Z hop return
G1 E0.5 F2100 ; Un-retract
G1 X143.7924 Y144.8932 E0.02697 F12000 ; Glyph: .
G1 E-0.5 F2100 ; Retract
G1 Z0.5 F12000 ; Z hop
G0 X140.5424 Y145.8932 F12000 ; Move
G1 Z0.4 F12000 ; Z hop return
G1 E0.5 F2100 ; Un-retract
G1 X142.5424 Y145.8932 E0.07191 F12000 ; Glyph: 0
G1 X144.5424 Y145.8932 E0.07191 F12000 ; Glyph: 0
G1 X144.5424 Y147.8932 E0.07191 F12000 ; Glyph: 0
G1 X142.5424 Y147.8932 E0.07191 F12000 ; Glyph: 0
G1 X140.5424 Y147.8932 E0.07191 F12000 ; Glyph: 0
G1 X140.5424 Y145.8932 E0.07191 F12000 ; Glyph: 0
G1 E-0.5 F2100 ; Retract
G1 Z0.5 F12000 ; Z hop
G0 X140.5424 Y148.8932 F12000 ; Move
G1 Z0.4 F12000 ; Z hop return
G1 E0.5 F2100 ; Un-retract
G1 X140.5424 Y150.8932 E0.07191 F12000 ; Glyph: 7
G1 X142.5424 Y150.8932 E0.07191 F12000 ; Glyph: 7
G1 X144.5424 Y150.8932 E0.07191 F12000 ; Glyph: 7
G1 E-0.5 F2100 ; Retract
G1 Z0.5 F12000 ; Z hop
G0 X149.8217 Y141.8932 F12000 ; Move
G1 Z0.4 F12000 ; Z hop return
G1 E0.5 F2100 ; Un-retract
G1 X151.8217 Y141.8932 E0.07191 F12000 ; Glyph: 0
G1 X153.8217 Y141.8932 E0.07191 F12000 ; Glyph: 0
G1 X153.8217 Y143.8932 E0.07191 F12000 ; Glyph: 0
G1 X151.8217 Y143.8932 E0.07191 F12000 ; Glyph: 0
G1 X149.8217 Y143.8932 E0.07191 F12000 ; Glyph: 0
G1 X149.8217 Y141.8932 E0.07191 F12000 ; Glyph: 0
G1 E-0.5 F2100 ; Retract
G1 Z0.5 F12000 ; Z hop
G0 X153.8217 Y144.8932 F12000 ; Move
G1 Z0.4 F12000 ; Z hop return
G1 E0.5 F2100 ; Un-retract
G1 X153.0717 Y144.8932 E0.02697 F12000 ; Glyph: .
G1 E-0.5 F2100 ; Retract
G1 Z0.5 F12000 ; Z hop
G0 X149.8217 Y145.8932 F12000 ; Move
G1 Z0.4 F12000 ; Z hop return
G1 E0.5 F2100 ; Un-retract
G1 X151.8217 Y145.8932 E0.07191 F12000 ; Glyph: 0
G1 X153.8217 Y145.8932 E0.07191 F12000 ; Glyph: 0
G1 X153.8217 Y147.8932 E0.07191 F12000 ; Glyph: 0
G1 X151.8217 Y147.8932 E0.07191 F12000 ; Glyph: 0
G1 X149.8217 Y147.8932 E0.07191 F12000 ; Glyph: 0
G1 X149.8217 Y145.8932 E0.07191 F12000 ; Glyph: 0
G1 E-0.5 F2100 ; Retract
G1 Z0.5 F12000 ; Z hop
G0 X149.8217 Y148.8932 F12000 ; Move
G1 Z0.4 F12000 ; Z hop return
G1 E0.5 F2100 ; Un-retract
G1 X151.8217 Y148.8932 E0.07191 F12000 ; Glyph: 8
G1 X153.8217 Y148.8932 E0.07191 F12000 ; Glyph: 8
G1 X153.8217 Y150.8932 E0.07191 F12000 ; Glyph: 8
G1 X151.8217 Y150.8932 E0.07191 F12000 ; Glyph: 8
G1 X149.8217 Y150.8932 E0.07191 F12000 ; Glyph: 8
G1 X149.8217 Y148.8932 E0.07191 F12000 ; Glyph: 8
G0 X151.8217 Y148.8932 F12000 ; Move
G1 X151.8217 Y150.8932 E0.07191 F12000 ; Glyph: 8
G1 E-0.5 F2100 ; Retract
G1 Z0.5 F12000 ; Z hop
G0 X76.997 Y98.0068 F12000 ; Move to pattern start

G1 Z0.4 F12000 ; Z hop return
G1 E0.5 F2100 ; Un-retract
SET_PRESSURE_ADVANCE ADVANCE=0 ; Set pressure advance
M117 PA 0
G1 X98.2102 Y119.22 E1.07863 F12000 ; Print pattern perimeter
G1 X76.997 Y140.4332 E1.07863 F12000 ; Print pattern perimeter
G1 E-0.5 F2100 ; Retract
G1 Z0.5 F12000 ; Z hop
G0 X77.5869 Y98.0068 F12000 ; Move to start next pattern perimeter
G1 Z0.4 F12000 ; Z hop return
G1 E0.5 F2100 ; Un-retract
G1 X98.8001 Y119.22 E1.07863 F12000 ; Print pattern perimeter
G1 X77.5869 Y140.4332 E1.07863 F12000 ; Print pattern perimeter
G1 E-0.5 F2100 ; Retract
G1 Z0.5 F12000 ; Z hop
G0 X78.1767 Y98.0068 F12000 ; Move to start next pattern perimeter
G1 Z0.4 F12000 ; Z hop return
G1 E0.5 F2100 ; Un-retract
G1 X99.3899 Y119.22 E1.07863 F12000 ; Print pattern perimeter
G1 X78.1767 Y140.4332 E1.07863 F12000 ; Print pattern perimeter
G1 E-0.5 F2100 ; Retract
G1 Z0.5 F12000 ; Z hop
G0 X81.6367 Y98.0068 F12000 ; Move to next pattern
G1 Z0.4 F12000 ; Z hop return
G1 E0.5 F2100 ; Un-retract
SET_PRESSURE_ADVANCE ADVANCE=0.005 ; Set pressure advance
M117 PA 0.005
G1 X102.8499 Y119.22 E1.07863 F12000 ; Print pattern perimeter
G1 X81.6367 Y140.4332 E1.07863 F12000 ; Print pattern perimeter
G1 E-0.5 F2100 ; Retract
G1 Z0.5 F12000 ; Z hop
G0 X82.2265 Y98.0068 F12000 ; Move to start next pattern perimeter
G1 Z0.4 F12000 ; Z hop return
G1 E0.5 F2100 ; Un-retract
G1 X103.4397 Y119.22 E1.07863 F12000 ; Print pattern perimeter
G1 X82.2265 Y140.4332 E1.07863 F12000 ; Print pattern perimeter
G1 E-0.5 F2100 ; Retract
G1 Z0.5 F12000 ; Z hop
G0 X82.8164 Y98.0068 F12000 ; Move to start next pattern perimeter
G1 Z0.4 F12000 ; Z hop return
G1 E0.5 F2100 ; Un-retract
G1 X104.0296 Y119.22 E1.07863 F12000 ; Print pattern perimeter
G1 X82.8164 Y140.4332 E1.07863 F12000 ; Print pattern perimeter
G1 E-0.5 F2100 ; Retract
G1 Z0.5 F12000 ; Z hop
G0 X86.2764 Y98.0068 F12000 ; Move to next pattern
G1 Z0.4 F12000 ; Z hop return
G1 E0.5 F2100 ; Un-retract
SET_PRESSURE_ADVANCE ADVANCE=0.01 ; Set pressure advance
M117 PA 0.01
G1 X107.4896 Y119.22 E1.07863 F12000 ; Print pattern perimeter
G1 X86.2764 Y140.4332 E1.07863 F12000 ; Print pattern perimeter
G1 E-0.5 F2100 ; Retract
G1 Z0.5 F12000 ; Z hop
G0 X86.8662 Y98.0068 F12000 ; Move to start next pattern perimeter
G1 Z0.4 F12000 ; Z hop return
G1 E0.5 F2100 ; Un-retract
G1 X108.0794 Y119.22 E1.07863 F12000 ; Print pattern perimeter
G1 X86.8662 Y140.4332 E1.07863 F12000 ; Print pattern perimeter
G1 E-0.5 F2100 ; Retract
G1 Z0.5 F12000 ; Z hop
G0 X87.4561 Y98.0068 F12000 ; Move to start next pattern perimeter
G1 Z0.4 F12000 ; Z hop return
G1 E0.5 F2100 ; Un-retract
G1 X108.6693 Y119.22 E1.07863 F12000 ; Print pattern perimeter
G1 X87.4561 Y140.4332 E1.07863 F12000 ; Print pattern perimeter
G1 E-0.5 F2100 ; Retract
G1 Z0.5 F12000 ; Z hop
G0 X90.9161 Y98.0068 F12000 ; Move to next pattern
G1 Z0.4 F12000 ; Z hop return
G1 E0.5 F2100 ; Un-retract
SET_PRESSURE_ADVANCE ADVANCE=0.015 ; Set pressure advance
M117 PA 0.015
G1 X112.1293 Y119.22 E1.07863 F12000 ; Print pattern perimeter
G1 X90.9161 Y140.4332 E1.07863 F12000 ; Print pattern perimeter
G1 E-0.5 F2100 ; Retract
G1 Z0.5 F12000 ; Z hop
G0 X91.5059 Y98.0068 F12000 ; Move to start next pattern perimeter
G1 Z0.4 F12000 ; Z hop return
G1 E0.5 F2100 ; Un-retract
G1 X112.7191 Y119.22 E1.07863 F12000 ; Print pattern perimeter
G1 X91.5059 Y140.4332 E1.07863 F12000 ; Print pattern perimeter
G1 E-0.5 F2100 ; Retract
G1 Z0.5 F12000 ; Z hop
G0 X92.0957 Y98.0068 F12000 ; Move to start next pattern perimeter
G1 Z0.4 F12000 ; Z hop return
G1 E0.5 F2100 ; Un-retract
G1 X113.3089 Y119.22 E1.07863 F12000 ; Print pattern perimeter
G1 X92.0957 Y140.4332 E1.07863 F12000 ; Print pattern perimeter
G1 E-0.5 F2100 ; Retract
G1 Z0.5 F12000 ; Z hop
G0 X95.5557 Y98.0068 F12000 ; Move to next pattern
G1 Z0.4 F12000 ; Z hop return
G1 E0.5 F2100 ; Un-retract
SET_PRESSURE_ADVANCE ADVANCE=0.02 ; Set pressure advance
M117 PA 0.02
G1 X116.7689 Y119.22 E1.07863 F12000 ; Print pattern perimeter
G1 X95.5557 Y140.4332 E1.07863 F12000 ; Print pattern perimeter
G1 E-0.5 F2100 ; Retract
G1 Z0.5 F12000 ; Z hop
G0 X96.1456 Y98.0068 F12000 ; Move to start next pattern perimeter
G1 Z0.4 F12000 ; Z hop return
G1 E0.5 F2100 ; Un-retract
G1 X117.3588 Y119.22 E1.07863 F12000 ; Print pattern perimeter
G1 X96.1456 Y140.4332 E1.07863 F12000 ; Print pattern perimeter
G1 E-0.5 F2100 ; Retract
G1 Z0.5 F12000 ; Z hop
G0 X96.7354 Y98.0068 F12000 ; Move to start next pattern perimeter
G1 Z0.4 F12000 ; Z hop return
G1 E0.5 F2100 ; Un-retract
G1 X117.9486 Y119.22 E1.07863 F12000 ; Print pattern perimeter
G1 X96.7354 Y140.4332 E1.07863 F12000 ; Print pattern perimeter
G1 E-0.5 F2100 ; Retract
G1 Z0.5 F12000 ; Z hop
G0 X100.1954 Y98.0068 F12000 ; Move to next pattern
G1 Z0.4 F12000 ; Z hop return
G1 E0.5 F2100 ; Un-retract
SET_PRESSURE_ADVANCE ADVANCE=0.025 ; Set pressure advance
M117 PA 0.025
G1 X121.4086 Y119.22 E1.07863 F12000 ; Print pattern perimeter
G1 X100.1954 Y140.4332 E1.07863 F12000 ; Print pattern perimeter
G1 E-0.5 F2100 ; Retract
G1 Z0.5 F12000 ; Z hop
G0 X100.7853 Y98.0068 F12000 ; Move to start next pattern perimeter
G1 Z0.4 F12000 ; Z hop return
G1 E0.5 F2100 ; Un-retract
G1 X121.9985 Y119.22 E1.07863 F12000 ; Print pattern perimeter
G1 X100.7853 Y140.4332 E1.07863 F12000 ; Print pattern perimeter
G1 E-0.5 F2100 ; Retract
G1 Z0.5 F12000 ; Z hop
G0 X101.3751 Y98.0068 F12000 ; Move to start next pattern perimeter
G1 Z0.4 F12000 ; Z hop return
G1 E0.5 F2100 ; Un-retract
G1 X122.5883 Y119.22 E1.07863 F12000 ; Print pattern perimeter
G1 X101.3751 Y140.4332 E1.07863 F12000 ; Print pattern perimeter
G1 E-0.5 F2100 ; Retract
G1 Z0.5 F12000 ; Z hop
G0 X104.8351 Y98.0068 F12000 ; Move to next pattern
G1 Z0.4 F12000 ; Z hop return
G1 E0.5 F2100 ; Un-retract
SET_PRESSURE_ADVANCE ADVANCE=0.03 ; Set pressure advance
M117 PA 0.03
G1 X126.0483 Y119.22 E1.07863 F12000 ; Print pattern perimeter
G1 X104.8351 Y140.4332 E1.07863 F12000 ; Print pattern perimeter
G1 E-0.5 F2100 ; Retract
G1 Z0.5 F12000 ; Z hop
G0 X105.4249 Y98.0068 F12000 ; Move to start next pattern perimeter
G1 Z0.4 F12000 ; Z hop return
G1 E0.5 F2100 ; Un-retract
G1 X126.6381 Y119.22 E1.07863 F12000 ; Print pattern perimeter
G1 X105.4249 Y140.4332 E1.07863 F12000 ; Print pattern perimeter
G1 E-0.5 F2100 ; Retract
G1 Z0.5 F12000 ; Z hop
G0 X106.0148 Y98.0068 F12000 ; Move to start next pattern perimeter
G1 Z0.4 F12000 ; Z hop return
G1 E0.5 F2100 ; Un-retract
G1 X127.228 Y119.22 E1.07863 F12000 ; Print pattern perimeter
G1 X106.0148 Y140.4332 E1.07863 F12000 ; Print pattern perimeter
G1 E-0.5 F2100 ; Retract
G1 Z0.5 F12000 ; Z hop
G0 X109.4748 Y98.0068 F12000 ; Move to next pattern
G1 Z0.4 F12000 ; Z hop return
G1 E0.5 F2100 ; Un-retract
SET_PRESSURE_ADVANCE ADVANCE=0.035 ; Set pressure advance
M117 PA 0.035
G1 X130.688 Y119.22 E1.07863 F12000 ; Print pattern perimeter
G1 X109.4748 Y140.4332 E1.07863 F12000 ; Print pattern perimeter
G1 E-0.5 F2100 ; Retract
G1 Z0.5 F12000 ; Z hop
G0 X110.0646 Y98.0068 F12000 ; Move to start next pattern perimeter
G1 Z0.4 F12000 ; Z hop return
G1 E0.5 F2100 ; Un-retract
G1 X131.2778 Y119.22 E1.07863 F12000 ; Print pattern perimeter
G1 X110.0646 Y140.4332 E1.07863 F12000 ; Print pattern perimeter
G1 E-0.5 F2100 ; Retract
G1 Z0.5 F12000 ; Z hop
G0 X110.6545 Y98.0068 F12000 ; Move to start next pattern perimeter
G1 Z0.4 F12000 ; Z hop return
G1 E0.5 F2100 ; Un-retract
G1 X131.8677 Y119.22 E1.07863 F12000 ; Print pattern perimeter
G1 X110.6545 Y140.4332 E1.07863 F12000 ; Print pattern perimeter
G1 E-0.5 F2100 ; Retract
G1 Z0.5 F12000 ; Z hop
G0 X114.1145 Y98.0068 F12000 ; Move to next pattern
G1 Z0.4 F12000 ; Z hop return
G1 E0.5 F2100 ; Un-retract
SET_PRESSURE_ADVANCE ADVANCE=0.04 ; Set pressure advance
M117 PA 0.04
G1 X135.3277 Y119.22 E1.07863 F12000 ; Print pattern perimeter
G1 X114.1145 Y140.4332 E1.07863 F12000 ; Print pattern perimeter
G1 E-0.5 F2100 ; Retract
G1 Z0.5 F12000 ; Z hop
G0 X114.7043 Y98.0068 F12000 ; Move to start next pattern perimeter
G1 Z0.4 F12000 ; Z hop return
G1 E0.5 F2100 ; Un-retract
G1 X135.9175 Y119.22 E1.07863 F12000 ; Print pattern perimeter
G1 X114.7043 Y140.4332 E1.07863 F12000 ; Print pattern perimeter
G1 E-0.5 F2100 ; Retract
G1 Z0.5 F12000 ; Z hop
G0 X115.2941 Y98.0068 F12000 ; Move to start next pattern perimeter
G1 Z0.4 F12000 ; Z hop return
G1 E0.5 F2100 ; Un-retract
G1 X136.5073 Y119.22 E1.07863 F12000 ; Print pattern perimeter
G1 X115.2941 Y140.4332 E1.07863 F12000 ; Print pattern perimeter
G1 E-0.5 F2100 ; Retract
G1 Z0.5 F12000 ; Z hop
G0 X118.7541 Y98.0068 F12000 ; Move to next pattern
G1 Z0.4 F12000 ; Z hop return
G1 E0.5 F2100 ; Un-retract
SET_PRESSURE_ADVANCE ADVANCE=0.045 ; Set pressure advance
M117 PA 0.045
G1 X139.9673 Y119.22 E1.07863 F12000 ; Print pattern perimeter
G1 X118.7541 Y140.4332 E1.07863 F12000 ; Print pattern perimeter
G1 E-0.5 F2100 ; Retract
G1 Z0.5 F12000 ; Z hop
G0 X119.344 Y98.0068 F12000 ; Move to start next pattern perimeter
G1 Z0.4 F12000 ; Z hop return
G1 E0.5 F2100 ; Un-retract
G1 X140.5572 Y119.22 E1.07863 F12000 ; Print pattern perimeter
G1 X119.344 Y140.4332 E1.07863 F12000 ; Print pattern perimeter
G1 E-0.5 F2100 ; Retract
G1 Z0.5 F12000 ; Z hop
G0 X119.9338 Y98.0068 F12000 ; Move to start next pattern perimeter
G1 Z0.4 F12000 ; Z hop return
G1 E0.5 F2100 ; Un-retract
G1 X141.147 Y119.22 E1.07863 F12000 ; Print pattern perimeter
G1 X119.9338 Y140.4332 E1.07863 F12000 ; Print pattern perimeter
G1 E-0.5 F2100 ; Retract
G1 Z0.5 F12000 ; Z hop
G0 X123.3938 Y98.0068 F12000 ; Move to next pattern
G1 Z0.4 F12000 ; Z hop return
G1 E0.5 F2100 ; Un-retract
SET_PRESSURE_ADVANCE ADVANCE=0.05 ; Set pressure advance
M117 PA 0.05
G1 X144.607 Y119.22 E1.07863 F12000 ; Print pattern perimeter
G1 X123.3938 Y140.4332 E1.07863 F12000 ; Print pattern perimeter
G1 E-0.5 F2100 ; Retract
G1 Z0.5 F12000 ; Z hop
G0 X123.9837 Y98.0068 F12000 ; Move to start next pattern perimeter
G1 Z0.4 F12000 ; Z hop return
G1 E0.5 F2100 ; Un-retract
G1 X145.1969 Y119.22 E1.07863 F12000 ; Print pattern perimeter
G1 X123.9837 Y140.4332 E1.07863 F12000 ; Print pattern perimeter
G1 E-0.5 F2100 ; Retract
G1 Z0.5 F12000 ; Z hop
G0 X124.5735 Y98.0068 F12000 ; Move to start next pattern perimeter
G1 Z0.4 F12000 ; Z hop return
G1 E0.5 F2100 ; Un-retract
G1 X145.7867 Y119.22 E1.07863 F12000 ; Print pattern perimeter
G1 X124.5735 Y140.4332 E1.07863 F12000 ; Print pattern perimeter
G1 E-0.5 F2100 ; Retract
G1 Z0.5 F12000 ; Z hop
G0 X128.0335 Y98.0068 F12000 ; Move to next pattern
G1 Z0.4 F12000 ; Z hop return
G1 E0.5 F2100 ; Un-retract
SET_PRESSURE_ADVANCE ADVANCE=0.055 ; Set pressure advance
M117 PA 0.055
G1 X149.2467 Y119.22 E1.07863 F12000 ; Print pattern perimeter
G1 X128.0335 Y140.4332 E1.07863 F12000 ; Print pattern perimeter
G1 E-0.5 F2100 ; Retract
G1 Z0.5 F12000 ; Z hop
G0 X128.6233 Y98.0068 F12000 ; Move to start next pattern perimeter
G1 Z0.4 F12000 ; Z hop return
G1 E0.5 F2100 ; Un-retract
G1 X149.8365 Y119.22 E1.07863 F12000 ; Print pattern perimeter
G1 X128.6233 Y140.4332 E1.07863 F12000 ; Print pattern perimeter
G1 E-0.5 F2100 ; Retract
G1 Z0.5 F12000 ; Z hop
G0 X129.2132 Y98.0068 F12000 ; Move to start next pattern perimeter
G1 Z0.4 F12000 ; Z hop return
G1 E0.5 F2100 ; Un-retract
G1 X150.4264 Y119.22 E1.07863 F12000 ; Print pattern perimeter
G1 X129.2132 Y140.4332 E1.07863 F12000 ; Print pattern perimeter
G1 E-0.5 F2100 ; Retract
G1 Z0.5 F12000 ; Z hop
G0 X132.6732 Y98.0068 F12000 ; Move to next pattern
G1 Z0.4 F12000 ; Z hop return
G1 E0.5 F2100 ; Un-retract
SET_PRESSURE_ADVANCE ADVANCE=0.06 ; Set pressure advance
M117 PA 0.06
G1 X153.8864 Y119.22 E1.07863 F12000 ; Print pattern perimeter
G1 X132.6732 Y140.4332 E1.07863 F12000 ; Print pattern perimeter
G1 E-0.5 F2100 ; Retract
G1 Z0.5 F12000 ; Z hop
G0 X133.263 Y98.0068 F12000 ; Move to start next pattern perimeter
G1 Z0.4 F12000 ; Z hop return
G1 E0.5 F2100 ; Un-retract
G1 X154.4762 Y119.22 E1.07863 F12000 ; Print pattern perimeter
G1 X133.263 Y140.4332 E1.07863 F12000 ; Print pattern perimeter
G1 E-0.5 F2100 ; Retract
G1 Z0.5 F12000 ; Z hop
G0 X133.8529 Y98.0068 F12000 ; Move to start next pattern perimeter
G1 Z0.4 F12000 ; Z hop return
G1 E0.5 F2100 ; Un-retract
G1 X155.0661 Y119.22 E1.07863 F12000 ; Print pattern perimeter
G1 X133.8529 Y140.4332 E1.07863 F12000 ; Print pattern perimeter
G1 E-0.5 F2100 ; Retract
G1 Z0.5 F12000 ; Z hop
G0 X137.3129 Y98.0068 F12000 ; Move to next pattern
G1 Z0.4 F12000 ; Z hop return
G1 E0.5 F2100 ; Un-retract
SET_PRESSURE_ADVANCE ADVANCE=0.065 ; Set pressure advance
M117 PA 0.065
G1 X158.5261 Y119.22 E1.07863 F12000 ; Print pattern perimeter
G1 X137.3129 Y140.4332 E1.07863 F12000 ; Print pattern perimeter
G1 E-0.5 F2100 ; Retract
G1 Z0.5 F12000 ; Z hop
G0 X137.9027 Y98.0068 F12000 ; Move to start next pattern perimeter
G1 Z0.4 F12000 ; Z hop return
G1 E0.5 F2100 ; Un-retract
G1 X159.1159 Y119.22 E1.07863 F12000 ; Print pattern perimeter
G1 X137.9027 Y140.4332 E1.07863 F12000 ; Print pattern perimeter
G1 E-0.5 F2100 ; Retract
G1 Z0.5 F12000 ; Z hop
G0 X138.4925 Y98.0068 F12000 ; Move to start next pattern perimeter
G1 Z0.4 F12000 ; Z hop return
G1 E0.5 F2100 ; Un-retract
G1 X159.7057 Y119.22 E1.07863 F12000 ; Print pattern perimeter
G1 X138.4925 Y140.4332 E1.07863 F12000 ; Print pattern perimeter
G1 E-0.5 F2100 ; Retract
G1 Z0.5 F12000 ; Z hop
G0 X141.9525 Y98.0068 F12000 ; Move to next pattern
G1 Z0.4 F12000 ; Z hop return
G1 E0.5 F2100 ; Un-retract
SET_PRESSURE_ADVANCE ADVANCE=0.07 ; Set pressure advance
M117 PA 0.07
G1 X163.1657 Y119.22 E1.07863 F12000 ; Print pattern perimeter
G1 X141.9525 Y140.4332 E1.07863 F12000 ; Print pattern perimeter
G1 E-0.5 F2100 ; Retract
G1 Z0.5 F12000 ; Z hop
G0 X142.5424 Y98.0068 F12000 ; Move to start next pattern perimeter
G1 Z0.4 F12000 ; Z hop return
G1 E0.5 F2100 ; Un-retract
G1 X163.7556 Y119.22 E1.07863 F12000 ; Print pattern perimeter
G1 X142.5424 Y140.4332 E1.07863 F12000 ; Print pattern perimeter
G1 E-0.5 F2100 ; Retract
G1 Z0.5 F12000 ; Z hop
G0 X143.1322 Y98.0068 F12000 ; Move to start next pattern perimeter
G1 Z0.4 F12000 ; Z hop return
G1 E0.5 F2100 ; Un-retract
G1 X164.3454 Y119.22 E1.07863 F12000 ; Print pattern perimeter
G1 X143.1322 Y140.4332 E1.07863 F12000 ; Print pattern perimeter
G1 E-0.5 F2100 ; Retract
G1 Z0.5 F12000 ; Z hop
G0 X146.5922 Y98.0068 F12000 ; Move to next pattern
G1 Z0.4 F12000 ; Z hop return
G1 E0.5 F2100 ; Un-retract
SET_PRESSURE_ADVANCE ADVANCE=0.075 ; Set pressure advance
M117 PA 0.075
G1 X167.8054 Y119.22 E1.07863 F12000 ; Print pattern perimeter
G1 X146.5922 Y140.4332 E1.07863 F12000 ; Print pattern perimeter
G1 E-0.5 F2100 ; Retract
G1 Z0.5 F12000 ; Z hop
G0 X147.1821 Y98.0068 F12000 ; Move to start next pattern perimeter
G1 Z0.4 F12000 ; Z hop return
G1 E0.5 F2100 ; Un-retract
G1 X168.3953 Y119.22 E1.07863 F12000 ; Print pattern perimeter
G1 X147.1821 Y140.4332 E1.07863 F12000 ; Print pattern perimeter
G1 E-0.5 F2100 ; Retract
G1 Z0.5 F12000 ; Z hop
G0 X147.7719 Y98.0068 F12000 ; Move to start next pattern perimeter
G1 Z0.4 F12000 ; Z hop return
G1 E0.5 F2100 ; Un-retract
G1 X168.9851 Y119.22 E1.07863 F12000 ; Print pattern perimeter
G1 X147.7719 Y140.4332 E1.07863 F12000 ; Print pattern perimeter
G1 E-0.5 F2100 ; Retract
G1 Z0.5 F12000 ; Z hop
G0 X151.2319 Y98.0068 F12000 ; Move to next pattern
G1 Z0.4 F12000 ; Z hop return
G1 E0.5 F2100 ; Un-retract
SET_PRESSURE_ADVANCE ADVANCE=0.08 ; Set pressure advance
M117 PA 0.08
G1 X172.4451 Y119.22 E1.07863 F12000 ; Print pattern perimeter
G1 X151.2319 Y140.4332 E1.07863 F12000 ; Print pattern perimeter
G1 E-0.5 F2100 ; Retract
G1 Z0.5 F12000 ; Z hop
G0 X151.8217 Y98.0068 F12000 ; Move to start next pattern perimeter
G1 Z0.4 F12000 ; Z hop return
G1 E0.5 F2100 ; Un-retract
G1 X173.0349 Y119.22 E1.07863 F12000 ; Print pattern perimeter
G1 X151.8217 Y140.4332 E1.07863 F12000 ; Print pattern perimeter
G1 E-0.5 F2100 ; Retract
G1 Z0.5 F12000 ; Z hop
G0 X152.4116 Y98.0068 F12000 ; Move to start next pattern perimeter
G1 Z0.4 F12000 ; Z hop return
G1 E0.5 F2100 ; Un-retract
G1 X173.6248 Y119.22 E1.07863 F12000 ; Print pattern perimeter
G1 X152.4116 Y140.4332 E1.07863 F12000 ; Print pattern perimeter
G1 E-0.5 F2100 ; Retract
G1 Z0.5 F12000 ; Z hop
G0 X76.997 Y98.0068 F12000 ; Move back to start position
G1 Z0.4 F12000 ; Z hop return
G1 E0.5 F2100 ; Un-retract
G0 Z0.6 F12000 ; Move to layer height
SET_PRESSURE_ADVANCE ADVANCE=0 ; Set pressure advance
M117 PA 0
G1 X98.2102 Y119.22 E1.07863 F12000 ; Print pattern perimeter
G1 X76.997 Y140.4332 E1.07863 F12000 ; Print pattern perimeter
G1 E-0.5 F2100 ; Retract
G1 Z0.7 F12000 ; Z hop
G0 X77.5869 Y98.0068 F12000 ; Move to start next pattern perimeter
G1 Z0.6 F12000 ; Z hop return
G1 E0.5 F2100 ; Un-retract
G1 X98.8001 Y119.22 E1.07863 F12000 ; Print pattern perimeter
G1 X77.5869 Y140.4332 E1.07863 F12000 ; Print pattern perimeter
G1 E-0.5 F2100 ; Retract
G1 Z0.7 F12000 ; Z hop
G0 X78.1767 Y98.0068 F12000 ; Move to start next pattern perimeter
G1 Z0.6 F12000 ; Z hop return
G1 E0.5 F2100 ; Un-retract
G1 X99.3899 Y119.22 E1.07863 F12000 ; Print pattern perimeter
G1 X78.1767 Y140.4332 E1.07863 F12000 ; Print pattern perimeter
G1 E-0.5 F2100 ; Retract
G1 Z0.7 F12000 ; Z hop
G0 X81.6367 Y98.0068 F12000 ; Move to next pattern
G1 Z0.6 F12000 ; Z hop return
G1 E0.5 F2100 ; Un-retract
SET_PRESSURE_ADVANCE ADVANCE=0.005 ; Set pressure advance
M117 PA 0.005
G1 X102.8499 Y119.22 E1.07863 F12000 ; Print pattern perimeter
G1 X81.6367 Y140.4332 E1.07863 F12000 ; Print pattern perimeter
G1 E-0.5 F2100 ; Retract
G1 Z0.7 F12000 ; Z hop
G0 X82.2265 Y98.0068 F12000 ; Move to start next pattern perimeter
G1 Z0.6 F12000 ; Z hop return
G1 E0.5 F2100 ; Un-retract
G1 X103.4397 Y119.22 E1.07863 F12000 ; Print pattern perimeter
G1 X82.2265 Y140.4332 E1.07863 F12000 ; Print pattern perimeter
G1 E-0.5 F2100 ; Retract
G1 Z0.7 F12000 ; Z hop
G0 X82.8164 Y98.0068 F12000 ; Move to start next pattern perimeter
G1 Z0.6 F12000 ; Z hop return
G1 E0.5 F2100 ; Un-retract
G1 X104.0296 Y119.22 E1.07863 F12000 ; Print pattern perimeter
G1 X82.8164 Y140.4332 E1.07863 F12000 ; Print pattern perimeter
G1 E-0.5 F2100 ; Retract
G1 Z0.7 F12000 ; Z hop
G0 X86.2764 Y98.0068 F12000 ; Move to next pattern
G1 Z0.6 F12000 ; Z hop return
G1 E0.5 F2100 ; Un-retract
SET_PRESSURE_ADVANCE ADVANCE=0.01 ; Set pressure advance
M117 PA 0.01
G1 X107.4896 Y119.22 E1.07863 F12000 ; Print pattern perimeter
G1 X86.2764 Y140.4332 E1.07863 F12000 ; Print pattern perimeter
G1 E-0.5 F2100 ; Retract
G1 Z0.7 F12000 ; Z hop
G0 X86.8662 Y98.0068 F12000 ; Move to start next pattern perimeter
G1 Z0.6 F12000 ; Z hop return
G1 E0.5 F2100 ; Un-retract
G1 X108.0794 Y119.22 E1.07863 F12000 ; Print pattern perimeter
G1 X86.8662 Y140.4332 E1.07863 F12000 ; Print pattern perimeter
G1 E-0.5 F2100 ; Retract
G1 Z0.7 F12000 ; Z hop
G0 X87.4561 Y98.0068 F12000 ; Move to start next pattern perimeter
G1 Z0.6 F12000 ; Z hop return
G1 E0.5 F2100 ; Un-retract
G1 X108.6693 Y119.22 E1.07863 F12000 ; Print pattern perimeter
G1 X87.4561 Y140.4332 E1.07863 F12000 ; Print pattern perimeter
G1 E-0.5 F2100 ; Retract
G1 Z0.7 F12000 ; Z hop
G0 X90.9161 Y98.0068 F12000 ; Move to next pattern
G1 Z0.6 F12000 ; Z hop return
G1 E0.5 F2100 ; Un-retract
SET_PRESSURE_ADVANCE ADVANCE=0.015 ; Set pressure advance
M117 PA 0.015
G1 X112.1293 Y119.22 E1.07863 F12000 ; Print pattern perimeter
G1 X90.9161 Y140.4332 E1.07863 F12000 ; Print pattern perimeter
G1 E-0.5 F2100 ; Retract
G1 Z0.7 F12000 ; Z hop
G0 X91.5059 Y98.0068 F12000 ; Move to start next pattern perimeter
G1 Z0.6 F12000 ; Z hop return
G1 E0.5 F2100 ; Un-retract
G1 X112.7191 Y119.22 E1.07863 F12000 ; Print pattern perimeter
G1 X91.5059 Y140.4332 E1.07863 F12000 ; Print pattern perimeter
G1 E-0.5 F2100 ; Retract
G1 Z0.7 F12000 ; Z hop
G0 X92.0957 Y98.0068 F12000 ; Move to start next pattern perimeter
G1 Z0.6 F12000 ; Z hop return
G1 E0.5 F2100 ; Un-retract
G1 X113.3089 Y119.22 E1.07863 F12000 ; Print pattern perimeter
G1 X92.0957 Y140.4332 E1.07863 F12000 ; Print pattern perimeter
G1 E-0.5 F2100 ; Retract
G1 Z0.7 F12000 ; Z hop
G0 X95.5557 Y98.0068 F12000 ; Move to next pattern
G1 Z0.6 F12000 ; Z hop return
G1 E0.5 F2100 ; Un-retract
SET_PRESSURE_ADVANCE ADVANCE=0.02 ; Set pressure advance
M117 PA 0.02
G1 X116.7689 Y119.22 E1.07863 F12000 ; Print pattern perimeter
G1 X95.5557 Y140.4332 E1.07863 F12000 ; Print pattern perimeter
G1 E-0.5 F2100 ; Retract
G1 Z0.7 F12000 ; Z hop
G0 X96.1456 Y98.0068 F12000 ; Move to start next pattern perimeter
G1 Z0.6 F12000 ; Z hop return
G1 E0.5 F2100 ; Un-retract
G1 X117.3588 Y119.22 E1.07863 F12000 ; Print pattern perimeter
G1 X96.1456 Y140.4332 E1.07863 F12000 ; Print pattern perimeter
G1 E-0.5 F2100 ; Retract
G1 Z0.7 F12000 ; Z hop
G0 X96.7354 Y98.0068 F12000 ; Move to start next pattern perimeter
G1 Z0.6 F12000 ; Z hop return
G1 E0.5 F2100 ; Un-retract
G1 X117.9486 Y119.22 E1.07863 F12000 ; Print pattern perimeter
G1 X96.7354 Y140.4332 E1.07863 F12000 ; Print pattern perimeter
G1 E-0.5 F2100 ; Retract
G1 Z0.7 F12000 ; Z hop
G0 X100.1954 Y98.0068 F12000 ; Move to next pattern
G1 Z0.6 F12000 ; Z hop return
G1 E0.5 F2100 ; Un-retract
SET_PRESSURE_ADVANCE ADVANCE=0.025 ; Set pressure advance
M117 PA 0.025
G1 X121.4086 Y119.22 E1.07863 F12000 ; Print pattern perimeter
G1 X100.1954 Y140.4332 E1.07863 F12000 ; Print pattern perimeter
G1 E-0.5 F2100 ; Retract
G1 Z0.7 F12000 ; Z hop
G0 X100.7853 Y98.0068 F12000 ; Move to start next pattern perimeter
G1 Z0.6 F12000 ; Z hop return
G1 E0.5 F2100 ; Un-retract
G1 X121.9985 Y119.22 E1.07863 F12000 ; Print pattern perimeter
G1 X100.7853 Y140.4332 E1.07863 F12000 ; Print pattern perimeter
G1 E-0.5 F2100 ; Retract
G1 Z0.7 F12000 ; Z hop
G0 X101.3751 Y98.0068 F12000 ; Move to start next pattern perimeter
G1 Z0.6 F12000 ; Z hop return
G1 E0.5 F2100 ; Un-retract
G1 X122.5883 Y119.22 E1.07863 F12000 ; Print pattern perimeter
G1 X101.3751 Y140.4332 E1.07863 F12000 ; Print pattern perimeter
G1 E-0.5 F2100 ; Retract
G1 Z0.7 F12000 ; Z hop
G0 X104.8351 Y98.0068 F12000 ; Move to next pattern
G1 Z0.6 F12000 ; Z hop return
G1 E0.5 F2100 ; Un-retract
SET_PRESSURE_ADVANCE ADVANCE=0.03 ; Set pressure advance
M117 PA 0.03
G1 X126.0483 Y119.22 E1.07863 F12000 ; Print pattern perimeter
G1 X104.8351 Y140.4332 E1.07863 F12000 ; Print pattern perimeter
G1 E-0.5 F2100 ; Retract
G1 Z0.7 F12000 ; Z hop
G0 X105.4249 Y98.0068 F12000 ; Move to start next pattern perimeter
G1 Z0.6 F12000 ; Z hop return
G1 E0.5 F2100 ; Un-retract
G1 X126.6381 Y119.22 E1.07863 F12000 ; Print pattern perimeter
G1 X105.4249 Y140.4332 E1.07863 F12000 ; Print pattern perimeter
G1 E-0.5 F2100 ; Retract
G1 Z0.7 F12000 ; Z hop
G0 X106.0148 Y98.0068 F12000 ; Move to start next pattern perimeter
G1 Z0.6 F12000 ; Z hop return
G1 E0.5 F2100 ; Un-retract
G1 X127.228 Y119.22 E1.07863 F12000 ; Print pattern perimeter
G1 X106.0148 Y140.4332 E1.07863 F12000 ; Print pattern perimeter
G1 E-0.5 F2100 ; Retract
G1 Z0.7 F12000 ; Z hop
G0 X109.4748 Y98.0068 F12000 ; Move to next pattern
G1 Z0.6 F12000 ; Z hop return
G1 E0.5 F2100 ; Un-retract
SET_PRESSURE_ADVANCE ADVANCE=0.035 ; Set pressure advance
M117 PA 0.035
G1 X130.688 Y119.22 E1.07863 F12000 ; Print pattern perimeter
G1 X109.4748 Y140.4332 E1.07863 F12000 ; Print pattern perimeter
G1 E-0.5 F2100 ; Retract
G1 Z0.7 F12000 ; Z hop
G0 X110.0646 Y98.0068 F12000 ; Move to start next pattern perimeter
G1 Z0.6 F12000 ; Z hop return
G1 E0.5 F2100 ; Un-retract
G1 X131.2778 Y119.22 E1.07863 F12000 ; Print pattern perimeter
G1 X110.0646 Y140.4332 E1.07863 F12000 ; Print pattern perimeter
G1 E-0.5 F2100 ; Retract
G1 Z0.7 F12000 ; Z hop
G0 X110.6545 Y98.0068 F12000 ; Move to start next pattern perimeter
G1 Z0.6 F12000 ; Z hop return
G1 E0.5 F2100 ; Un-retract
G1 X131.8677 Y119.22 E1.07863 F12000 ; Print pattern perimeter
G1 X110.6545 Y140.4332 E1.07863 F12000 ; Print pattern perimeter
G1 E-0.5 F2100 ; Retract
G1 Z0.7 F12000 ; Z hop
G0 X114.1145 Y98.0068 F12000 ; Move to next pattern
G1 Z0.6 F12000 ; Z hop return
G1 E0.5 F2100 ; Un-retract
SET_PRESSURE_ADVANCE ADVANCE=0.04 ; Set pressure advance
M117 PA 0.04
G1 X135.3277 Y119.22 E1.07863 F12000 ; Print pattern perimeter
G1 X114.1145 Y140.4332 E1.07863 F12000 ; Print pattern perimeter
G1 E-0.5 F2100 ; Retract
G1 Z0.7 F12000 ; Z hop
G0 X114.7043 Y98.0068 F12000 ; Move to start next pattern perimeter
G1 Z0.6 F12000 ; Z hop return
G1 E0.5 F2100 ; Un-retract
G1 X135.9175 Y119.22 E1.07863 F12000 ; Print pattern perimeter
G1 X114.7043 Y140.4332 E1.07863 F12000 ; Print pattern perimeter
G1 E-0.5 F2100 ; Retract
G1 Z0.7 F12000 ; Z hop
G0 X115.2941 Y98.0068 F12000 ; Move to start next pattern perimeter
G1 Z0.6 F12000 ; Z hop return
G1 E0.5 F2100 ; Un-retract
G1 X136.5073 Y119.22 E1.07863 F12000 ; Print pattern perimeter
G1 X115.2941 Y140.4332 E1.07863 F12000 ; Print pattern perimeter
G1 E-0.5 F2100 ; Retract
G1 Z0.7 F12000 ; Z hop
G0 X118.7541 Y98.0068 F12000 ; Move to next pattern
G1 Z0.6 F12000 ; Z hop return
G1 E0.5 F2100 ; Un-retract
SET_PRESSURE_ADVANCE ADVANCE=0.045 ; Set pressure advance
M117 PA 0.045
G1 X139.9673 Y119.22 E1.07863 F12000 ; Print pattern perimeter
G1 X118.7541 Y140.4332 E1.07863 F12000 ; Print pattern perimeter
G1 E-0.5 F2100 ; Retract
G1 Z0.7 F12000 ; Z hop
G0 X119.344 Y98.0068 F12000 ; Move to start next pattern perimeter
G1 Z0.6 F12000 ; Z hop return
G1 E0.5 F2100 ; Un-retract
G1 X140.5572 Y119.22 E1.07863 F12000 ; Print pattern perimeter
G1 X119.344 Y140.4332 E1.07863 F12000 ; Print pattern perimeter
G1 E-0.5 F2100 ; Retract
G1 Z0.7 F12000 ; Z hop
G0 X119.9338 Y98.0068 F12000 ; Move to start next pattern perimeter
G1 Z0.6 F12000 ; Z hop return
G1 E0.5 F2100 ; Un-retract
G1 X141.147 Y119.22 E1.07863 F12000 ; Print pattern perimeter
G1 X119.9338 Y140.4332 E1.07863 F12000 ; Print pattern perimeter
G1 E-0.5 F2100 ; Retract
G1 Z0.7 F12000 ; Z hop
G0 X123.3938 Y98.0068 F12000 ; Move to next pattern
G1 Z0.6 F12000 ; Z hop return
G1 E0.5 F2100 ; Un-retract
SET_PRESSURE_ADVANCE ADVANCE=0.05 ; Set pressure advance
M117 PA 0.05
G1 X144.607 Y119.22 E1.07863 F12000 ; Print pattern perimeter
G1 X123.3938 Y140.4332 E1.07863 F12000 ; Print pattern perimeter
G1 E-0.5 F2100 ; Retract
G1 Z0.7 F12000 ; Z hop
G0 X123.9837 Y98.0068 F12000 ; Move to start next pattern perimeter
G1 Z0.6 F12000 ; Z hop return
G1 E0.5 F2100 ; Un-retract
G1 X145.1969 Y119.22 E1.07863 F12000 ; Print pattern perimeter
G1 X123.9837 Y140.4332 E1.07863 F12000 ; Print pattern perimeter
G1 E-0.5 F2100 ; Retract
G1 Z0.7 F12000 ; Z hop
G0 X124.5735 Y98.0068 F12000 ; Move to start next pattern perimeter
G1 Z0.6 F12000 ; Z hop return
G1 E0.5 F2100 ; Un-retract
G1 X145.7867 Y119.22 E1.07863 F12000 ; Print pattern perimeter
G1 X124.5735 Y140.4332 E1.07863 F12000 ; Print pattern perimeter
G1 E-0.5 F2100 ; Retract
G1 Z0.7 F12000 ; Z hop
G0 X128.0335 Y98.0068 F12000 ; Move to next pattern
G1 Z0.6 F12000 ; Z hop return
G1 E0.5 F2100 ; Un-retract
SET_PRESSURE_ADVANCE ADVANCE=0.055 ; Set pressure advance
M117 PA 0.055
G1 X149.2467 Y119.22 E1.07863 F12000 ; Print pattern perimeter
G1 X128.0335 Y140.4332 E1.07863 F12000 ; Print pattern perimeter
G1 E-0.5 F2100 ; Retract
G1 Z0.7 F12000 ; Z hop
G0 X128.6233 Y98.0068 F12000 ; Move to start next pattern perimeter
G1 Z0.6 F12000 ; Z hop return
G1 E0.5 F2100 ; Un-retract
G1 X149.8365 Y119.22 E1.07863 F12000 ; Print pattern perimeter
G1 X128.6233 Y140.4332 E1.07863 F12000 ; Print pattern perimeter
G1 E-0.5 F2100 ; Retract
G1 Z0.7 F12000 ; Z hop
G0 X129.2132 Y98.0068 F12000 ; Move to start next pattern perimeter
G1 Z0.6 F12000 ; Z hop return
G1 E0.5 F2100 ; Un-retract
G1 X150.4264 Y119.22 E1.07863 F12000 ; Print pattern perimeter
G1 X129.2132 Y140.4332 E1.07863 F12000 ; Print pattern perimeter
G1 E-0.5 F2100 ; Retract
G1 Z0.7 F12000 ; Z hop
G0 X132.6732 Y98.0068 F12000 ; Move to next pattern
G1 Z0.6 F12000 ; Z hop return
G1 E0.5 F2100 ; Un-retract
SET_PRESSURE_ADVANCE ADVANCE=0.06 ; Set pressure advance
M117 PA 0.06
G1 X153.8864 Y119.22 E1.07863 F12000 ; Print pattern perimeter
G1 X132.6732 Y140.4332 E1.07863 F12000 ; Print pattern perimeter
G1 E-0.5 F2100 ; Retract
G1 Z0.7 F12000 ; Z hop
G0 X133.263 Y98.0068 F12000 ; Move to start next pattern perimeter
G1 Z0.6 F12000 ; Z hop return
G1 E0.5 F2100 ; Un-retract
G1 X154.4762 Y119.22 E1.07863 F12000 ; Print pattern perimeter
G1 X133.263 Y140.4332 E1.07863 F12000 ; Print pattern perimeter
G1 E-0.5 F2100 ; Retract
G1 Z0.7 F12000 ; Z hop
G0 X133.8529 Y98.0068 F12000 ; Move to start next pattern perimeter
G1 Z0.6 F12000 ; Z hop return
G1 E0.5 F2100 ; Un-retract
G1 X155.0661 Y119.22 E1.07863 F12000 ; Print pattern perimeter
G1 X133.8529 Y140.4332 E1.07863 F12000 ; Print pattern perimeter
G1 E-0.5 F2100 ; Retract
G1 Z0.7 F12000 ; Z hop
G0 X137.3129 Y98.0068 F12000 ; Move to next pattern
G1 Z0.6 F12000 ; Z hop return
G1 E0.5 F2100 ; Un-retract
SET_PRESSURE_ADVANCE ADVANCE=0.065 ; Set pressure advance
M117 PA 0.065
G1 X158.5261 Y119.22 E1.07863 F12000 ; Print pattern perimeter
G1 X137.3129 Y140.4332 E1.07863 F12000 ; Print pattern perimeter
G1 E-0.5 F2100 ; Retract
G1 Z0.7 F12000 ; Z hop
G0 X137.9027 Y98.0068 F12000 ; Move to start next pattern perimeter
G1 Z0.6 F12000 ; Z hop return
G1 E0.5 F2100 ; Un-retract
G1 X159.1159 Y119.22 E1.07863 F12000 ; Print pattern perimeter
G1 X137.9027 Y140.4332 E1.07863 F12000 ; Print pattern perimeter
G1 E-0.5 F2100 ; Retract
G1 Z0.7 F12000 ; Z hop
G0 X138.4925 Y98.0068 F12000 ; Move to start next pattern perimeter
G1 Z0.6 F12000 ; Z hop return
G1 E0.5 F2100 ; Un-retract
G1 X159.7057 Y119.22 E1.07863 F12000 ; Print pattern perimeter
G1 X138.4925 Y140.4332 E1.07863 F12000 ; Print pattern perimeter
G1 E-0.5 F2100 ; Retract
G1 Z0.7 F12000 ; Z hop
G0 X141.9525 Y98.0068 F12000 ; Move to next pattern
G1 Z0.6 F12000 ; Z hop return
G1 E0.5 F2100 ; Un-retract
SET_PRESSURE_ADVANCE ADVANCE=0.07 ; Set pressure advance
M117 PA 0.07
G1 X163.1657 Y119.22 E1.07863 F12000 ; Print pattern perimeter
G1 X141.9525 Y140.4332 E1.07863 F12000 ; Print pattern perimeter
G1 E-0.5 F2100 ; Retract
G1 Z0.7 F12000 ; Z hop
G0 X142.5424 Y98.0068 F12000 ; Move to start next pattern perimeter
G1 Z0.6 F12000 ; Z hop return
G1 E0.5 F2100 ; Un-retract
G1 X163.7556 Y119.22 E1.07863 F12000 ; Print pattern perimeter
G1 X142.5424 Y140.4332 E1.07863 F12000 ; Print pattern perimeter
G1 E-0.5 F2100 ; Retract
G1 Z0.7 F12000 ; Z hop
G0 X143.1322 Y98.0068 F12000 ; Move to start next pattern perimeter
G1 Z0.6 F12000 ; Z hop return
G1 E0.5 F2100 ; Un-retract
G1 X164.3454 Y119.22 E1.07863 F12000 ; Print pattern perimeter
G1 X143.1322 Y140.4332 E1.07863 F12000 ; Print pattern perimeter
G1 E-0.5 F2100 ; Retract
G1 Z0.7 F12000 ; Z hop
G0 X146.5922 Y98.0068 F12000 ; Move to next pattern
G1 Z0.6 F12000 ; Z hop return
G1 E0.5 F2100 ; Un-retract
SET_PRESSURE_ADVANCE ADVANCE=0.075 ; Set pressure advance
M117 PA 0.075
G1 X167.8054 Y119.22 E1.07863 F12000 ; Print pattern perimeter
G1 X146.5922 Y140.4332 E1.07863 F12000 ; Print pattern perimeter
G1 E-0.5 F2100 ; Retract
G1 Z0.7 F12000 ; Z hop
G0 X147.1821 Y98.0068 F12000 ; Move to start next pattern perimeter
G1 Z0.6 F12000 ; Z hop return
G1 E0.5 F2100 ; Un-retract
G1 X168.3953 Y119.22 E1.07863 F12000 ; Print pattern perimeter
G1 X147.1821 Y140.4332 E1.07863 F12000 ; Print pattern perimeter
G1 E-0.5 F2100 ; Retract
G1 Z0.7 F12000 ; Z hop
G0 X147.7719 Y98.0068 F12000 ; Move to start next pattern perimeter
G1 Z0.6 F12000 ; Z hop return
G1 E0.5 F2100 ; Un-retract
G1 X168.9851 Y119.22 E1.07863 F12000 ; Print pattern perimeter
G1 X147.7719 Y140.4332 E1.07863 F12000 ; Print pattern perimeter
G1 E-0.5 F2100 ; Retract
G1 Z0.7 F12000 ; Z hop
G0 X151.2319 Y98.0068 F12000 ; Move to next pattern
G1 Z0.6 F12000 ; Z hop return
G1 E0.5 F2100 ; Un-retract
SET_PRESSURE_ADVANCE ADVANCE=0.08 ; Set pressure advance
M117 PA 0.08
G1 X172.4451 Y119.22 E1.07863 F12000 ; Print pattern perimeter
G1 X151.2319 Y140.4332 E1.07863 F12000 ; Print pattern perimeter
G1 E-0.5 F2100 ; Retract
G1 Z0.7 F12000 ; Z hop
G0 X151.8217 Y98.0068 F12000 ; Move to start next pattern perimeter
G1 Z0.6 F12000 ; Z hop return
G1 E0.5 F2100 ; Un-retract
G1 X173.0349 Y119.22 E1.07863 F12000 ; Print pattern perimeter
G1 X151.8217 Y140.4332 E1.07863 F12000 ; Print pattern perimeter
G1 E-0.5 F2100 ; Retract
G1 Z0.7 F12000 ; Z hop
G0 X152.4116 Y98.0068 F12000 ; Move to start next pattern perimeter
G1 Z0.6 F12000 ; Z hop return
G1 E0.5 F2100 ; Un-retract
G1 X173.6248 Y119.22 E1.07863 F12000 ; Print pattern perimeter
G1 X152.4116 Y140.4332 E1.07863 F12000 ; Print pattern perimeter
G1 E-0.5 F2100 ; Retract
G1 Z0.7 F12000 ; Z hop
G0 X76.997 Y98.0068 F12000 ; Move back to start position
G1 Z0.6 F12000 ; Z hop return
G1 E0.5 F2100 ; Un-retract
G0 Z0.8 F12000 ; Move to layer height
SET_PRESSURE_ADVANCE ADVANCE=0 ; Set pressure advance
M117 PA 0
G1 X98.2102 Y119.22 E1.07863 F12000 ; Print pattern perimeter
G1 X76.997 Y140.4332 E1.07863 F12000 ; Print pattern perimeter
G1 E-0.5 F2100 ; Retract
G1 Z0.9 F12000 ; Z hop
G0 X77.5869 Y98.0068 F12000 ; Move to start next pattern perimeter
G1 Z0.8 F12000 ; Z hop return
G1 E0.5 F2100 ; Un-retract
G1 X98.8001 Y119.22 E1.07863 F12000 ; Print pattern perimeter
G1 X77.5869 Y140.4332 E1.07863 F12000 ; Print pattern perimeter
G1 E-0.5 F2100 ; Retract
G1 Z0.9 F12000 ; Z hop
G0 X78.1767 Y98.0068 F12000 ; Move to start next pattern perimeter
G1 Z0.8 F12000 ; Z hop return
G1 E0.5 F2100 ; Un-retract
G1 X99.3899 Y119.22 E1.07863 F12000 ; Print pattern perimeter
G1 X78.1767 Y140.4332 E1.07863 F12000 ; Print pattern perimeter
G1 E-0.5 F2100 ; Retract
G1 Z0.9 F12000 ; Z hop
G0 X81.6367 Y98.0068 F12000 ; Move to next pattern
G1 Z0.8 F12000 ; Z hop return
G1 E0.5 F2100 ; Un-retract
SET_PRESSURE_ADVANCE ADVANCE=0.005 ; Set pressure advance
M117 PA 0.005
G1 X102.8499 Y119.22 E1.07863 F12000 ; Print pattern perimeter
G1 X81.6367 Y140.4332 E1.07863 F12000 ; Print pattern perimeter
G1 E-0.5 F2100 ; Retract
G1 Z0.9 F12000 ; Z hop
G0 X82.2265 Y98.0068 F12000 ; Move to start next pattern perimeter
G1 Z0.8 F12000 ; Z hop return
G1 E0.5 F2100 ; Un-retract
G1 X103.4397 Y119.22 E1.07863 F12000 ; Print pattern perimeter
G1 X82.2265 Y140.4332 E1.07863 F12000 ; Print pattern perimeter
G1 E-0.5 F2100 ; Retract
G1 Z0.9 F12000 ; Z hop
G0 X82.8164 Y98.0068 F12000 ; Move to start next pattern perimeter
G1 Z0.8 F12000 ; Z hop return
G1 E0.5 F2100 ; Un-retract
G1 X104.0296 Y119.22 E1.07863 F12000 ; Print pattern perimeter
G1 X82.8164 Y140.4332 E1.07863 F12000 ; Print pattern perimeter
G1 E-0.5 F2100 ; Retract
G1 Z0.9 F12000 ; Z hop
G0 X86.2764 Y98.0068 F12000 ; Move to next pattern
G1 Z0.8 F12000 ; Z hop return
G1 E0.5 F2100 ; Un-retract
SET_PRESSURE_ADVANCE ADVANCE=0.01 ; Set pressure advance
M117 PA 0.01
G1 X107.4896 Y119.22 E1.07863 F12000 ; Print pattern perimeter
G1 X86.2764 Y140.4332 E1.07863 F12000 ; Print pattern perimeter
G1 E-0.5 F2100 ; Retract
G1 Z0.9 F12000 ; Z hop
G0 X86.8662 Y98.0068 F12000 ; Move to start next pattern perimeter
G1 Z0.8 F12000 ; Z hop return
G1 E0.5 F2100 ; Un-retract
G1 X108.0794 Y119.22 E1.07863 F12000 ; Print pattern perimeter
G1 X86.8662 Y140.4332 E1.07863 F12000 ; Print pattern perimeter
G1 E-0.5 F2100 ; Retract
G1 Z0.9 F12000 ; Z hop
G0 X87.4561 Y98.0068 F12000 ; Move to start next pattern perimeter
G1 Z0.8 F12000 ; Z hop return
G1 E0.5 F2100 ; Un-retract
G1 X108.6693 Y119.22 E1.07863 F12000 ; Print pattern perimeter
G1 X87.4561 Y140.4332 E1.07863 F12000 ; Print pattern perimeter
G1 E-0.5 F2100 ; Retract
G1 Z0.9 F12000 ; Z hop
G0 X90.9161 Y98.0068 F12000 ; Move to next pattern
G1 Z0.8 F12000 ; Z hop return
G1 E0.5 F2100 ; Un-retract
SET_PRESSURE_ADVANCE ADVANCE=0.015 ; Set pressure advance
M117 PA 0.015
G1 X112.1293 Y119.22 E1.07863 F12000 ; Print pattern perimeter
G1 X90.9161 Y140.4332 E1.07863 F12000 ; Print pattern perimeter
G1 E-0.5 F2100 ; Retract
G1 Z0.9 F12000 ; Z hop
G0 X91.5059 Y98.0068 F12000 ; Move to start next pattern perimeter
G1 Z0.8 F12000 ; Z hop return
G1 E0.5 F2100 ; Un-retract
G1 X112.7191 Y119.22 E1.07863 F12000 ; Print pattern perimeter
G1 X91.5059 Y140.4332 E1.07863 F12000 ; Print pattern perimeter
G1 E-0.5 F2100 ; Retract
G1 Z0.9 F12000 ; Z hop
G0 X92.0957 Y98.0068 F12000 ; Move to start next pattern perimeter
G1 Z0.8 F12000 ; Z hop return
G1 E0.5 F2100 ; Un-retract
G1 X113.3089 Y119.22 E1.07863 F12000 ; Print pattern perimeter
G1 X92.0957 Y140.4332 E1.07863 F12000 ; Print pattern perimeter
G1 E-0.5 F2100 ; Retract
G1 Z0.9 F12000 ; Z hop
G0 X95.5557 Y98.0068 F12000 ; Move to next pattern
G1 Z0.8 F12000 ; Z hop return
G1 E0.5 F2100 ; Un-retract
SET_PRESSURE_ADVANCE ADVANCE=0.02 ; Set pressure advance
M117 PA 0.02
G1 X116.7689 Y119.22 E1.07863 F12000 ; Print pattern perimeter
G1 X95.5557 Y140.4332 E1.07863 F12000 ; Print pattern perimeter
G1 E-0.5 F2100 ; Retract
G1 Z0.9 F12000 ; Z hop
G0 X96.1456 Y98.0068 F12000 ; Move to start next pattern perimeter
G1 Z0.8 F12000 ; Z hop return
G1 E0.5 F2100 ; Un-retract
G1 X117.3588 Y119.22 E1.07863 F12000 ; Print pattern perimeter
G1 X96.1456 Y140.4332 E1.07863 F12000 ; Print pattern perimeter
G1 E-0.5 F2100 ; Retract
G1 Z0.9 F12000 ; Z hop
G0 X96.7354 Y98.0068 F12000 ; Move to start next pattern perimeter
G1 Z0.8 F12000 ; Z hop return
G1 E0.5 F2100 ; Un-retract
G1 X117.9486 Y119.22 E1.07863 F12000 ; Print pattern perimeter
G1 X96.7354 Y140.4332 E1.07863 F12000 ; Print pattern perimeter
G1 E-0.5 F2100 ; Retract
G1 Z0.9 F12000 ; Z hop
G0 X100.1954 Y98.0068 F12000 ; Move to next pattern
G1 Z0.8 F12000 ; Z hop return
G1 E0.5 F2100 ; Un-retract
SET_PRESSURE_ADVANCE ADVANCE=0.025 ; Set pressure advance
M117 PA 0.025
G1 X121.4086 Y119.22 E1.07863 F12000 ; Print pattern perimeter
G1 X100.1954 Y140.4332 E1.07863 F12000 ; Print pattern perimeter
G1 E-0.5 F2100 ; Retract
G1 Z0.9 F12000 ; Z hop
G0 X100.7853 Y98.0068 F12000 ; Move to start next pattern perimeter
G1 Z0.8 F12000 ; Z hop return
G1 E0.5 F2100 ; Un-retract
G1 X121.9985 Y119.22 E1.07863 F12000 ; Print pattern perimeter
G1 X100.7853 Y140.4332 E1.07863 F12000 ; Print pattern perimeter
G1 E-0.5 F2100 ; Retract
G1 Z0.9 F12000 ; Z hop
G0 X101.3751 Y98.0068 F12000 ; Move to start next pattern perimeter
G1 Z0.8 F12000 ; Z hop return
G1 E0.5 F2100 ; Un-retract
G1 X122.5883 Y119.22 E1.07863 F12000 ; Print pattern perimeter
G1 X101.3751 Y140.4332 E1.07863 F12000 ; Print pattern perimeter
G1 E-0.5 F2100 ; Retract
G1 Z0.9 F12000 ; Z hop
G0 X104.8351 Y98.0068 F12000 ; Move to next pattern
G1 Z0.8 F12000 ; Z hop return
G1 E0.5 F2100 ; Un-retract
SET_PRESSURE_ADVANCE ADVANCE=0.03 ; Set pressure advance
M117 PA 0.03
G1 X126.0483 Y119.22 E1.07863 F12000 ; Print pattern perimeter
G1 X104.8351 Y140.4332 E1.07863 F12000 ; Print pattern perimeter
G1 E-0.5 F2100 ; Retract
G1 Z0.9 F12000 ; Z hop
G0 X105.4249 Y98.0068 F12000 ; Move to start next pattern perimeter
G1 Z0.8 F12000 ; Z hop return
G1 E0.5 F2100 ; Un-retract
G1 X126.6381 Y119.22 E1.07863 F12000 ; Print pattern perimeter
G1 X105.4249 Y140.4332 E1.07863 F12000 ; Print pattern perimeter
G1 E-0.5 F2100 ; Retract
G1 Z0.9 F12000 ; Z hop
G0 X106.0148 Y98.0068 F12000 ; Move to start next pattern perimeter
G1 Z0.8 F12000 ; Z hop return
G1 E0.5 F2100 ; Un-retract
G1 X127.228 Y119.22 E1.07863 F12000 ; Print pattern perimeter
G1 X106.0148 Y140.4332 E1.07863 F12000 ; Print pattern perimeter
G1 E-0.5 F2100 ; Retract
G1 Z0.9 F12000 ; Z hop
G0 X109.4748 Y98.0068 F12000 ; Move to next pattern
G1 Z0.8 F12000 ; Z hop return
G1 E0.5 F2100 ; Un-retract
SET_PRESSURE_ADVANCE ADVANCE=0.035 ; Set pressure advance
M117 PA 0.035
G1 X130.688 Y119.22 E1.07863 F12000 ; Print pattern perimeter
G1 X109.4748 Y140.4332 E1.07863 F12000 ; Print pattern perimeter
G1 E-0.5 F2100 ; Retract
G1 Z0.9 F12000 ; Z hop
G0 X110.0646 Y98.0068 F12000 ; Move to start next pattern perimeter
G1 Z0.8 F12000 ; Z hop return
G1 E0.5 F2100 ; Un-retract
G1 X131.2778 Y119.22 E1.07863 F12000 ; Print pattern perimeter
G1 X110.0646 Y140.4332 E1.07863 F12000 ; Print pattern perimeter
G1 E-0.5 F2100 ; Retract
G1 Z0.9 F12000 ; Z hop
G0 X110.6545 Y98.0068 F12000 ; Move to start next pattern perimeter
G1 Z0.8 F12000 ; Z hop return
G1 E0.5 F2100 ; Un-retract
G1 X131.8677 Y119.22 E1.07863 F12000 ; Print pattern perimeter
G1 X110.6545 Y140.4332 E1.07863 F12000 ; Print pattern perimeter
G1 E-0.5 F2100 ; Retract
G1 Z0.9 F12000 ; Z hop
G0 X114.1145 Y98.0068 F12000 ; Move to next pattern
G1 Z0.8 F12000 ; Z hop return
G1 E0.5 F2100 ; Un-retract
SET_PRESSURE_ADVANCE ADVANCE=0.04 ; Set pressure advance
M117 PA 0.04
G1 X135.3277 Y119.22 E1.07863 F12000 ; Print pattern perimeter
G1 X114.1145 Y140.4332 E1.07863 F12000 ; Print pattern perimeter
G1 E-0.5 F2100 ; Retract
G1 Z0.9 F12000 ; Z hop
G0 X114.7043 Y98.0068 F12000 ; Move to start next pattern perimeter
G1 Z0.8 F12000 ; Z hop return
G1 E0.5 F2100 ; Un-retract
G1 X135.9175 Y119.22 E1.07863 F12000 ; Print pattern perimeter
G1 X114.7043 Y140.4332 E1.07863 F12000 ; Print pattern perimeter
G1 E-0.5 F2100 ; Retract
G1 Z0.9 F12000 ; Z hop
G0 X115.2941 Y98.0068 F12000 ; Move to start next pattern perimeter
G1 Z0.8 F12000 ; Z hop return
G1 E0.5 F2100 ; Un-retract
G1 X136.5073 Y119.22 E1.07863 F12000 ; Print pattern perimeter
G1 X115.2941 Y140.4332 E1.07863 F12000 ; Print pattern perimeter
G1 E-0.5 F2100 ; Retract
G1 Z0.9 F12000 ; Z hop
G0 X118.7541 Y98.0068 F12000 ; Move to next pattern
G1 Z0.8 F12000 ; Z hop return
G1 E0.5 F2100 ; Un-retract
SET_PRESSURE_ADVANCE ADVANCE=0.045 ; Set pressure advance
M117 PA 0.045
G1 X139.9673 Y119.22 E1.07863 F12000 ; Print pattern perimeter
G1 X118.7541 Y140.4332 E1.07863 F12000 ; Print pattern perimeter
G1 E-0.5 F2100 ; Retract
G1 Z0.9 F12000 ; Z hop
G0 X119.344 Y98.0068 F12000 ; Move to start next pattern perimeter
G1 Z0.8 F12000 ; Z hop return
G1 E0.5 F2100 ; Un-retract
G1 X140.5572 Y119.22 E1.07863 F12000 ; Print pattern perimeter
G1 X119.344 Y140.4332 E1.07863 F12000 ; Print pattern perimeter
G1 E-0.5 F2100 ; Retract
G1 Z0.9 F12000 ; Z hop
G0 X119.9338 Y98.0068 F12000 ; Move to start next pattern perimeter
G1 Z0.8 F12000 ; Z hop return
G1 E0.5 F2100 ; Un-retract
G1 X141.147 Y119.22 E1.07863 F12000 ; Print pattern perimeter
G1 X119.9338 Y140.4332 E1.07863 F12000 ; Print pattern perimeter
G1 E-0.5 F2100 ; Retract
G1 Z0.9 F12000 ; Z hop
G0 X123.3938 Y98.0068 F12000 ; Move to next pattern
G1 Z0.8 F12000 ; Z hop return
G1 E0.5 F2100 ; Un-retract
SET_PRESSURE_ADVANCE ADVANCE=0.05 ; Set pressure advance
M117 PA 0.05
G1 X144.607 Y119.22 E1.07863 F12000 ; Print pattern perimeter
G1 X123.3938 Y140.4332 E1.07863 F12000 ; Print pattern perimeter
G1 E-0.5 F2100 ; Retract
G1 Z0.9 F12000 ; Z hop
G0 X123.9837 Y98.0068 F12000 ; Move to start next pattern perimeter
G1 Z0.8 F12000 ; Z hop return
G1 E0.5 F2100 ; Un-retract
G1 X145.1969 Y119.22 E1.07863 F12000 ; Print pattern perimeter
G1 X123.9837 Y140.4332 E1.07863 F12000 ; Print pattern perimeter
G1 E-0.5 F2100 ; Retract
G1 Z0.9 F12000 ; Z hop
G0 X124.5735 Y98.0068 F12000 ; Move to start next pattern perimeter
G1 Z0.8 F12000 ; Z hop return
G1 E0.5 F2100 ; Un-retract
G1 X145.7867 Y119.22 E1.07863 F12000 ; Print pattern perimeter
G1 X124.5735 Y140.4332 E1.07863 F12000 ; Print pattern perimeter
G1 E-0.5 F2100 ; Retract
G1 Z0.9 F12000 ; Z hop
G0 X128.0335 Y98.0068 F12000 ; Move to next pattern
G1 Z0.8 F12000 ; Z hop return
G1 E0.5 F2100 ; Un-retract
SET_PRESSURE_ADVANCE ADVANCE=0.055 ; Set pressure advance
M117 PA 0.055
G1 X149.2467 Y119.22 E1.07863 F12000 ; Print pattern perimeter
G1 X128.0335 Y140.4332 E1.07863 F12000 ; Print pattern perimeter
G1 E-0.5 F2100 ; Retract
G1 Z0.9 F12000 ; Z hop
G0 X128.6233 Y98.0068 F12000 ; Move to start next pattern perimeter
G1 Z0.8 F12000 ; Z hop return
G1 E0.5 F2100 ; Un-retract
G1 X149.8365 Y119.22 E1.07863 F12000 ; Print pattern perimeter
G1 X128.6233 Y140.4332 E1.07863 F12000 ; Print pattern perimeter
G1 E-0.5 F2100 ; Retract
G1 Z0.9 F12000 ; Z hop
G0 X129.2132 Y98.0068 F12000 ; Move to start next pattern perimeter
G1 Z0.8 F12000 ; Z hop return
G1 E0.5 F2100 ; Un-retract
G1 X150.4264 Y119.22 E1.07863 F12000 ; Print pattern perimeter
G1 X129.2132 Y140.4332 E1.07863 F12000 ; Print pattern perimeter
G1 E-0.5 F2100 ; Retract
G1 Z0.9 F12000 ; Z hop
G0 X132.6732 Y98.0068 F12000 ; Move to next pattern
G1 Z0.8 F12000 ; Z hop return
G1 E0.5 F2100 ; Un-retract
SET_PRESSURE_ADVANCE ADVANCE=0.06 ; Set pressure advance
M117 PA 0.06
G1 X153.8864 Y119.22 E1.07863 F12000 ; Print pattern perimeter
G1 X132.6732 Y140.4332 E1.07863 F12000 ; Print pattern perimeter
G1 E-0.5 F2100 ; Retract
G1 Z0.9 F12000 ; Z hop
G0 X133.263 Y98.0068 F12000 ; Move to start next pattern perimeter
G1 Z0.8 F12000 ; Z hop return
G1 E0.5 F2100 ; Un-retract
G1 X154.4762 Y119.22 E1.07863 F12000 ; Print pattern perimeter
G1 X133.263 Y140.4332 E1.07863 F12000 ; Print pattern perimeter
G1 E-0.5 F2100 ; Retract
G1 Z0.9 F12000 ; Z hop
G0 X133.8529 Y98.0068 F12000 ; Move to start next pattern perimeter
G1 Z0.8 F12000 ; Z hop return
G1 E0.5 F2100 ; Un-retract
G1 X155.0661 Y119.22 E1.07863 F12000 ; Print pattern perimeter
G1 X133.8529 Y140.4332 E1.07863 F12000 ; Print pattern perimeter
G1 E-0.5 F2100 ; Retract
G1 Z0.9 F12000 ; Z hop
G0 X137.3129 Y98.0068 F12000 ; Move to next pattern
G1 Z0.8 F12000 ; Z hop return
G1 E0.5 F2100 ; Un-retract
SET_PRESSURE_ADVANCE ADVANCE=0.065 ; Set pressure advance
M117 PA 0.065
G1 X158.5261 Y119.22 E1.07863 F12000 ; Print pattern perimeter
G1 X137.3129 Y140.4332 E1.07863 F12000 ; Print pattern perimeter
G1 E-0.5 F2100 ; Retract
G1 Z0.9 F12000 ; Z hop
G0 X137.9027 Y98.0068 F12000 ; Move to start next pattern perimeter
G1 Z0.8 F12000 ; Z hop return
G1 E0.5 F2100 ; Un-retract
G1 X159.1159 Y119.22 E1.07863 F12000 ; Print pattern perimeter
G1 X137.9027 Y140.4332 E1.07863 F12000 ; Print pattern perimeter
G1 E-0.5 F2100 ; Retract
G1 Z0.9 F12000 ; Z hop
G0 X138.4925 Y98.0068 F12000 ; Move to start next pattern perimeter
G1 Z0.8 F12000 ; Z hop return
G1 E0.5 F2100 ; Un-retract
G1 X159.7057 Y119.22 E1.07863 F12000 ; Print pattern perimeter
G1 X138.4925 Y140.4332 E1.07863 F12000 ; Print pattern perimeter
G1 E-0.5 F2100 ; Retract
G1 Z0.9 F12000 ; Z hop
G0 X141.9525 Y98.0068 F12000 ; Move to next pattern
G1 Z0.8 F12000 ; Z hop return
G1 E0.5 F2100 ; Un-retract
SET_PRESSURE_ADVANCE ADVANCE=0.07 ; Set pressure advance
M117 PA 0.07
G1 X163.1657 Y119.22 E1.07863 F12000 ; Print pattern perimeter
G1 X141.9525 Y140.4332 E1.07863 F12000 ; Print pattern perimeter
G1 E-0.5 F2100 ; Retract
G1 Z0.9 F12000 ; Z hop
G0 X142.5424 Y98.0068 F12000 ; Move to start next pattern perimeter
G1 Z0.8 F12000 ; Z hop return
G1 E0.5 F2100 ; Un-retract
G1 X163.7556 Y119.22 E1.07863 F12000 ; Print pattern perimeter
G1 X142.5424 Y140.4332 E1.07863 F12000 ; Print pattern perimeter
G1 E-0.5 F2100 ; Retract
G1 Z0.9 F12000 ; Z hop
G0 X143.1322 Y98.0068 F12000 ; Move to start next pattern perimeter
G1 Z0.8 F12000 ; Z hop return
G1 E0.5 F2100 ; Un-retract
G1 X164.3454 Y119.22 E1.07863 F12000 ; Print pattern perimeter
G1 X143.1322 Y140.4332 E1.07863 F12000 ; Print pattern perimeter
G1 E-0.5 F2100 ; Retract
G1 Z0.9 F12000 ; Z hop
G0 X146.5922 Y98.0068 F12000 ; Move to next pattern
G1 Z0.8 F12000 ; Z hop return
G1 E0.5 F2100 ; Un-retract
SET_PRESSURE_ADVANCE ADVANCE=0.075 ; Set pressure advance
M117 PA 0.075
G1 X167.8054 Y119.22 E1.07863 F12000 ; Print pattern perimeter
G1 X146.5922 Y140.4332 E1.07863 F12000 ; Print pattern perimeter
G1 E-0.5 F2100 ; Retract
G1 Z0.9 F12000 ; Z hop
G0 X147.1821 Y98.0068 F12000 ; Move to start next pattern perimeter
G1 Z0.8 F12000 ; Z hop return
G1 E0.5 F2100 ; Un-retract
G1 X168.3953 Y119.22 E1.07863 F12000 ; Print pattern perimeter
G1 X147.1821 Y140.4332 E1.07863 F12000 ; Print pattern perimeter
G1 E-0.5 F2100 ; Retract
G1 Z0.9 F12000 ; Z hop
G0 X147.7719 Y98.0068 F12000 ; Move to start next pattern perimeter
G1 Z0.8 F12000 ; Z hop return
G1 E0.5 F2100 ; Un-retract
G1 X168.9851 Y119.22 E1.07863 F12000 ; Print pattern perimeter
G1 X147.7719 Y140.4332 E1.07863 F12000 ; Print pattern perimeter
G1 E-0.5 F2100 ; Retract
G1 Z0.9 F12000 ; Z hop
G0 X151.2319 Y98.0068 F12000 ; Move to next pattern
G1 Z0.8 F12000 ; Z hop return
G1 E0.5 F2100 ; Un-retract
SET_PRESSURE_ADVANCE ADVANCE=0.08 ; Set pressure advance
M117 PA 0.08
G1 X172.4451 Y119.22 E1.07863 F12000 ; Print pattern perimeter
G1 X151.2319 Y140.4332 E1.07863 F12000 ; Print pattern perimeter
G1 E-0.5 F2100 ; Retract
G1 Z0.9 F12000 ; Z hop
G0 X151.8217 Y98.0068 F12000 ; Move to start next pattern perimeter
G1 Z0.8 F12000 ; Z hop return
G1 E0.5 F2100 ; Un-retract
G1 X173.0349 Y119.22 E1.07863 F12000 ; Print pattern perimeter
G1 X151.8217 Y140.4332 E1.07863 F12000 ; Print pattern perimeter
G1 E-0.5 F2100 ; Retract
G1 Z0.9 F12000 ; Z hop
G0 X152.4116 Y98.0068 F12000 ; Move to start next pattern perimeter
G1 Z0.8 F12000 ; Z hop return
G1 E0.5 F2100 ; Un-retract
G1 X173.6248 Y119.22 E1.07863 F12000 ; Print pattern perimeter
G1 X152.4116 Y140.4332 E1.07863 F12000 ; Print pattern perimeter
G1 E-0.5 F2100 ; Retract
G1 Z0.9 F12000 ; Z hop
G0 X76.997 Y98.0068 F12000 ; Move back to start position
G1 Z0.8 F12000 ; Z hop return
G1 E0.5 F2100 ; Un-retract
G0 Z1 F12000 ; Move to layer height
SET_PRESSURE_ADVANCE ADVANCE=0 ; Set pressure advance
M117 PA 0
G1 X98.2102 Y119.22 E1.07863 F12000 ; Print pattern perimeter
G1 X76.997 Y140.4332 E1.07863 F12000 ; Print pattern perimeter
G1 E-0.5 F2100 ; Retract
G1 Z1.1 F12000 ; Z hop
G0 X77.5869 Y98.0068 F12000 ; Move to start next pattern perimeter
G1 Z1 F12000 ; Z hop return
G1 E0.5 F2100 ; Un-retract
G1 X98.8001 Y119.22 E1.07863 F12000 ; Print pattern perimeter
G1 X77.5869 Y140.4332 E1.07863 F12000 ; Print pattern perimeter
G1 E-0.5 F2100 ; Retract
G1 Z1.1 F12000 ; Z hop
G0 X78.1767 Y98.0068 F12000 ; Move to start next pattern perimeter
G1 Z1 F12000 ; Z hop return
G1 E0.5 F2100 ; Un-retract
G1 X99.3899 Y119.22 E1.07863 F12000 ; Print pattern perimeter
G1 X78.1767 Y140.4332 E1.07863 F12000 ; Print pattern perimeter
G1 E-0.5 F2100 ; Retract
G1 Z1.1 F12000 ; Z hop
G0 X81.6367 Y98.0068 F12000 ; Move to next pattern
G1 Z1 F12000 ; Z hop return
G1 E0.5 F2100 ; Un-retract
SET_PRESSURE_ADVANCE ADVANCE=0.005 ; Set pressure advance
M117 PA 0.005
G1 X102.8499 Y119.22 E1.07863 F12000 ; Print pattern perimeter
G1 X81.6367 Y140.4332 E1.07863 F12000 ; Print pattern perimeter
G1 E-0.5 F2100 ; Retract
G1 Z1.1 F12000 ; Z hop
G0 X82.2265 Y98.0068 F12000 ; Move to start next pattern perimeter
G1 Z1 F12000 ; Z hop return
G1 E0.5 F2100 ; Un-retract
G1 X103.4397 Y119.22 E1.07863 F12000 ; Print pattern perimeter
G1 X82.2265 Y140.4332 E1.07863 F12000 ; Print pattern perimeter
G1 E-0.5 F2100 ; Retract
G1 Z1.1 F12000 ; Z hop
G0 X82.8164 Y98.0068 F12000 ; Move to start next pattern perimeter
G1 Z1 F12000 ; Z hop return
G1 E0.5 F2100 ; Un-retract
G1 X104.0296 Y119.22 E1.07863 F12000 ; Print pattern perimeter
G1 X82.8164 Y140.4332 E1.07863 F12000 ; Print pattern perimeter
G1 E-0.5 F2100 ; Retract
G1 Z1.1 F12000 ; Z hop
G0 X86.2764 Y98.0068 F12000 ; Move to next pattern
G1 Z1 F12000 ; Z hop return
G1 E0.5 F2100 ; Un-retract
SET_PRESSURE_ADVANCE ADVANCE=0.01 ; Set pressure advance
M117 PA 0.01
G1 X107.4896 Y119.22 E1.07863 F12000 ; Print pattern perimeter
G1 X86.2764 Y140.4332 E1.07863 F12000 ; Print pattern perimeter
G1 E-0.5 F2100 ; Retract
G1 Z1.1 F12000 ; Z hop
G0 X86.8662 Y98.0068 F12000 ; Move to start next pattern perimeter
G1 Z1 F12000 ; Z hop return
G1 E0.5 F2100 ; Un-retract
G1 X108.0794 Y119.22 E1.07863 F12000 ; Print pattern perimeter
G1 X86.8662 Y140.4332 E1.07863 F12000 ; Print pattern perimeter
G1 E-0.5 F2100 ; Retract
G1 Z1.1 F12000 ; Z hop
G0 X87.4561 Y98.0068 F12000 ; Move to start next pattern perimeter
G1 Z1 F12000 ; Z hop return
G1 E0.5 F2100 ; Un-retract
G1 X108.6693 Y119.22 E1.07863 F12000 ; Print pattern perimeter
G1 X87.4561 Y140.4332 E1.07863 F12000 ; Print pattern perimeter
G1 E-0.5 F2100 ; Retract
G1 Z1.1 F12000 ; Z hop
G0 X90.9161 Y98.0068 F12000 ; Move to next pattern
G1 Z1 F12000 ; Z hop return
G1 E0.5 F2100 ; Un-retract
SET_PRESSURE_ADVANCE ADVANCE=0.015 ; Set pressure advance
M117 PA 0.015
G1 X112.1293 Y119.22 E1.07863 F12000 ; Print pattern perimeter
G1 X90.9161 Y140.4332 E1.07863 F12000 ; Print pattern perimeter
G1 E-0.5 F2100 ; Retract
G1 Z1.1 F12000 ; Z hop
G0 X91.5059 Y98.0068 F12000 ; Move to start next pattern perimeter
G1 Z1 F12000 ; Z hop return
G1 E0.5 F2100 ; Un-retract
G1 X112.7191 Y119.22 E1.07863 F12000 ; Print pattern perimeter
G1 X91.5059 Y140.4332 E1.07863 F12000 ; Print pattern perimeter
G1 E-0.5 F2100 ; Retract
G1 Z1.1 F12000 ; Z hop
G0 X92.0957 Y98.0068 F12000 ; Move to start next pattern perimeter
G1 Z1 F12000 ; Z hop return
G1 E0.5 F2100 ; Un-retract
G1 X113.3089 Y119.22 E1.07863 F12000 ; Print pattern perimeter
G1 X92.0957 Y140.4332 E1.07863 F12000 ; Print pattern perimeter
G1 E-0.5 F2100 ; Retract
G1 Z1.1 F12000 ; Z hop
G0 X95.5557 Y98.0068 F12000 ; Move to next pattern
G1 Z1 F12000 ; Z hop return
G1 E0.5 F2100 ; Un-retract
SET_PRESSURE_ADVANCE ADVANCE=0.02 ; Set pressure advance
M117 PA 0.02
G1 X116.7689 Y119.22 E1.07863 F12000 ; Print pattern perimeter
G1 X95.5557 Y140.4332 E1.07863 F12000 ; Print pattern perimeter
G1 E-0.5 F2100 ; Retract
G1 Z1.1 F12000 ; Z hop
G0 X96.1456 Y98.0068 F12000 ; Move to start next pattern perimeter
G1 Z1 F12000 ; Z hop return
G1 E0.5 F2100 ; Un-retract
G1 X117.3588 Y119.22 E1.07863 F12000 ; Print pattern perimeter
G1 X96.1456 Y140.4332 E1.07863 F12000 ; Print pattern perimeter
G1 E-0.5 F2100 ; Retract
G1 Z1.1 F12000 ; Z hop
G0 X96.7354 Y98.0068 F12000 ; Move to start next pattern perimeter
G1 Z1 F12000 ; Z hop return
G1 E0.5 F2100 ; Un-retract
G1 X117.9486 Y119.22 E1.07863 F12000 ; Print pattern perimeter
G1 X96.7354 Y140.4332 E1.07863 F12000 ; Print pattern perimeter
G1 E-0.5 F2100 ; Retract
G1 Z1.1 F12000 ; Z hop
G0 X100.1954 Y98.0068 F12000 ; Move to next pattern
G1 Z1 F12000 ; Z hop return
G1 E0.5 F2100 ; Un-retract
SET_PRESSURE_ADVANCE ADVANCE=0.025 ; Set pressure advance
M117 PA 0.025
G1 X121.4086 Y119.22 E1.07863 F12000 ; Print pattern perimeter
G1 X100.1954 Y140.4332 E1.07863 F12000 ; Print pattern perimeter
G1 E-0.5 F2100 ; Retract
G1 Z1.1 F12000 ; Z hop
G0 X100.7853 Y98.0068 F12000 ; Move to start next pattern perimeter
G1 Z1 F12000 ; Z hop return
G1 E0.5 F2100 ; Un-retract
G1 X121.9985 Y119.22 E1.07863 F12000 ; Print pattern perimeter
G1 X100.7853 Y140.4332 E1.07863 F12000 ; Print pattern perimeter
G1 E-0.5 F2100 ; Retract
G1 Z1.1 F12000 ; Z hop
G0 X101.3751 Y98.0068 F12000 ; Move to start next pattern perimeter
G1 Z1 F12000 ; Z hop return
G1 E0.5 F2100 ; Un-retract
G1 X122.5883 Y119.22 E1.07863 F12000 ; Print pattern perimeter
G1 X101.3751 Y140.4332 E1.07863 F12000 ; Print pattern perimeter
G1 E-0.5 F2100 ; Retract
G1 Z1.1 F12000 ; Z hop
G0 X104.8351 Y98.0068 F12000 ; Move to next pattern
G1 Z1 F12000 ; Z hop return
G1 E0.5 F2100 ; Un-retract
SET_PRESSURE_ADVANCE ADVANCE=0.03 ; Set pressure advance
M117 PA 0.03
G1 X126.0483 Y119.22 E1.07863 F12000 ; Print pattern perimeter
G1 X104.8351 Y140.4332 E1.07863 F12000 ; Print pattern perimeter
G1 E-0.5 F2100 ; Retract
G1 Z1.1 F12000 ; Z hop
G0 X105.4249 Y98.0068 F12000 ; Move to start next pattern perimeter
G1 Z1 F12000 ; Z hop return
G1 E0.5 F2100 ; Un-retract
G1 X126.6381 Y119.22 E1.07863 F12000 ; Print pattern perimeter
G1 X105.4249 Y140.4332 E1.07863 F12000 ; Print pattern perimeter
G1 E-0.5 F2100 ; Retract
G1 Z1.1 F12000 ; Z hop
G0 X106.0148 Y98.0068 F12000 ; Move to start next pattern perimeter
G1 Z1 F12000 ; Z hop return
G1 E0.5 F2100 ; Un-retract
G1 X127.228 Y119.22 E1.07863 F12000 ; Print pattern perimeter
G1 X106.0148 Y140.4332 E1.07863 F12000 ; Print pattern perimeter
G1 E-0.5 F2100 ; Retract
G1 Z1.1 F12000 ; Z hop
G0 X109.4748 Y98.0068 F12000 ; Move to next pattern
G1 Z1 F12000 ; Z hop return
G1 E0.5 F2100 ; Un-retract
SET_PRESSURE_ADVANCE ADVANCE=0.035 ; Set pressure advance
M117 PA 0.035
G1 X130.688 Y119.22 E1.07863 F12000 ; Print pattern perimeter
G1 X109.4748 Y140.4332 E1.07863 F12000 ; Print pattern perimeter
G1 E-0.5 F2100 ; Retract
G1 Z1.1 F12000 ; Z hop
G0 X110.0646 Y98.0068 F12000 ; Move to start next pattern perimeter
G1 Z1 F12000 ; Z hop return
G1 E0.5 F2100 ; Un-retract
G1 X131.2778 Y119.22 E1.07863 F12000 ; Print pattern perimeter
G1 X110.0646 Y140.4332 E1.07863 F12000 ; Print pattern perimeter
G1 E-0.5 F2100 ; Retract
G1 Z1.1 F12000 ; Z hop
G0 X110.6545 Y98.0068 F12000 ; Move to start next pattern perimeter
G1 Z1 F12000 ; Z hop return
G1 E0.5 F2100 ; Un-retract
G1 X131.8677 Y119.22 E1.07863 F12000 ; Print pattern perimeter
G1 X110.6545 Y140.4332 E1.07863 F12000 ; Print pattern perimeter
G1 E-0.5 F2100 ; Retract
G1 Z1.1 F12000 ; Z hop
G0 X114.1145 Y98.0068 F12000 ; Move to next pattern
G1 Z1 F12000 ; Z hop return
G1 E0.5 F2100 ; Un-retract
SET_PRESSURE_ADVANCE ADVANCE=0.04 ; Set pressure advance
M117 PA 0.04
