; ### Klipper Pressure Advance Calibration Pattern ###
;
; Original Marlin linear advance calibration tool by Sineos [https://github.com/Sineos]
; Heavily modified/rewritten by Andrew Ellis [https://github.com/AndrewEllis93]
; Source: https://andrewellis93.github.io/pressure_advance/pressure_advance.html
;
; -------------------------------------------
; Generated: Wed Nov 30 2022 10:49:10 GMT+0100 (Central European Standard Time)
; -------------------------------------------
;
; Printer:
;  - Firmware: klipper
;  - Bed Shape: Rect
;  - Bed Size X: 250 mm
;  - Bed Size Y: 250 mm
;  - Origin Bed Center: false
;  - Extruder Name:
;  - Travel Speed: 200 mm/s
;  - Nozzle Diameter: 0.4 mm
;
; Start / End G-code:
;  - Start G-code Type: standalone_temp_passing
;  - Hotend Temp: 250C
;  - Bed Temp: 60C
;
; Filament / Flow:
;  - Filament Diameter: 1.75 mm
;  - Extrusion Multiplier: 0.94
;  - Line Width: 116 %
;
; Retraction / Z Hop:
;  - Retraction Distance: 0.75 mm
;  - Retract Speed: 50 mm/s
;  - Unretract Speed: 30 mm/s
;  - Z Hop Enable: true
;  - Z Hop Height: 0.4mm
;
; First Layer Settings:
;  - First Layer Height: 0.2 mm
;  - First Layer Printing Speed: 3000 mm/s
;  - First Layer Fan: 0%
;  - Anchor Option: anchor_frame
;  - Anchor Frame Perimeters: 4
;  - Anchor Line Width: 140 %
;
; Print Settings:
;  - Layer Height: 0.2 mm
;  - Print Speed: 200 mm/s
;  - Acceleration: 8000 mm/s^2
;  - Fan Speed: 100%
;
; Pattern Settings (Using defaults):
;  - Print Height: 1 mm
;  - Perimeter Count: 3
;  - Side Length: 30 mm
;  - Spacing: 3 mm
;  - Corner Angle: 90 degrees
;  - Printing Direction: 0 degree
;
; Pressure Advance Stepping:
;  - PA Start Value: 0
;  - PA End Value: 0.08
;  - PA Increment: 0.005
;  - Numbering: true
;  - No Leading Zeroes: false
;  - Show on LCD: true
;
; Calculated Values:
;  - Number of Patterns to Print: 17
;  - PA Values: 0, 0.005, 0.01, 0.015, 0.02, 0.025, 0.03, 0.035, 0.04, 0.045, 0.05, 0.055, 0.06, 0.065, 0.07, 0.075, 0.08
;  - Print Size X: 101.64 mm
;  - Print Size Y: 53.99 mm
;  - Total Number of Layers: 5
;
; Prepare printing
;
PRINT_START EXTRUDER=250 BED=60 CHAMBER=40 ; Start macro w/ temp params
;
; - Make sure the macro name AND parameter names match YOUR start macro setup!
;     (For example, some macros use EXTRUDER=X rather than HOTEND=X, or START_PRINT instead of PRINT_START)!
; - Replace any slicer variables with those listed above! It should look like the top example, !!! NOT !!! like this:
;     PRINT_START BED=[first_layer_bed_temperature](...)
;
; M112                                            ; Reading comprehension check! (emergency stop)
G21 ; Millimeter units
G90 ; Absolute XYZ
M83 ; Relative E
G92 E0 ; Reset extruder distance
;
;  Begin printing
;
M106 S0 ; Set fan speed
SET_VELOCITY_LIMIT ACCEL=8000 ; Set printing acceleration
G1 E-0.75 F3000 ; Retract
G0 Z5 F12000 ; Z raise
G0 X74.1815 Y98.0068 F12000 ; Move to start position
G0 Z0.2 F12000 ; Move to start layer height
G1 E0.75 F1800 ; Un-retract
SET_PRESSURE_ADVANCE ADVANCE=0 ; Set pressure advance
M117 PA0
G1 X74.1815 Y140.4332 E1.85702 F3000 ; Draw perimeter (up)
G1 X175.8185 Y140.4332 E4.44868 F3000 ; Draw perimeter (right)
G1 X175.8185 Y98.0068 E1.85702 F3000 ; Draw perimeter (down)
G1 X74.1815 Y98.0068 E4.44868 F3000 ; Draw perimeter (left)
G0 X74.6986 Y98.5239 F12000 ; Step inwards to print next perimeter
G1 X74.6986 Y139.9161 E1.81175 F3000 ; Draw perimeter (up)
G1 X175.3014 Y139.9161 E4.40342 F3000 ; Draw perimeter (right)
G1 X175.3014 Y98.5239 E1.81175 F3000 ; Draw perimeter (down)
G1 X74.6986 Y98.5239 E4.40342 F3000 ; Draw perimeter (left)
G0 X75.2157 Y99.041 F12000 ; Step inwards to print next perimeter
G1 X75.2157 Y139.399 E1.76649 F3000 ; Draw perimeter (up)
G1 X174.7843 Y139.399 E4.35815 F3000 ; Draw perimeter (right)
G1 X174.7843 Y99.041 E1.76649 F3000 ; Draw perimeter (down)
G1 X75.2157 Y99.041 E4.35815 F3000 ; Draw perimeter (left)
G0 X75.7328 Y99.558 F12000 ; Step inwards to print next perimeter
G1 X75.7328 Y138.882 E1.72122 F3000 ; Draw perimeter (up)
G1 X174.2672 Y138.882 E4.31289 F3000 ; Draw perimeter (right)
G1 X174.2672 Y99.558 E1.72122 F3000 ; Draw perimeter (down)
G1 X75.7328 Y99.558 E4.31289 F3000 ; Draw perimeter (left)
G1 E-0.75 F3000 ; Retract
G1 Z0.6 F12000 ; Z hop
G0 X74.1815 Y140.7693 F12000 ; Move to box start
G1 Z0.2 F12000 ; Z hop return
G1 E0.75 F1800 ; Un-retract
G1 X74.1815 Y152.2864 E0.50411 F3000 ; Draw perimeter (up)
G1 X155.2837 Y152.2864 E3.54987 F3000 ; Draw perimeter (right)
G1 X155.2837 Y140.7693 E0.50411 F3000 ; Draw perimeter (down)
G1 X74.1815 Y140.7693 E3.54987 F3000 ; Draw perimeter (left)
G0 X74.6986 Y141.2864 F12000 ; Step inwards to print next perimeter
G1 X74.6986 Y151.7693 E0.45884 F3000 ; Draw perimeter (up)
G1 X154.7666 Y151.7693 E3.5046 F3000 ; Draw perimeter (right)
G1 X154.7666 Y141.2864 E0.45884 F3000 ; Draw perimeter (down)
G1 X74.6986 Y141.2864 E3.5046 F3000 ; Draw perimeter (left)
G0 X75.2157 Y141.8035 F12000 ; Step inwards to print next perimeter
G1 X75.2157 Y151.2522 E0.41358 F3000 ; Draw perimeter (up)
G1 X154.2495 Y151.2522 E3.45934 F3000 ; Draw perimeter (right)
G1 X154.2495 Y141.8035 E0.41358 F3000 ; Draw perimeter (down)
G1 X75.2157 Y141.8035 E3.45934 F3000 ; Draw perimeter (left)
G0 X75.7328 Y142.3205 F12000 ; Step inwards to print next perimeter
G1 X75.7328 Y150.7351 E0.36831 F3000 ; Draw perimeter (up)
G1 X153.7324 Y150.7351 E3.41407 F3000 ; Draw perimeter (right)
G1 X153.7324 Y142.3205 E0.36831 F3000 ; Draw perimeter (down)
G1 X75.7328 Y142.3205 E3.41407 F3000 ; Draw perimeter (left)
G0 X75.862 Y142.4498 F12000 ; Move to fill start
G0 X76.5933 Y142.4498 F12000 ; Move
G1 X75.862 Y143.1811 E0.04527 F3000 ; Fill
G0 X75.862 Y143.9123 F12000 ; Move
G1 X77.3246 Y142.4498 E0.09053 F3000 ; Fill
G0 X78.0558 Y142.4498 F12000 ; Move
G1 X75.862 Y144.6436 E0.1358 F3000 ; Fill
G0 X75.862 Y145.3749 F12000 ; Move
G1 X78.7871 Y142.4498 E0.18106 F3000 ; Fill
G0 X79.5184 Y142.4498 F12000 ; Move
G1 X75.862 Y146.1061 E0.22633 F3000 ; Fill
G0 X75.862 Y146.8374 F12000 ; Move
G1 X80.2496 Y142.4498 E0.27159 F3000 ; Fill
G0 X80.9809 Y142.4498 F12000 ; Move
G1 X75.862 Y147.5686 E0.31686 F3000 ; Fill
G0 X75.862 Y148.2999 F12000 ; Move
G1 X81.7121 Y142.4498 E0.36212 F3000 ; Fill
G0 X82.4434 Y142.4498 F12000 ; Move
G1 X75.862 Y149.0312 E0.40739 F3000 ; Fill
G0 X75.862 Y149.7624 F12000 ; Move
G1 X83.1747 Y142.4498 E0.45266 F3000 ; Fill
G0 X83.9059 Y142.4498 F12000 ; Move
G1 X75.862 Y150.4937 E0.49792 F3000 ; Fill
G0 X76.4811 Y150.6059 F12000 ; Move
G1 X84.6372 Y142.4498 E0.50487 F3000 ; Fill
G0 X85.3684 Y142.4498 F12000 ; Move
G1 X77.2124 Y150.6059 E0.50487 F3000 ; Fill
G0 X77.9436 Y150.6059 F12000 ; Move
G1 X86.0997 Y142.4498 E0.50487 F3000 ; Fill
G0 X86.831 Y142.4498 F12000 ; Move
G1 X78.6749 Y150.6059 E0.50487 F3000 ; Fill
G0 X79.4062 Y150.6059 F12000 ; Move
G1 X87.5622 Y142.4498 E0.50487 F3000 ; Fill
G0 X88.2935 Y142.4498 F12000 ; Move
G1 X80.1374 Y150.6059 E0.50487 F3000 ; Fill
G0 X80.8687 Y150.6059 F12000 ; Move
G1 X89.0247 Y142.4498 E0.50487 F3000 ; Fill
G0 X89.756 Y142.4498 F12000 ; Move
G1 X81.5999 Y150.6059 E0.50487 F3000 ; Fill
G0 X82.3312 Y150.6059 F12000 ; Move
G1 X90.4873 Y142.4498 E0.50487 F3000 ; Fill
G0 X91.2185 Y142.4498 F12000 ; Move
G1 X83.0625 Y150.6059 E0.50487 F3000 ; Fill
G0 X83.7937 Y150.6059 F12000 ; Move
G1 X91.9498 Y142.4498 E0.50487 F3000 ; Fill
G0 X92.6811 Y142.4498 F12000 ; Move
G1 X84.525 Y150.6059 E0.50487 F3000 ; Fill
G0 X85.2563 Y150.6059 F12000 ; Move
G1 X93.4123 Y142.4498 E0.50487 F3000 ; Fill
G0 X94.1436 Y142.4498 F12000 ; Move
G1 X85.9875 Y150.6059 E0.50487 F3000 ; Fill
G0 X86.7188 Y150.6059 F12000 ; Move
G1 X94.8748 Y142.4498 E0.50487 F3000 ; Fill
G0 X95.6061 Y142.4498 F12000 ; Move
G1 X87.45 Y150.6059 E0.50487 F3000 ; Fill
G0 X88.1813 Y150.6059 F12000 ; Move
G1 X96.3374 Y142.4498 E0.50487 F3000 ; Fill
G0 X97.0686 Y142.4498 F12000 ; Move
G1 X88.9126 Y150.6059 E0.50487 F3000 ; Fill
G0 X89.6438 Y150.6059 F12000 ; Move
G1 X97.7999 Y142.4498 E0.50487 F3000 ; Fill
G0 X98.5311 Y142.4498 F12000 ; Move
G1 X90.3751 Y150.6059 E0.50487 F3000 ; Fill
G0 X91.1063 Y150.6059 F12000 ; Move
G1 X99.2624 Y142.4498 E0.50487 F3000 ; Fill
G0 X99.9937 Y142.4498 F12000 ; Move
G1 X91.8376 Y150.6059 E0.50487 F3000 ; Fill
G0 X92.5689 Y150.6059 F12000 ; Move
G1 X100.7249 Y142.4498 E0.50487 F3000 ; Fill
G0 X101.4562 Y142.4498 F12000 ; Move
G1 X93.3001 Y150.6059 E0.50487 F3000 ; Fill
G0 X94.0314 Y150.6059 F12000 ; Move
G1 X102.1874 Y142.4498 E0.50487 F3000 ; Fill
G0 X102.9187 Y142.4498 F12000 ; Move
G1 X94.7626 Y150.6059 E0.50487 F3000 ; Fill
G0 X95.4939 Y150.6059 F12000 ; Move
G1 X103.65 Y142.4498 E0.50487 F3000 ; Fill
G0 X104.3812 Y142.4498 F12000 ; Move
G1 X96.2252 Y150.6059 E0.50487 F3000 ; Fill
G0 X96.9564 Y150.6059 F12000 ; Move
G1 X105.1125 Y142.4498 E0.50487 F3000 ; Fill
G0 X105.8438 Y142.4498 F12000 ; Move
G1 X97.6877 Y150.6059 E0.50487 F3000 ; Fill
G0 X98.4189 Y150.6059 F12000 ; Move
G1 X106.575 Y142.4498 E0.50487 F3000 ; Fill
G0 X107.3063 Y142.4498 F12000 ; Move
G1 X99.1502 Y150.6059 E0.50487 F3000 ; Fill
G0 X99.8815 Y150.6059 F12000 ; Move
G1 X108.0375 Y142.4498 E0.50487 F3000 ; Fill
G0 X108.7688 Y142.4498 F12000 ; Move
G1 X100.6127 Y150.6059 E0.50487 F3000 ; Fill
G0 X101.344 Y150.6059 F12000 ; Move
G1 X109.5001 Y142.4498 E0.50487 F3000 ; Fill
G0 X110.2313 Y142.4498 F12000 ; Move
G1 X102.0753 Y150.6059 E0.50487 F3000 ; Fill
G0 X102.8065 Y150.6059 F12000 ; Move
G1 X110.9626 Y142.4498 E0.50487 F3000 ; Fill
G0 X111.6938 Y142.4498 F12000 ; Move
G1 X103.5378 Y150.6059 E0.50487 F3000 ; Fill
G0 X104.269 Y150.6059 F12000 ; Move
G1 X112.4251 Y142.4498 E0.50487 F3000 ; Fill
G0 X113.1564 Y142.4498 F12000 ; Move
G1 X105.0003 Y150.6059 E0.50487 F3000 ; Fill
G0 X105.7316 Y150.6059 F12000 ; Move
G1 X113.8876 Y142.4498 E0.50487 F3000 ; Fill
G0 X114.6189 Y142.4498 F12000 ; Move
G1 X106.4628 Y150.6059 E0.50487 F3000 ; Fill
G0 X107.1941 Y150.6059 F12000 ; Move
G1 X115.3501 Y142.4498 E0.50487 F3000 ; Fill
G0 X116.0814 Y142.4498 F12000 ; Move
G1 X107.9253 Y150.6059 E0.50487 F3000 ; Fill
G0 X108.6566 Y150.6059 F12000 ; Move
G1 X116.8127 Y142.4498 E0.50487 F3000 ; Fill
G0 X117.5439 Y142.4498 F12000 ; Move
G1 X109.3879 Y150.6059 E0.50487 F3000 ; Fill
G0 X110.1191 Y150.6059 F12000 ; Move
G1 X118.2752 Y142.4498 E0.50487 F3000 ; Fill
G0 X119.0064 Y142.4498 F12000 ; Move
G1 X110.8504 Y150.6059 E0.50487 F3000 ; Fill
G0 X111.5816 Y150.6059 F12000 ; Move
G1 X119.7377 Y142.4498 E0.50487 F3000 ; Fill
G0 X120.469 Y142.4498 F12000 ; Move
G1 X112.3129 Y150.6059 E0.50487 F3000 ; Fill
G0 X113.0442 Y150.6059 F12000 ; Move
G1 X121.2002 Y142.4498 E0.50487 F3000 ; Fill
G0 X121.9315 Y142.4498 F12000 ; Move
G1 X113.7754 Y150.6059 E0.50487 F3000 ; Fill
G0 X114.5067 Y150.6059 F12000 ; Move
G1 X122.6628 Y142.4498 E0.50487 F3000 ; Fill
G0 X123.394 Y142.4498 F12000 ; Move
G1 X115.238 Y150.6059 E0.50487 F3000 ; Fill
G0 X115.9692 Y150.6059 F12000 ; Move
G1 X124.1253 Y142.4498 E0.50487 F3000 ; Fill
G0 X124.8565 Y142.4498 F12000 ; Move
G1 X116.7005 Y150.6059 E0.50487 F3000 ; Fill
G0 X117.4317 Y150.6059 F12000 ; Move
G1 X125.5878 Y142.4498 E0.50487 F3000 ; Fill
G0 X126.3191 Y142.4498 F12000 ; Move
G1 X118.163 Y150.6059 E0.50487 F3000 ; Fill
G0 X118.8943 Y150.6059 F12000 ; Move
G1 X127.0503 Y142.4498 E0.50487 F3000 ; Fill
G0 X127.7816 Y142.4498 F12000 ; Move
G1 X119.6255 Y150.6059 E0.50487 F3000 ; Fill
G0 X120.3568 Y150.6059 F12000 ; Move
G1 X128.5128 Y142.4498 E0.50487 F3000 ; Fill
G0 X129.2441 Y142.4498 F12000 ; Move
G1 X121.088 Y150.6059 E0.50487 F3000 ; Fill
G0 X121.8193 Y150.6059 F12000 ; Move
G1 X129.9754 Y142.4498 E0.50487 F3000 ; Fill
G0 X130.7066 Y142.4498 F12000 ; Move
G1 X122.5506 Y150.6059 E0.50487 F3000 ; Fill
G0 X123.2818 Y150.6059 F12000 ; Move
G1 X131.4379 Y142.4498 E0.50487 F3000 ; Fill
G0 X132.1691 Y142.4498 F12000 ; Move
G1 X124.0131 Y150.6059 E0.50487 F3000 ; Fill
G0 X124.7443 Y150.6059 F12000 ; Move
G1 X132.9004 Y142.4498 E0.50487 F3000 ; Fill
G0 X133.6317 Y142.4498 F12000 ; Move
G1 X125.4756 Y150.6059 E0.50487 F3000 ; Fill
G0 X126.2069 Y150.6059 F12000 ; Move
G1 X134.3629 Y142.4498 E0.50487 F3000 ; Fill
G0 X135.0942 Y142.4498 F12000 ; Move
G1 X126.9381 Y150.6059 E0.50487 F3000 ; Fill
G0 X127.6694 Y150.6059 F12000 ; Move
G1 X135.8255 Y142.4498 E0.50487 F3000 ; Fill
G0 X136.5567 Y142.4498 F12000 ; Move
G1 X128.4007 Y150.6059 E0.50487 F3000 ; Fill
G0 X129.1319 Y150.6059 F12000 ; Move
G1 X137.288 Y142.4498 E0.50487 F3000 ; Fill
G0 X138.0192 Y142.4498 F12000 ; Move
G1 X129.8632 Y150.6059 E0.50487 F3000 ; Fill
G0 X130.5944 Y150.6059 F12000 ; Move
G1 X138.7505 Y142.4498 E0.50487 F3000 ; Fill
G0 X139.4818 Y142.4498 F12000 ; Move
G1 X131.3257 Y150.6059 E0.50487 F3000 ; Fill
G0 X132.057 Y150.6059 F12000 ; Move
G1 X140.213 Y142.4498 E0.50487 F3000 ; Fill
G0 X140.9443 Y142.4498 F12000 ; Move
G1 X132.7882 Y150.6059 E0.50487 F3000 ; Fill
G0 X133.5195 Y150.6059 F12000 ; Move
G1 X141.6755 Y142.4498 E0.50487 F3000 ; Fill
G0 X142.4068 Y142.4498 F12000 ; Move
G1 X134.2507 Y150.6059 E0.50487 F3000 ; Fill
G0 X134.982 Y150.6059 F12000 ; Move
G1 X143.1381 Y142.4498 E0.50487 F3000 ; Fill
G0 X143.8693 Y142.4498 F12000 ; Move
G1 X135.7133 Y150.6059 E0.50487 F3000 ; Fill
G0 X136.4445 Y150.6059 F12000 ; Move
G1 X144.6006 Y142.4498 E0.50487 F3000 ; Fill
G0 X145.3318 Y142.4498 F12000 ; Move
G1 X137.1758 Y150.6059 E0.50487 F3000 ; Fill
G0 X137.907 Y150.6059 F12000 ; Move
G1 X146.0631 Y142.4498 E0.50487 F3000 ; Fill
G0 X146.7944 Y142.4498 F12000 ; Move
G1 X138.6383 Y150.6059 E0.50487 F3000 ; Fill
G0 X139.3696 Y150.6059 F12000 ; Move
G1 X147.5256 Y142.4498 E0.50487 F3000 ; Fill
G0 X148.2569 Y142.4498 F12000 ; Move
G1 X140.1008 Y150.6059 E0.50487 F3000 ; Fill
G0 X140.8321 Y150.6059 F12000 ; Move
G1 X148.9882 Y142.4498 E0.50487 F3000 ; Fill
G0 X149.7194 Y142.4498 F12000 ; Move
G1 X141.5633 Y150.6059 E0.50487 F3000 ; Fill
G0 X142.2946 Y150.6059 F12000 ; Move
G1 X150.4507 Y142.4498 E0.50487 F3000 ; Fill
G0 X151.1819 Y142.4498 F12000 ; Move
G1 X143.0259 Y150.6059 E0.50487 F3000 ; Fill
G0 X143.7571 Y150.6059 F12000 ; Move
G1 X151.9132 Y142.4498 E0.50487 F3000 ; Fill
G0 X152.6445 Y142.4498 F12000 ; Move
G1 X144.4884 Y150.6059 E0.50487 F3000 ; Fill
G0 X145.2197 Y150.6059 F12000 ; Move
G1 X153.3757 Y142.4498 E0.50487 F3000 ; Fill
G0 X153.6032 Y142.9536 F12000 ; Move
G1 X145.9509 Y150.6059 E0.47368 F3000 ; Fill
G0 X146.6822 Y150.6059 F12000 ; Move
G1 X153.6032 Y143.6849 E0.42841 F3000 ; Fill
G0 X153.6032 Y144.4161 F12000 ; Move
G1 X147.4134 Y150.6059 E0.38315 F3000 ; Fill
G0 X148.1447 Y150.6059 F12000 ; Move
G1 X153.6032 Y145.1474 E0.33788 F3000 ; Fill
G0 X153.6032 Y145.8787 F12000 ; Move
G1 X148.876 Y150.6059 E0.29262 F3000 ; Fill
G0 X149.6072 Y150.6059 F12000 ; Move
G1 X153.6032 Y146.6099 E0.24735 F3000 ; Fill
G0 X153.6032 Y147.3412 F12000 ; Move
G1 X150.3385 Y150.6059 E0.20209 F3000 ; Fill
G0 X151.0697 Y150.6059 F12000 ; Move
G1 X153.6032 Y148.0725 E0.15682 F3000 ; Fill
G0 X153.6032 Y148.8037 F12000 ; Move
G1 X151.801 Y150.6059 E0.11156 F3000 ; Fill
G0 X152.5323 Y150.6059 F12000 ; Move
G1 X153.6032 Y149.535 E0.06629 F3000 ; Fill
G0 X153.6032 Y150.2662 F12000 ; Move
G1 X153.2635 Y150.6059 E0.02102 F3000 ; Fill
G0 Z0.2 F12000 ; Move to layer height
G1 E-0.75 F3000 ; Retract
G1 Z0.6 F12000 ; Z hop
G0 X78.4173 Y99.558 F12000 ; Move to pattern start

G1 Z0.2 F12000 ; Z hop return
G1 E0.75 F1800 ; Un-retract
SET_PRESSURE_ADVANCE ADVANCE=0 ; Set pressure advance
M117 PA0
G1 X98.0792 Y119.22 E1.00844 F3000 ; Print pattern perimeter
G1 X78.4173 Y138.882 E1.00844 F3000 ; Print pattern perimeter
G1 E-0.75 F3000 ; Retract
G1 Z0.6 F12000 ; Z hop
G0 X79.0128 Y99.558 F12000 ; Move to start next pattern perimeter
G1 Z0.2 F12000 ; Z hop return
G1 E0.75 F1800 ; Un-retract
G1 X98.6747 Y119.22 E1.00844 F3000 ; Print pattern perimeter
G1 X79.0128 Y138.882 E1.00844 F3000 ; Print pattern perimeter
G1 E-0.75 F3000 ; Retract
G1 Z0.6 F12000 ; Z hop
G0 X79.6083 Y99.558 F12000 ; Move to start next pattern perimeter
G1 Z0.2 F12000 ; Z hop return
G1 E0.75 F1800 ; Un-retract
G1 X99.2702 Y119.22 E1.00844 F3000 ; Print pattern perimeter
G1 X79.6083 Y138.882 E1.00844 F3000 ; Print pattern perimeter
G1 E-0.75 F3000 ; Retract
G1 Z0.6 F12000 ; Z hop
G0 X83.0723 Y99.558 F12000 ; Move to next pattern
G1 Z0.2 F12000 ; Z hop return
G1 E0.75 F1800 ; Un-retract
SET_PRESSURE_ADVANCE ADVANCE=0.005 ; Set pressure advance
M117 PA0.005
G1 X102.7342 Y119.22 E1.00844 F3000 ; Print pattern perimeter
G1 X83.0723 Y138.882 E1.00844 F3000 ; Print pattern perimeter
G1 E-0.75 F3000 ; Retract
G1 Z0.6 F12000 ; Z hop
G0 X83.6678 Y99.558 F12000 ; Move to start next pattern perimeter
G1 Z0.2 F12000 ; Z hop return
G1 E0.75 F1800 ; Un-retract
G1 X103.3297 Y119.22 E1.00844 F3000 ; Print pattern perimeter
G1 X83.6678 Y138.882 E1.00844 F3000 ; Print pattern perimeter
G1 E-0.75 F3000 ; Retract
G1 Z0.6 F12000 ; Z hop
G0 X84.2633 Y99.558 F12000 ; Move to start next pattern perimeter
G1 Z0.2 F12000 ; Z hop return
G1 E0.75 F1800 ; Un-retract
G1 X103.9252 Y119.22 E1.00844 F3000 ; Print pattern perimeter
G1 X84.2633 Y138.882 E1.00844 F3000 ; Print pattern perimeter
G1 E-0.75 F3000 ; Retract
G1 Z0.6 F12000 ; Z hop
G0 X87.7273 Y99.558 F12000 ; Move to next pattern
G1 Z0.2 F12000 ; Z hop return
G1 E0.75 F1800 ; Un-retract
SET_PRESSURE_ADVANCE ADVANCE=0.01 ; Set pressure advance
M117 PA0.01
G1 X107.3892 Y119.22 E1.00844 F3000 ; Print pattern perimeter
G1 X87.7273 Y138.882 E1.00844 F3000 ; Print pattern perimeter
G1 E-0.75 F3000 ; Retract
G1 Z0.6 F12000 ; Z hop
G0 X88.3228 Y99.558 F12000 ; Move to start next pattern perimeter
G1 Z0.2 F12000 ; Z hop return
G1 E0.75 F1800 ; Un-retract
G1 X107.9847 Y119.22 E1.00844 F3000 ; Print pattern perimeter
G1 X88.3228 Y138.882 E1.00844 F3000 ; Print pattern perimeter
G1 E-0.75 F3000 ; Retract
G1 Z0.6 F12000 ; Z hop
G0 X88.9183 Y99.558 F12000 ; Move to start next pattern perimeter
G1 Z0.2 F12000 ; Z hop return
G1 E0.75 F1800 ; Un-retract
G1 X108.5802 Y119.22 E1.00844 F3000 ; Print pattern perimeter
G1 X88.9183 Y138.882 E1.00844 F3000 ; Print pattern perimeter
G1 E-0.75 F3000 ; Retract
G1 Z0.6 F12000 ; Z hop
G0 X92.3823 Y99.558 F12000 ; Move to next pattern
G1 Z0.2 F12000 ; Z hop return
G1 E0.75 F1800 ; Un-retract
SET_PRESSURE_ADVANCE ADVANCE=0.015 ; Set pressure advance
M117 PA0.015
G1 X112.0442 Y119.22 E1.00844 F3000 ; Print pattern perimeter
G1 X92.3823 Y138.882 E1.00844 F3000 ; Print pattern perimeter
G1 E-0.75 F3000 ; Retract
G1 Z0.6 F12000 ; Z hop
G0 X92.9778 Y99.558 F12000 ; Move to start next pattern perimeter
G1 Z0.2 F12000 ; Z hop return
G1 E0.75 F1800 ; Un-retract
G1 X112.6397 Y119.22 E1.00844 F3000 ; Print pattern perimeter
G1 X92.9778 Y138.882 E1.00844 F3000 ; Print pattern perimeter
G1 E-0.75 F3000 ; Retract
G1 Z0.6 F12000 ; Z hop
G0 X93.5733 Y99.558 F12000 ; Move to start next pattern perimeter
G1 Z0.2 F12000 ; Z hop return
G1 E0.75 F1800 ; Un-retract
G1 X113.2352 Y119.22 E1.00844 F3000 ; Print pattern perimeter
G1 X93.5733 Y138.882 E1.00844 F3000 ; Print pattern perimeter
G1 E-0.75 F3000 ; Retract
G1 Z0.6 F12000 ; Z hop
G0 X97.0373 Y99.558 F12000 ; Move to next pattern
G1 Z0.2 F12000 ; Z hop return
G1 E0.75 F1800 ; Un-retract
SET_PRESSURE_ADVANCE ADVANCE=0.02 ; Set pressure advance
M117 PA0.02
G1 X116.6992 Y119.22 E1.00844 F3000 ; Print pattern perimeter
G1 X97.0373 Y138.882 E1.00844 F3000 ; Print pattern perimeter
G1 E-0.75 F3000 ; Retract
G1 Z0.6 F12000 ; Z hop
G0 X97.6328 Y99.558 F12000 ; Move to start next pattern perimeter
G1 Z0.2 F12000 ; Z hop return
G1 E0.75 F1800 ; Un-retract
G1 X117.2947 Y119.22 E1.00844 F3000 ; Print pattern perimeter
G1 X97.6328 Y138.882 E1.00844 F3000 ; Print pattern perimeter
G1 E-0.75 F3000 ; Retract
G1 Z0.6 F12000 ; Z hop
G0 X98.2282 Y99.558 F12000 ; Move to start next pattern perimeter
G1 Z0.2 F12000 ; Z hop return
G1 E0.75 F1800 ; Un-retract
G1 X117.8902 Y119.22 E1.00844 F3000 ; Print pattern perimeter
G1 X98.2282 Y138.882 E1.00844 F3000 ; Print pattern perimeter
G1 E-0.75 F3000 ; Retract
G1 Z0.6 F12000 ; Z hop
G0 X101.6922 Y99.558 F12000 ; Move to next pattern
G1 Z0.2 F12000 ; Z hop return
G1 E0.75 F1800 ; Un-retract
SET_PRESSURE_ADVANCE ADVANCE=0.025 ; Set pressure advance
M117 PA0.025
G1 X121.3542 Y119.22 E1.00844 F3000 ; Print pattern perimeter
G1 X101.6922 Y138.882 E1.00844 F3000 ; Print pattern perimeter
G1 E-0.75 F3000 ; Retract
G1 Z0.6 F12000 ; Z hop
G0 X102.2877 Y99.558 F12000 ; Move to start next pattern perimeter
G1 Z0.2 F12000 ; Z hop return
G1 E0.75 F1800 ; Un-retract
G1 X121.9497 Y119.22 E1.00844 F3000 ; Print pattern perimeter
G1 X102.2877 Y138.882 E1.00844 F3000 ; Print pattern perimeter
G1 E-0.75 F3000 ; Retract
G1 Z0.6 F12000 ; Z hop
G0 X102.8832 Y99.558 F12000 ; Move to start next pattern perimeter
G1 Z0.2 F12000 ; Z hop return
G1 E0.75 F1800 ; Un-retract
G1 X122.5452 Y119.22 E1.00844 F3000 ; Print pattern perimeter
G1 X102.8832 Y138.882 E1.00844 F3000 ; Print pattern perimeter
G1 E-0.75 F3000 ; Retract
G1 Z0.6 F12000 ; Z hop
G0 X106.3472 Y99.558 F12000 ; Move to next pattern
G1 Z0.2 F12000 ; Z hop return
G1 E0.75 F1800 ; Un-retract
SET_PRESSURE_ADVANCE ADVANCE=0.03 ; Set pressure advance
M117 PA0.03
G1 X126.0092 Y119.22 E1.00844 F3000 ; Print pattern perimeter
G1 X106.3472 Y138.882 E1.00844 F3000 ; Print pattern perimeter
G1 E-0.75 F3000 ; Retract
G1 Z0.6 F12000 ; Z hop
G0 X106.9427 Y99.558 F12000 ; Move to start next pattern perimeter
G1 Z0.2 F12000 ; Z hop return
G1 E0.75 F1800 ; Un-retract
G1 X126.6047 Y119.22 E1.00844 F3000 ; Print pattern perimeter
G1 X106.9427 Y138.882 E1.00844 F3000 ; Print pattern perimeter
G1 E-0.75 F3000 ; Retract
G1 Z0.6 F12000 ; Z hop
G0 X107.5382 Y99.558 F12000 ; Move to start next pattern perimeter
G1 Z0.2 F12000 ; Z hop return
G1 E0.75 F1800 ; Un-retract
G1 X127.2002 Y119.22 E1.00844 F3000 ; Print pattern perimeter
G1 X107.5382 Y138.882 E1.00844 F3000 ; Print pattern perimeter
G1 E-0.75 F3000 ; Retract
G1 Z0.6 F12000 ; Z hop
G0 X111.0022 Y99.558 F12000 ; Move to next pattern
G1 Z0.2 F12000 ; Z hop return
G1 E0.75 F1800 ; Un-retract
SET_PRESSURE_ADVANCE ADVANCE=0.035 ; Set pressure advance
M117 PA0.035
G1 X130.6642 Y119.22 E1.00844 F3000 ; Print pattern perimeter
G1 X111.0022 Y138.882 E1.00844 F3000 ; Print pattern perimeter
G1 E-0.75 F3000 ; Retract
G1 Z0.6 F12000 ; Z hop
G0 X111.5977 Y99.558 F12000 ; Move to start next pattern perimeter
G1 Z0.2 F12000 ; Z hop return
G1 E0.75 F1800 ; Un-retract
G1 X131.2597 Y119.22 E1.00844 F3000 ; Print pattern perimeter
G1 X111.5977 Y138.882 E1.00844 F3000 ; Print pattern perimeter
G1 E-0.75 F3000 ; Retract
G1 Z0.6 F12000 ; Z hop
G0 X112.1932 Y99.558 F12000 ; Move to start next pattern perimeter
G1 Z0.2 F12000 ; Z hop return
G1 E0.75 F1800 ; Un-retract
G1 X131.8552 Y119.22 E1.00844 F3000 ; Print pattern perimeter
G1 X112.1932 Y138.882 E1.00844 F3000 ; Print pattern perimeter
G1 E-0.75 F3000 ; Retract
G1 Z0.6 F12000 ; Z hop
G0 X115.6572 Y99.558 F12000 ; Move to next pattern
G1 Z0.2 F12000 ; Z hop return
G1 E0.75 F1800 ; Un-retract
SET_PRESSURE_ADVANCE ADVANCE=0.04 ; Set pressure advance
M117 PA0.04
G1 X135.3192 Y119.22 E1.00844 F3000 ; Print pattern perimeter
G1 X115.6572 Y138.882 E1.00844 F3000 ; Print pattern perimeter
G1 E-0.75 F3000 ; Retract
G1 Z0.6 F12000 ; Z hop
G0 X116.2527 Y99.558 F12000 ; Move to start next pattern perimeter
G1 Z0.2 F12000 ; Z hop return
G1 E0.75 F1800 ; Un-retract
G1 X135.9147 Y119.22 E1.00844 F3000 ; Print pattern perimeter
G1 X116.2527 Y138.882 E1.00844 F3000 ; Print pattern perimeter
G1 E-0.75 F3000 ; Retract
G1 Z0.6 F12000 ; Z hop
G0 X116.8482 Y99.558 F12000 ; Move to start next pattern perimeter
G1 Z0.2 F12000 ; Z hop return
G1 E0.75 F1800 ; Un-retract
G1 X136.5102 Y119.22 E1.00844 F3000 ; Print pattern perimeter
G1 X116.8482 Y138.882 E1.00844 F3000 ; Print pattern perimeter
G1 E-0.75 F3000 ; Retract
G1 Z0.6 F12000 ; Z hop
G0 X120.3122 Y99.558 F12000 ; Move to next pattern
G1 Z0.2 F12000 ; Z hop return
G1 E0.75 F1800 ; Un-retract
SET_PRESSURE_ADVANCE ADVANCE=0.045 ; Set pressure advance
M117 PA0.045
G1 X139.9742 Y119.22 E1.00844 F3000 ; Print pattern perimeter
G1 X120.3122 Y138.882 E1.00844 F3000 ; Print pattern perimeter
G1 E-0.75 F3000 ; Retract
G1 Z0.6 F12000 ; Z hop
G0 X120.9077 Y99.558 F12000 ; Move to start next pattern perimeter
G1 Z0.2 F12000 ; Z hop return
G1 E0.75 F1800 ; Un-retract
G1 X140.5697 Y119.22 E1.00844 F3000 ; Print pattern perimeter
G1 X120.9077 Y138.882 E1.00844 F3000 ; Print pattern perimeter
G1 E-0.75 F3000 ; Retract
G1 Z0.6 F12000 ; Z hop
G0 X121.5032 Y99.558 F12000 ; Move to start next pattern perimeter
G1 Z0.2 F12000 ; Z hop return
G1 E0.75 F1800 ; Un-retract
G1 X141.1652 Y119.22 E1.00844 F3000 ; Print pattern perimeter
G1 X121.5032 Y138.882 E1.00844 F3000 ; Print pattern perimeter
G1 E-0.75 F3000 ; Retract
G1 Z0.6 F12000 ; Z hop
G0 X124.9672 Y99.558 F12000 ; Move to next pattern
G1 Z0.2 F12000 ; Z hop return
G1 E0.75 F1800 ; Un-retract
SET_PRESSURE_ADVANCE ADVANCE=0.05 ; Set pressure advance
M117 PA0.05
G1 X144.6292 Y119.22 E1.00844 F3000 ; Print pattern perimeter
G1 X124.9672 Y138.882 E1.00844 F3000 ; Print pattern perimeter
G1 E-0.75 F3000 ; Retract
G1 Z0.6 F12000 ; Z hop
G0 X125.5627 Y99.558 F12000 ; Move to start next pattern perimeter
G1 Z0.2 F12000 ; Z hop return
G1 E0.75 F1800 ; Un-retract
G1 X145.2247 Y119.22 E1.00844 F3000 ; Print pattern perimeter
G1 X125.5627 Y138.882 E1.00844 F3000 ; Print pattern perimeter
G1 E-0.75 F3000 ; Retract
G1 Z0.6 F12000 ; Z hop
G0 X126.1582 Y99.558 F12000 ; Move to start next pattern perimeter
G1 Z0.2 F12000 ; Z hop return
G1 E0.75 F1800 ; Un-retract
G1 X145.8202 Y119.22 E1.00844 F3000 ; Print pattern perimeter
G1 X126.1582 Y138.882 E1.00844 F3000 ; Print pattern perimeter
G1 E-0.75 F3000 ; Retract
G1 Z0.6 F12000 ; Z hop
G0 X129.6222 Y99.558 F12000 ; Move to next pattern
G1 Z0.2 F12000 ; Z hop return
G1 E0.75 F1800 ; Un-retract
SET_PRESSURE_ADVANCE ADVANCE=0.055 ; Set pressure advance
M117 PA0.055
G1 X149.2842 Y119.22 E1.00844 F3000 ; Print pattern perimeter
G1 X129.6222 Y138.882 E1.00844 F3000 ; Print pattern perimeter
G1 E-0.75 F3000 ; Retract
G1 Z0.6 F12000 ; Z hop
G0 X130.2177 Y99.558 F12000 ; Move to start next pattern perimeter
G1 Z0.2 F12000 ; Z hop return
G1 E0.75 F1800 ; Un-retract
G1 X149.8797 Y119.22 E1.00844 F3000 ; Print pattern perimeter
G1 X130.2177 Y138.882 E1.00844 F3000 ; Print pattern perimeter
G1 E-0.75 F3000 ; Retract
G1 Z0.6 F12000 ; Z hop
G0 X130.8132 Y99.558 F12000 ; Move to start next pattern perimeter
G1 Z0.2 F12000 ; Z hop return
G1 E0.75 F1800 ; Un-retract
G1 X150.4752 Y119.22 E1.00844 F3000 ; Print pattern perimeter
G1 X130.8132 Y138.882 E1.00844 F3000 ; Print pattern perimeter
G1 E-0.75 F3000 ; Retract
G1 Z0.6 F12000 ; Z hop
G0 X134.2772 Y99.558 F12000 ; Move to next pattern
G1 Z0.2 F12000 ; Z hop return
G1 E0.75 F1800 ; Un-retract
SET_PRESSURE_ADVANCE ADVANCE=0.06 ; Set pressure advance
M117 PA0.06
G1 X153.9392 Y119.22 E1.00844 F3000 ; Print pattern perimeter
G1 X134.2772 Y138.882 E1.00844 F3000 ; Print pattern perimeter
G1 E-0.75 F3000 ; Retract
G1 Z0.6 F12000 ; Z hop
G0 X134.8727 Y99.558 F12000 ; Move to start next pattern perimeter
G1 Z0.2 F12000 ; Z hop return
G1 E0.75 F1800 ; Un-retract
G1 X154.5347 Y119.22 E1.00844 F3000 ; Print pattern perimeter
G1 X134.8727 Y138.882 E1.00844 F3000 ; Print pattern perimeter
G1 E-0.75 F3000 ; Retract
G1 Z0.6 F12000 ; Z hop
G0 X135.4682 Y99.558 F12000 ; Move to start next pattern perimeter
G1 Z0.2 F12000 ; Z hop return
G1 E0.75 F1800 ; Un-retract
G1 X155.1302 Y119.22 E1.00844 F3000 ; Print pattern perimeter
G1 X135.4682 Y138.882 E1.00844 F3000 ; Print pattern perimeter
G1 E-0.75 F3000 ; Retract
G1 Z0.6 F12000 ; Z hop
G0 X138.9322 Y99.558 F12000 ; Move to next pattern
G1 Z0.2 F12000 ; Z hop return
G1 E0.75 F1800 ; Un-retract
SET_PRESSURE_ADVANCE ADVANCE=0.065 ; Set pressure advance
M117 PA0.065
G1 X158.5942 Y119.22 E1.00844 F3000 ; Print pattern perimeter
G1 X138.9322 Y138.882 E1.00844 F3000 ; Print pattern perimeter
G1 E-0.75 F3000 ; Retract
G1 Z0.6 F12000 ; Z hop
G0 X139.5277 Y99.558 F12000 ; Move to start next pattern perimeter
G1 Z0.2 F12000 ; Z hop return
G1 E0.75 F1800 ; Un-retract
G1 X159.1897 Y119.22 E1.00844 F3000 ; Print pattern perimeter
G1 X139.5277 Y138.882 E1.00844 F3000 ; Print pattern perimeter
G1 E-0.75 F3000 ; Retract
G1 Z0.6 F12000 ; Z hop
G0 X140.1232 Y99.558 F12000 ; Move to start next pattern perimeter
G1 Z0.2 F12000 ; Z hop return
G1 E0.75 F1800 ; Un-retract
G1 X159.7851 Y119.22 E1.00844 F3000 ; Print pattern perimeter
G1 X140.1232 Y138.882 E1.00844 F3000 ; Print pattern perimeter
G1 E-0.75 F3000 ; Retract
G1 Z0.6 F12000 ; Z hop
G0 X143.5872 Y99.558 F12000 ; Move to next pattern
G1 Z0.2 F12000 ; Z hop return
G1 E0.75 F1800 ; Un-retract
SET_PRESSURE_ADVANCE ADVANCE=0.07 ; Set pressure advance
M117 PA0.07
G1 X163.2491 Y119.22 E1.00844 F3000 ; Print pattern perimeter
G1 X143.5872 Y138.882 E1.00844 F3000 ; Print pattern perimeter
G1 E-0.75 F3000 ; Retract
G1 Z0.6 F12000 ; Z hop
G0 X144.1827 Y99.558 F12000 ; Move to start next pattern perimeter
G1 Z0.2 F12000 ; Z hop return
G1 E0.75 F1800 ; Un-retract
G1 X163.8446 Y119.22 E1.00844 F3000 ; Print pattern perimeter
G1 X144.1827 Y138.882 E1.00844 F3000 ; Print pattern perimeter
G1 E-0.75 F3000 ; Retract
G1 Z0.6 F12000 ; Z hop
G0 X144.7782 Y99.558 F12000 ; Move to start next pattern perimeter
G1 Z0.2 F12000 ; Z hop return
G1 E0.75 F1800 ; Un-retract
G1 X164.4401 Y119.22 E1.00844 F3000 ; Print pattern perimeter
G1 X144.7782 Y138.882 E1.00844 F3000 ; Print pattern perimeter
G1 E-0.75 F3000 ; Retract
G1 Z0.6 F12000 ; Z hop
G0 X148.2422 Y99.558 F12000 ; Move to next pattern
G1 Z0.2 F12000 ; Z hop return
G1 E0.75 F1800 ; Un-retract
SET_PRESSURE_ADVANCE ADVANCE=0.075 ; Set pressure advance
M117 PA0.075
G1 X167.9041 Y119.22 E1.00844 F3000 ; Print pattern perimeter
G1 X148.2422 Y138.882 E1.00844 F3000 ; Print pattern perimeter
G1 E-0.75 F3000 ; Retract
G1 Z0.6 F12000 ; Z hop
G0 X148.8377 Y99.558 F12000 ; Move to start next pattern perimeter
G1 Z0.2 F12000 ; Z hop return
G1 E0.75 F1800 ; Un-retract
G1 X168.4996 Y119.22 E1.00844 F3000 ; Print pattern perimeter
G1 X148.8377 Y138.882 E1.00844 F3000 ; Print pattern perimeter
G1 E-0.75 F3000 ; Retract
G1 Z0.6 F12000 ; Z hop
G0 X149.4332 Y99.558 F12000 ; Move to start next pattern perimeter
G1 Z0.2 F12000 ; Z hop return
G1 E0.75 F1800 ; Un-retract
G1 X169.0951 Y119.22 E1.00844 F3000 ; Print pattern perimeter
G1 X149.4332 Y138.882 E1.00844 F3000 ; Print pattern perimeter
G1 E-0.75 F3000 ; Retract
G1 Z0.6 F12000 ; Z hop
G0 X152.8972 Y99.558 F12000 ; Move to next pattern
G1 Z0.2 F12000 ; Z hop return
G1 E0.75 F1800 ; Un-retract
SET_PRESSURE_ADVANCE ADVANCE=0.08 ; Set pressure advance
M117 PA0.08
G1 X172.5591 Y119.22 E1.00844 F3000 ; Print pattern perimeter
G1 X152.8972 Y138.882 E1.00844 F3000 ; Print pattern perimeter
G1 E-0.75 F3000 ; Retract
G1 Z0.6 F12000 ; Z hop
G0 X153.4927 Y99.558 F12000 ; Move to start next pattern perimeter
G1 Z0.2 F12000 ; Z hop return
G1 E0.75 F1800 ; Un-retract
G1 X173.1546 Y119.22 E1.00844 F3000 ; Print pattern perimeter
G1 X153.4927 Y138.882 E1.00844 F3000 ; Print pattern perimeter
G1 E-0.75 F3000 ; Retract
G1 Z0.6 F12000 ; Z hop
G0 X154.0882 Y99.558 F12000 ; Move to start next pattern perimeter
G1 Z0.2 F12000 ; Z hop return
G1 E0.75 F1800 ; Un-retract
G1 X173.7501 Y119.22 E1.00844 F3000 ; Print pattern perimeter
G1 X154.0882 Y138.882 E1.00844 F3000 ; Print pattern perimeter
G1 E-0.75 F3000 ; Retract
G1 Z0.6 F12000 ; Z hop
G0 X78.4173 Y99.558 F12000 ; Move back to start position
G1 Z0.2 F12000 ; Z hop return
G1 E0.75 F1800 ; Un-retract
M106 S255 ; Set fan speed
G0 Z0.4 F12000 ; Move to layer height
G1 E-0.75 F3000 ; Retract
G1 Z0.8 F12000 ; Z hop
G0 X75.4615 Y141.8972 F12000 ; Move
G1 Z0.4 F12000 ; Z hop return
G1 E0.75 F1800 ; Un-retract
G1 X77.4615 Y141.8972 E0.07253 F12000 ;  ; Glyph: 0
G1 X79.4615 Y141.8972 E0.07253 F12000 ;  ; Glyph: 0
G1 X79.4615 Y143.8972 E0.07253 F12000 ;  ; Glyph: 0
G1 X77.4615 Y143.8972 E0.07253 F12000 ;  ; Glyph: 0
G1 X75.4615 Y143.8972 E0.07253 F12000 ;  ; Glyph: 0
G1 X75.4615 Y141.8972 E0.07253 F12000 ;  ; Glyph: 0
G1 E-0.75 F3000 ; Retract
G1 Z0.8 F12000 ; Z hop
G0 X84.7715 Y141.8972 F12000 ; Move
G1 Z0.4 F12000 ; Z hop return
G1 E0.75 F1800 ; Un-retract
G1 X86.7715 Y141.8972 E0.07253 F12000 ;  ; Glyph: 0
G1 X88.7715 Y141.8972 E0.07253 F12000 ;  ; Glyph: 0
G1 X88.7715 Y143.8972 E0.07253 F12000 ;  ; Glyph: 0
G1 X86.7715 Y143.8972 E0.07253 F12000 ;  ; Glyph: 0
G1 X84.7715 Y143.8972 E0.07253 F12000 ;  ; Glyph: 0
G1 X84.7715 Y141.8972 E0.07253 F12000 ;  ; Glyph: 0
G1 E-0.75 F3000 ; Retract
G1 Z0.8 F12000 ; Z hop
G0 X88.7715 Y144.8972 F12000 ; Move
G1 Z0.4 F12000 ; Z hop return
G1 E0.75 F1800 ; Un-retract
G1 X88.0215 Y144.8972 E0.0272 F12000 ; Glyph: .
G1 E-0.75 F3000 ; Retract
G1 Z0.8 F12000 ; Z hop
G0 X84.7715 Y145.8972 F12000 ; Move
G1 Z0.4 F12000 ; Z hop return
G1 E0.75 F1800 ; Un-retract
G1 X86.7715 Y145.8972 E0.07253 F12000 ;  ; Glyph: 0
G1 X88.7715 Y145.8972 E0.07253 F12000 ;  ; Glyph: 0
G1 X88.7715 Y147.8972 E0.07253 F12000 ;  ; Glyph: 0
G1 X86.7715 Y147.8972 E0.07253 F12000 ;  ; Glyph: 0
G1 X84.7715 Y147.8972 E0.07253 F12000 ;  ; Glyph: 0
G1 X84.7715 Y145.8972 E0.07253 F12000 ;  ; Glyph: 0
G1 E-0.75 F3000 ; Retract
G1 Z0.8 F12000 ; Z hop
G0 X84.7715 Y148.8972 F12000 ; Move
G1 Z0.4 F12000 ; Z hop return
G1 E0.75 F1800 ; Un-retract
G1 X86.7715 Y148.8972 E0.07253 F12000 ;  ; Glyph: 1
G1 X88.7715 Y148.8972 E0.07253 F12000 ;  ; Glyph: 1
G1 E-0.75 F3000 ; Retract
G1 Z0.8 F12000 ; Z hop
G0 X94.0815 Y141.8972 F12000 ; Move
G1 Z0.4 F12000 ; Z hop return
G1 E0.75 F1800 ; Un-retract
G1 X96.0815 Y141.8972 E0.07253 F12000 ;  ; Glyph: 0
G1 X98.0815 Y141.8972 E0.07253 F12000 ;  ; Glyph: 0
G1 X98.0815 Y143.8972 E0.07253 F12000 ;  ; Glyph: 0
G1 X96.0815 Y143.8972 E0.07253 F12000 ;  ; Glyph: 0
G1 X94.0815 Y143.8972 E0.07253 F12000 ;  ; Glyph: 0
G1 X94.0815 Y141.8972 E0.07253 F12000 ;  ; Glyph: 0
G1 E-0.75 F3000 ; Retract
G1 Z0.8 F12000 ; Z hop
G0 X98.0815 Y144.8972 F12000 ; Move
G1 Z0.4 F12000 ; Z hop return
G1 E0.75 F1800 ; Un-retract
G1 X97.3315 Y144.8972 E0.0272 F12000 ; Glyph: .
G1 E-0.75 F3000 ; Retract
G1 Z0.8 F12000 ; Z hop
G0 X94.0815 Y145.8972 F12000 ; Move
G1 Z0.4 F12000 ; Z hop return
G1 E0.75 F1800 ; Un-retract
G1 X96.0815 Y145.8972 E0.07253 F12000 ;  ; Glyph: 0
G1 X98.0815 Y145.8972 E0.07253 F12000 ;  ; Glyph: 0
G1 X98.0815 Y147.8972 E0.07253 F12000 ;  ; Glyph: 0
G1 X96.0815 Y147.8972 E0.07253 F12000 ;  ; Glyph: 0
G1 X94.0815 Y147.8972 E0.07253 F12000 ;  ; Glyph: 0
G1 X94.0815 Y145.8972 E0.07253 F12000 ;  ; Glyph: 0
G1 E-0.75 F3000 ; Retract
G1 Z0.8 F12000 ; Z hop
G0 X94.0815 Y148.8972 F12000 ; Move
G1 Z0.4 F12000 ; Z hop return
G1 E0.75 F1800 ; Un-retract
G1 X94.0815 Y150.8972 E0.07253 F12000 ;  ; Glyph: 2
G1 X96.0815 Y150.8972 E0.07253 F12000 ;  ; Glyph: 2
G1 X96.0815 Y148.8972 E0.07253 F12000 ;  ; Glyph: 2
G1 X98.0815 Y148.8972 E0.07253 F12000 ;  ; Glyph: 2
G1 X98.0815 Y150.8972 E0.07253 F12000 ;  ; Glyph: 2
G1 E-0.75 F3000 ; Retract
G1 Z0.8 F12000 ; Z hop
G0 X103.3915 Y141.8972 F12000 ; Move
G1 Z0.4 F12000 ; Z hop return
G1 E0.75 F1800 ; Un-retract
G1 X105.3915 Y141.8972 E0.07253 F12000 ;  ; Glyph: 0
G1 X107.3915 Y141.8972 E0.07253 F12000 ;  ; Glyph: 0
G1 X107.3915 Y143.8972 E0.07253 F12000 ;  ; Glyph: 0
G1 X105.3915 Y143.8972 E0.07253 F12000 ;  ; Glyph: 0
G1 X103.3915 Y143.8972 E0.07253 F12000 ;  ; Glyph: 0
G1 X103.3915 Y141.8972 E0.07253 F12000 ;  ; Glyph: 0
G1 E-0.75 F3000 ; Retract
G1 Z0.8 F12000 ; Z hop
G0 X107.3915 Y144.8972 F12000 ; Move
G1 Z0.4 F12000 ; Z hop return
G1 E0.75 F1800 ; Un-retract
G1 X106.6415 Y144.8972 E0.0272 F12000 ; Glyph: .
G1 E-0.75 F3000 ; Retract
G1 Z0.8 F12000 ; Z hop
G0 X103.3915 Y145.8972 F12000 ; Move
G1 Z0.4 F12000 ; Z hop return
G1 E0.75 F1800 ; Un-retract
G1 X105.3915 Y145.8972 E0.07253 F12000 ;  ; Glyph: 0
G1 X107.3915 Y145.8972 E0.07253 F12000 ;  ; Glyph: 0
G1 X107.3915 Y147.8972 E0.07253 F12000 ;  ; Glyph: 0
G1 X105.3915 Y147.8972 E0.07253 F12000 ;  ; Glyph: 0
G1 X103.3915 Y147.8972 E0.07253 F12000 ;  ; Glyph: 0
G1 X103.3915 Y145.8972 E0.07253 F12000 ;  ; Glyph: 0
G1 E-0.75 F3000 ; Retract
G1 Z0.8 F12000 ; Z hop
G0 X103.3915 Y148.8972 F12000 ; Move
G1 Z0.4 F12000 ; Z hop return
G1 E0.75 F1800 ; Un-retract
G1 X103.3915 Y150.8972 E0.07253 F12000 ;  ; Glyph: 3
G1 X105.3915 Y150.8972 E0.07253 F12000 ;  ; Glyph: 3
G1 X105.3915 Y148.8972 E0.07253 F12000 ;  ; Glyph: 3
G0 X105.3915 Y150.8972 F12000 ; Move
G1 X107.3915 Y150.8972 E0.07253 F12000 ;  ; Glyph: 3
G1 X107.3915 Y148.8972 E0.07253 F12000 ;  ; Glyph: 3
G1 E-0.75 F3000 ; Retract
G1 Z0.8 F12000 ; Z hop
G0 X112.7015 Y141.8972 F12000 ; Move
G1 Z0.4 F12000 ; Z hop return
G1 E0.75 F1800 ; Un-retract
G1 X114.7015 Y141.8972 E0.07253 F12000 ;  ; Glyph: 0
G1 X116.7015 Y141.8972 E0.07253 F12000 ;  ; Glyph: 0
G1 X116.7015 Y143.8972 E0.07253 F12000 ;  ; Glyph: 0
G1 X114.7015 Y143.8972 E0.07253 F12000 ;  ; Glyph: 0
G1 X112.7015 Y143.8972 E0.07253 F12000 ;  ; Glyph: 0
G1 X112.7015 Y141.8972 E0.07253 F12000 ;  ; Glyph: 0
G1 E-0.75 F3000 ; Retract
G1 Z0.8 F12000 ; Z hop
G0 X116.7015 Y144.8972 F12000 ; Move
G1 Z0.4 F12000 ; Z hop return
G1 E0.75 F1800 ; Un-retract
G1 X115.9515 Y144.8972 E0.0272 F12000 ; Glyph: .
G1 E-0.75 F3000 ; Retract
G1 Z0.8 F12000 ; Z hop
G0 X112.7015 Y145.8972 F12000 ; Move
G1 Z0.4 F12000 ; Z hop return
G1 E0.75 F1800 ; Un-retract
G1 X114.7015 Y145.8972 E0.07253 F12000 ;  ; Glyph: 0
G1 X116.7015 Y145.8972 E0.07253 F12000 ;  ; Glyph: 0
G1 X116.7015 Y147.8972 E0.07253 F12000 ;  ; Glyph: 0
G1 X114.7015 Y147.8972 E0.07253 F12000 ;  ; Glyph: 0
G1 X112.7015 Y147.8972 E0.07253 F12000 ;  ; Glyph: 0
G1 X112.7015 Y145.8972 E0.07253 F12000 ;  ; Glyph: 0
G1 E-0.75 F3000 ; Retract
G1 Z0.8 F12000 ; Z hop
G0 X112.7015 Y150.8972 F12000 ; Move
G1 Z0.4 F12000 ; Z hop return
G1 E0.75 F1800 ; Un-retract
G1 X114.7015 Y150.8972 E0.07253 F12000 ;  ; Glyph: 4
G1 X116.7015 Y150.8972 E0.07253 F12000 ;  ; Glyph: 4
G0 X114.7015 Y150.8972 F12000 ; Move
G1 X114.7015 Y148.8972 E0.07253 F12000 ;  ; Glyph: 4
G1 X112.7015 Y148.8972 E0.07253 F12000 ;  ; Glyph: 4
G1 E-0.75 F3000 ; Retract
G1 Z0.8 F12000 ; Z hop
G0 X122.0115 Y141.8972 F12000 ; Move
G1 Z0.4 F12000 ; Z hop return
G1 E0.75 F1800 ; Un-retract
G1 X124.0115 Y141.8972 E0.07253 F12000 ;  ; Glyph: 0
G1 X126.0115 Y141.8972 E0.07253 F12000 ;  ; Glyph: 0
G1 X126.0115 Y143.8972 E0.07253 F12000 ;  ; Glyph: 0
G1 X124.0115 Y143.8972 E0.07253 F12000 ;  ; Glyph: 0
G1 X122.0115 Y143.8972 E0.07253 F12000 ;  ; Glyph: 0
G1 X122.0115 Y141.8972 E0.07253 F12000 ;  ; Glyph: 0
G1 E-0.75 F3000 ; Retract
G1 Z0.8 F12000 ; Z hop
G0 X126.0115 Y144.8972 F12000 ; Move
G1 Z0.4 F12000 ; Z hop return
G1 E0.75 F1800 ; Un-retract
G1 X125.2615 Y144.8972 E0.0272 F12000 ; Glyph: .
G1 E-0.75 F3000 ; Retract
G1 Z0.8 F12000 ; Z hop
G0 X122.0115 Y145.8972 F12000 ; Move
G1 Z0.4 F12000 ; Z hop return
G1 E0.75 F1800 ; Un-retract
G1 X124.0115 Y145.8972 E0.07253 F12000 ;  ; Glyph: 0
G1 X126.0115 Y145.8972 E0.07253 F12000 ;  ; Glyph: 0
G1 X126.0115 Y147.8972 E0.07253 F12000 ;  ; Glyph: 0
G1 X124.0115 Y147.8972 E0.07253 F12000 ;  ; Glyph: 0
G1 X122.0115 Y147.8972 E0.07253 F12000 ;  ; Glyph: 0
G1 X122.0115 Y145.8972 E0.07253 F12000 ;  ; Glyph: 0
G1 E-0.75 F3000 ; Retract
G1 Z0.8 F12000 ; Z hop
G0 X122.0115 Y150.8972 F12000 ; Move
G1 Z0.4 F12000 ; Z hop return
G1 E0.75 F1800 ; Un-retract
G1 X122.0115 Y148.8972 E0.07253 F12000 ;  ; Glyph: 5
G1 X124.0115 Y148.8972 E0.07253 F12000 ;  ; Glyph: 5
G1 X124.0115 Y150.8972 E0.07253 F12000 ;  ; Glyph: 5
G1 X126.0115 Y150.8972 E0.07253 F12000 ;  ; Glyph: 5
G1 X126.0115 Y148.8972 E0.07253 F12000 ;  ; Glyph: 5
G1 E-0.75 F3000 ; Retract
G1 Z0.8 F12000 ; Z hop
G0 X131.3215 Y141.8972 F12000 ; Move
G1 Z0.4 F12000 ; Z hop return
G1 E0.75 F1800 ; Un-retract
G1 X133.3215 Y141.8972 E0.07253 F12000 ;  ; Glyph: 0
G1 X135.3215 Y141.8972 E0.07253 F12000 ;  ; Glyph: 0
G1 X135.3215 Y143.8972 E0.07253 F12000 ;  ; Glyph: 0
G1 X133.3215 Y143.8972 E0.07253 F12000 ;  ; Glyph: 0
G1 X131.3215 Y143.8972 E0.07253 F12000 ;  ; Glyph: 0
G1 X131.3215 Y141.8972 E0.07253 F12000 ;  ; Glyph: 0
G1 E-0.75 F3000 ; Retract
G1 Z0.8 F12000 ; Z hop
G0 X135.3215 Y144.8972 F12000 ; Move
G1 Z0.4 F12000 ; Z hop return
G1 E0.75 F1800 ; Un-retract
G1 X134.5715 Y144.8972 E0.0272 F12000 ; Glyph: .
G1 E-0.75 F3000 ; Retract
G1 Z0.8 F12000 ; Z hop
G0 X131.3215 Y145.8972 F12000 ; Move
G1 Z0.4 F12000 ; Z hop return
G1 E0.75 F1800 ; Un-retract
G1 X133.3215 Y145.8972 E0.07253 F12000 ;  ; Glyph: 0
G1 X135.3215 Y145.8972 E0.07253 F12000 ;  ; Glyph: 0
G1 X135.3215 Y147.8972 E0.07253 F12000 ;  ; Glyph: 0
G1 X133.3215 Y147.8972 E0.07253 F12000 ;  ; Glyph: 0
G1 X131.3215 Y147.8972 E0.07253 F12000 ;  ; Glyph: 0
G1 X131.3215 Y145.8972 E0.07253 F12000 ;  ; Glyph: 0
G1 E-0.75 F3000 ; Retract
G1 Z0.8 F12000 ; Z hop
G0 X131.3215 Y150.8972 F12000 ; Move
G1 Z0.4 F12000 ; Z hop return
G1 E0.75 F1800 ; Un-retract
G1 X131.3215 Y148.8972 E0.07253 F12000 ;  ; Glyph: 6
G1 X133.3215 Y148.8972 E0.07253 F12000 ;  ; Glyph: 6
G1 X135.3215 Y148.8972 E0.07253 F12000 ;  ; Glyph: 6
G1 X135.3215 Y150.8972 E0.07253 F12000 ;  ; Glyph: 6
G1 X133.3215 Y150.8972 E0.07253 F12000 ;  ; Glyph: 6
G1 X133.3215 Y148.8972 E0.07253 F12000 ;  ; Glyph: 6
G1 E-0.75 F3000 ; Retract
G1 Z0.8 F12000 ; Z hop
G0 X140.6314 Y141.8972 F12000 ; Move
G1 Z0.4 F12000 ; Z hop return
G1 E0.75 F1800 ; Un-retract
G1 X142.6314 Y141.8972 E0.07253 F12000 ;  ; Glyph: 0
G1 X144.6314 Y141.8972 E0.07253 F12000 ;  ; Glyph: 0
G1 X144.6314 Y143.8972 E0.07253 F12000 ;  ; Glyph: 0
G1 X142.6314 Y143.8972 E0.07253 F12000 ;  ; Glyph: 0
G1 X140.6314 Y143.8972 E0.07253 F12000 ;  ; Glyph: 0
G1 X140.6314 Y141.8972 E0.07253 F12000 ;  ; Glyph: 0
G1 E-0.75 F3000 ; Retract
G1 Z0.8 F12000 ; Z hop
G0 X144.6314 Y144.8972 F12000 ; Move
G1 Z0.4 F12000 ; Z hop return
G1 E0.75 F1800 ; Un-retract
G1 X143.8814 Y144.8972 E0.0272 F12000 ; Glyph: .
G1 E-0.75 F3000 ; Retract
G1 Z0.8 F12000 ; Z hop
G0 X140.6314 Y145.8972 F12000 ; Move
G1 Z0.4 F12000 ; Z hop return
G1 E0.75 F1800 ; Un-retract
G1 X142.6314 Y145.8972 E0.07253 F12000 ;  ; Glyph: 0
G1 X144.6314 Y145.8972 E0.07253 F12000 ;  ; Glyph: 0
G1 X144.6314 Y147.8972 E0.07253 F12000 ;  ; Glyph: 0
G1 X142.6314 Y147.8972 E0.07253 F12000 ;  ; Glyph: 0
G1 X140.6314 Y147.8972 E0.07253 F12000 ;  ; Glyph: 0
G1 X140.6314 Y145.8972 E0.07253 F12000 ;  ; Glyph: 0
G1 E-0.75 F3000 ; Retract
G1 Z0.8 F12000 ; Z hop
G0 X140.6314 Y148.8972 F12000 ; Move
G1 Z0.4 F12000 ; Z hop return
G1 E0.75 F1800 ; Un-retract
G1 X140.6314 Y150.8972 E0.07253 F12000 ;  ; Glyph: 7
G1 X142.6314 Y150.8972 E0.07253 F12000 ;  ; Glyph: 7
G1 X144.6314 Y150.8972 E0.07253 F12000 ;  ; Glyph: 7
G1 E-0.75 F3000 ; Retract
G1 Z0.8 F12000 ; Z hop
G0 X149.9414 Y141.8972 F12000 ; Move
G1 Z0.4 F12000 ; Z hop return
G1 E0.75 F1800 ; Un-retract
G1 X151.9414 Y141.8972 E0.07253 F12000 ;  ; Glyph: 0
G1 X153.9414 Y141.8972 E0.07253 F12000 ;  ; Glyph: 0
G1 X153.9414 Y143.8972 E0.07253 F12000 ;  ; Glyph: 0
G1 X151.9414 Y143.8972 E0.07253 F12000 ;  ; Glyph: 0
G1 X149.9414 Y143.8972 E0.07253 F12000 ;  ; Glyph: 0
G1 X149.9414 Y141.8972 E0.07253 F12000 ;  ; Glyph: 0
G1 E-0.75 F3000 ; Retract
G1 Z0.8 F12000 ; Z hop
G0 X153.9414 Y144.8972 F12000 ; Move
G1 Z0.4 F12000 ; Z hop return
G1 E0.75 F1800 ; Un-retract
G1 X153.1914 Y144.8972 E0.0272 F12000 ; Glyph: .
G1 E-0.75 F3000 ; Retract
G1 Z0.8 F12000 ; Z hop
G0 X149.9414 Y145.8972 F12000 ; Move
G1 Z0.4 F12000 ; Z hop return
G1 E0.75 F1800 ; Un-retract
G1 X151.9414 Y145.8972 E0.07253 F12000 ;  ; Glyph: 0
G1 X153.9414 Y145.8972 E0.07253 F12000 ;  ; Glyph: 0
G1 X153.9414 Y147.8972 E0.07253 F12000 ;  ; Glyph: 0
G1 X151.9414 Y147.8972 E0.07253 F12000 ;  ; Glyph: 0
G1 X149.9414 Y147.8972 E0.07253 F12000 ;  ; Glyph: 0
G1 X149.9414 Y145.8972 E0.07253 F12000 ;  ; Glyph: 0
G1 E-0.75 F3000 ; Retract
G1 Z0.8 F12000 ; Z hop
G0 X149.9414 Y148.8972 F12000 ; Move
G1 Z0.4 F12000 ; Z hop return
G1 E0.75 F1800 ; Un-retract
G1 X151.9414 Y148.8972 E0.07253 F12000 ;  ; Glyph: 8
G1 X153.9414 Y148.8972 E0.07253 F12000 ;  ; Glyph: 8
G1 X153.9414 Y150.8972 E0.07253 F12000 ;  ; Glyph: 8
G1 X151.9414 Y150.8972 E0.07253 F12000 ;  ; Glyph: 8
G1 X149.9414 Y150.8972 E0.07253 F12000 ;  ; Glyph: 8
G1 X149.9414 Y148.8972 E0.07253 F12000 ;  ; Glyph: 8
G0 X151.9414 Y148.8972 F12000 ; Move
G1 X151.9414 Y150.8972 E0.07253 F12000 ;  ; Glyph: 8
G1 E-0.75 F3000 ; Retract
G1 Z0.8 F12000 ; Z hop
G0 X76.866 Y98.0068 F12000 ; Move to pattern start

G1 Z0.4 F12000 ; Z hop return
G1 E0.75 F1800 ; Un-retract
SET_PRESSURE_ADVANCE ADVANCE=0 ; Set pressure advance
M117 PA0
G1 X98.0792 Y119.22 E1.08801 F12000 ; Print pattern perimeter
G1 X76.866 Y140.4332 E1.08801 F12000 ; Print pattern perimeter
G1 E-0.75 F3000 ; Retract
G1 Z0.8 F12000 ; Z hop
G0 X77.4615 Y98.0068 F12000 ; Move to start next pattern perimeter
G1 Z0.4 F12000 ; Z hop return
G1 E0.75 F1800 ; Un-retract
G1 X98.6747 Y119.22 E1.08801 F12000 ; Print pattern perimeter
G1 X77.4615 Y140.4332 E1.08801 F12000 ; Print pattern perimeter
G1 E-0.75 F3000 ; Retract
G1 Z0.8 F12000 ; Z hop
G0 X78.057 Y98.0068 F12000 ; Move to start next pattern perimeter
G1 Z0.4 F12000 ; Z hop return
G1 E0.75 F1800 ; Un-retract
G1 X99.2702 Y119.22 E1.08801 F12000 ; Print pattern perimeter
G1 X78.057 Y140.4332 E1.08801 F12000 ; Print pattern perimeter
G1 E-0.75 F3000 ; Retract
G1 Z0.8 F12000 ; Z hop
G0 X81.521 Y98.0068 F12000 ; Move to next pattern
G1 Z0.4 F12000 ; Z hop return
G1 E0.75 F1800 ; Un-retract
SET_PRESSURE_ADVANCE ADVANCE=0.005 ; Set pressure advance
M117 PA0.005
G1 X102.7342 Y119.22 E1.08801 F12000 ; Print pattern perimeter
G1 X81.521 Y140.4332 E1.08801 F12000 ; Print pattern perimeter
G1 E-0.75 F3000 ; Retract
G1 Z0.8 F12000 ; Z hop
G0 X82.1165 Y98.0068 F12000 ; Move to start next pattern perimeter
G1 Z0.4 F12000 ; Z hop return
G1 E0.75 F1800 ; Un-retract
G1 X103.3297 Y119.22 E1.08801 F12000 ; Print pattern perimeter
G1 X82.1165 Y140.4332 E1.08801 F12000 ; Print pattern perimeter
G1 E-0.75 F3000 ; Retract
G1 Z0.8 F12000 ; Z hop
G0 X82.712 Y98.0068 F12000 ; Move to start next pattern perimeter
G1 Z0.4 F12000 ; Z hop return
G1 E0.75 F1800 ; Un-retract
G1 X103.9252 Y119.22 E1.08801 F12000 ; Print pattern perimeter
G1 X82.712 Y140.4332 E1.08801 F12000 ; Print pattern perimeter
G1 E-0.75 F3000 ; Retract
G1 Z0.8 F12000 ; Z hop
G0 X86.176 Y98.0068 F12000 ; Move to next pattern
G1 Z0.4 F12000 ; Z hop return
G1 E0.75 F1800 ; Un-retract
SET_PRESSURE_ADVANCE ADVANCE=0.01 ; Set pressure advance
M117 PA0.01
G1 X107.3892 Y119.22 E1.08801 F12000 ; Print pattern perimeter
G1 X86.176 Y140.4332 E1.08801 F12000 ; Print pattern perimeter
G1 E-0.75 F3000 ; Retract
G1 Z0.8 F12000 ; Z hop
G0 X86.7715 Y98.0068 F12000 ; Move to start next pattern perimeter
G1 Z0.4 F12000 ; Z hop return
G1 E0.75 F1800 ; Un-retract
G1 X107.9847 Y119.22 E1.08801 F12000 ; Print pattern perimeter
G1 X86.7715 Y140.4332 E1.08801 F12000 ; Print pattern perimeter
G1 E-0.75 F3000 ; Retract
G1 Z0.8 F12000 ; Z hop
G0 X87.367 Y98.0068 F12000 ; Move to start next pattern perimeter
G1 Z0.4 F12000 ; Z hop return
G1 E0.75 F1800 ; Un-retract
G1 X108.5802 Y119.22 E1.08801 F12000 ; Print pattern perimeter
G1 X87.367 Y140.4332 E1.08801 F12000 ; Print pattern perimeter
G1 E-0.75 F3000 ; Retract
G1 Z0.8 F12000 ; Z hop
G0 X90.831 Y98.0068 F12000 ; Move to next pattern
G1 Z0.4 F12000 ; Z hop return
G1 E0.75 F1800 ; Un-retract
SET_PRESSURE_ADVANCE ADVANCE=0.015 ; Set pressure advance
M117 PA0.015
G1 X112.0442 Y119.22 E1.08801 F12000 ; Print pattern perimeter
G1 X90.831 Y140.4332 E1.08801 F12000 ; Print pattern perimeter
G1 E-0.75 F3000 ; Retract
G1 Z0.8 F12000 ; Z hop
G0 X91.4265 Y98.0068 F12000 ; Move to start next pattern perimeter
G1 Z0.4 F12000 ; Z hop return
G1 E0.75 F1800 ; Un-retract
G1 X112.6397 Y119.22 E1.08801 F12000 ; Print pattern perimeter
G1 X91.4265 Y140.4332 E1.08801 F12000 ; Print pattern perimeter
G1 E-0.75 F3000 ; Retract
G1 Z0.8 F12000 ; Z hop
G0 X92.022 Y98.0068 F12000 ; Move to start next pattern perimeter
G1 Z0.4 F12000 ; Z hop return
G1 E0.75 F1800 ; Un-retract
G1 X113.2352 Y119.22 E1.08801 F12000 ; Print pattern perimeter
G1 X92.022 Y140.4332 E1.08801 F12000 ; Print pattern perimeter
G1 E-0.75 F3000 ; Retract
G1 Z0.8 F12000 ; Z hop
G0 X95.486 Y98.0068 F12000 ; Move to next pattern
G1 Z0.4 F12000 ; Z hop return
G1 E0.75 F1800 ; Un-retract
SET_PRESSURE_ADVANCE ADVANCE=0.02 ; Set pressure advance
M117 PA0.02
G1 X116.6992 Y119.22 E1.08801 F12000 ; Print pattern perimeter
G1 X95.486 Y140.4332 E1.08801 F12000 ; Print pattern perimeter
G1 E-0.75 F3000 ; Retract
G1 Z0.8 F12000 ; Z hop
G0 X96.0815 Y98.0068 F12000 ; Move to start next pattern perimeter
G1 Z0.4 F12000 ; Z hop return
G1 E0.75 F1800 ; Un-retract
G1 X117.2947 Y119.22 E1.08801 F12000 ; Print pattern perimeter
G1 X96.0815 Y140.4332 E1.08801 F12000 ; Print pattern perimeter
G1 E-0.75 F3000 ; Retract
G1 Z0.8 F12000 ; Z hop
G0 X96.677 Y98.0068 F12000 ; Move to start next pattern perimeter
G1 Z0.4 F12000 ; Z hop return
G1 E0.75 F1800 ; Un-retract
G1 X117.8902 Y119.22 E1.08801 F12000 ; Print pattern perimeter
G1 X96.677 Y140.4332 E1.08801 F12000 ; Print pattern perimeter
G1 E-0.75 F3000 ; Retract
G1 Z0.8 F12000 ; Z hop
G0 X100.141 Y98.0068 F12000 ; Move to next pattern
G1 Z0.4 F12000 ; Z hop return
G1 E0.75 F1800 ; Un-retract
SET_PRESSURE_ADVANCE ADVANCE=0.025 ; Set pressure advance
M117 PA0.025
G1 X121.3542 Y119.22 E1.08801 F12000 ; Print pattern perimeter
G1 X100.141 Y140.4332 E1.08801 F12000 ; Print pattern perimeter
G1 E-0.75 F3000 ; Retract
G1 Z0.8 F12000 ; Z hop
G0 X100.7365 Y98.0068 F12000 ; Move to start next pattern perimeter
G1 Z0.4 F12000 ; Z hop return
G1 E0.75 F1800 ; Un-retract
G1 X121.9497 Y119.22 E1.08801 F12000 ; Print pattern perimeter
G1 X100.7365 Y140.4332 E1.08801 F12000 ; Print pattern perimeter
G1 E-0.75 F3000 ; Retract
G1 Z0.8 F12000 ; Z hop
G0 X101.332 Y98.0068 F12000 ; Move to start next pattern perimeter
G1 Z0.4 F12000 ; Z hop return
G1 E0.75 F1800 ; Un-retract
G1 X122.5452 Y119.22 E1.08801 F12000 ; Print pattern perimeter
G1 X101.332 Y140.4332 E1.08801 F12000 ; Print pattern perimeter
G1 E-0.75 F3000 ; Retract
G1 Z0.8 F12000 ; Z hop
G0 X104.796 Y98.0068 F12000 ; Move to next pattern
G1 Z0.4 F12000 ; Z hop return
G1 E0.75 F1800 ; Un-retract
SET_PRESSURE_ADVANCE ADVANCE=0.03 ; Set pressure advance
M117 PA0.03
G1 X126.0092 Y119.22 E1.08801 F12000 ; Print pattern perimeter
G1 X104.796 Y140.4332 E1.08801 F12000 ; Print pattern perimeter
G1 E-0.75 F3000 ; Retract
G1 Z0.8 F12000 ; Z hop
G0 X105.3915 Y98.0068 F12000 ; Move to start next pattern perimeter
G1 Z0.4 F12000 ; Z hop return
G1 E0.75 F1800 ; Un-retract
G1 X126.6047 Y119.22 E1.08801 F12000 ; Print pattern perimeter
G1 X105.3915 Y140.4332 E1.08801 F12000 ; Print pattern perimeter
G1 E-0.75 F3000 ; Retract
G1 Z0.8 F12000 ; Z hop
G0 X105.987 Y98.0068 F12000 ; Move to start next pattern perimeter
G1 Z0.4 F12000 ; Z hop return
G1 E0.75 F1800 ; Un-retract
G1 X127.2002 Y119.22 E1.08801 F12000 ; Print pattern perimeter
G1 X105.987 Y140.4332 E1.08801 F12000 ; Print pattern perimeter
G1 E-0.75 F3000 ; Retract
G1 Z0.8 F12000 ; Z hop
G0 X109.451 Y98.0068 F12000 ; Move to next pattern
G1 Z0.4 F12000 ; Z hop return
G1 E0.75 F1800 ; Un-retract
SET_PRESSURE_ADVANCE ADVANCE=0.035 ; Set pressure advance
M117 PA0.035
G1 X130.6642 Y119.22 E1.08801 F12000 ; Print pattern perimeter
G1 X109.451 Y140.4332 E1.08801 F12000 ; Print pattern perimeter
G1 E-0.75 F3000 ; Retract
G1 Z0.8 F12000 ; Z hop
G0 X110.0465 Y98.0068 F12000 ; Move to start next pattern perimeter
G1 Z0.4 F12000 ; Z hop return
G1 E0.75 F1800 ; Un-retract
G1 X131.2597 Y119.22 E1.08801 F12000 ; Print pattern perimeter
G1 X110.0465 Y140.4332 E1.08801 F12000 ; Print pattern perimeter
G1 E-0.75 F3000 ; Retract
G1 Z0.8 F12000 ; Z hop
G0 X110.642 Y98.0068 F12000 ; Move to start next pattern perimeter
G1 Z0.4 F12000 ; Z hop return
G1 E0.75 F1800 ; Un-retract
G1 X131.8552 Y119.22 E1.08801 F12000 ; Print pattern perimeter
G1 X110.642 Y140.4332 E1.08801 F12000 ; Print pattern perimeter
G1 E-0.75 F3000 ; Retract
G1 Z0.8 F12000 ; Z hop
G0 X114.106 Y98.0068 F12000 ; Move to next pattern
G1 Z0.4 F12000 ; Z hop return
G1 E0.75 F1800 ; Un-retract
SET_PRESSURE_ADVANCE ADVANCE=0.04 ; Set pressure advance
M117 PA0.04
G1 X135.3192 Y119.22 E1.08801 F12000 ; Print pattern perimeter
G1 X114.106 Y140.4332 E1.08801 F12000 ; Print pattern perimeter
G1 E-0.75 F3000 ; Retract
G1 Z0.8 F12000 ; Z hop
G0 X114.7015 Y98.0068 F12000 ; Move to start next pattern perimeter
G1 Z0.4 F12000 ; Z hop return
G1 E0.75 F1800 ; Un-retract
G1 X135.9147 Y119.22 E1.08801 F12000 ; Print pattern perimeter
G1 X114.7015 Y140.4332 E1.08801 F12000 ; Print pattern perimeter
G1 E-0.75 F3000 ; Retract
G1 Z0.8 F12000 ; Z hop
G0 X115.297 Y98.0068 F12000 ; Move to start next pattern perimeter
G1 Z0.4 F12000 ; Z hop return
G1 E0.75 F1800 ; Un-retract
G1 X136.5102 Y119.22 E1.08801 F12000 ; Print pattern perimeter
G1 X115.297 Y140.4332 E1.08801 F12000 ; Print pattern perimeter
G1 E-0.75 F3000 ; Retract
G1 Z0.8 F12000 ; Z hop
G0 X118.761 Y98.0068 F12000 ; Move to next pattern
G1 Z0.4 F12000 ; Z hop return
G1 E0.75 F1800 ; Un-retract
SET_PRESSURE_ADVANCE ADVANCE=0.045 ; Set pressure advance
M117 PA0.045
G1 X139.9742 Y119.22 E1.08801 F12000 ; Print pattern perimeter
G1 X118.761 Y140.4332 E1.08801 F12000 ; Print pattern perimeter
G1 E-0.75 F3000 ; Retract
G1 Z0.8 F12000 ; Z hop
G0 X119.3565 Y98.0068 F12000 ; Move to start next pattern perimeter
G1 Z0.4 F12000 ; Z hop return
G1 E0.75 F1800 ; Un-retract
G1 X140.5697 Y119.22 E1.08801 F12000 ; Print pattern perimeter
G1 X119.3565 Y140.4332 E1.08801 F12000 ; Print pattern perimeter
G1 E-0.75 F3000 ; Retract
G1 Z0.8 F12000 ; Z hop
G0 X119.952 Y98.0068 F12000 ; Move to start next pattern perimeter
G1 Z0.4 F12000 ; Z hop return
G1 E0.75 F1800 ; Un-retract
G1 X141.1652 Y119.22 E1.08801 F12000 ; Print pattern perimeter
G1 X119.952 Y140.4332 E1.08801 F12000 ; Print pattern perimeter
G1 E-0.75 F3000 ; Retract
G1 Z0.8 F12000 ; Z hop
G0 X123.416 Y98.0068 F12000 ; Move to next pattern
G1 Z0.4 F12000 ; Z hop return
G1 E0.75 F1800 ; Un-retract
SET_PRESSURE_ADVANCE ADVANCE=0.05 ; Set pressure advance
M117 PA0.05
G1 X144.6292 Y119.22 E1.08801 F12000 ; Print pattern perimeter
G1 X123.416 Y140.4332 E1.08801 F12000 ; Print pattern perimeter
G1 E-0.75 F3000 ; Retract
G1 Z0.8 F12000 ; Z hop
G0 X124.0115 Y98.0068 F12000 ; Move to start next pattern perimeter
G1 Z0.4 F12000 ; Z hop return
G1 E0.75 F1800 ; Un-retract
G1 X145.2247 Y119.22 E1.08801 F12000 ; Print pattern perimeter
G1 X124.0115 Y140.4332 E1.08801 F12000 ; Print pattern perimeter
G1 E-0.75 F3000 ; Retract
G1 Z0.8 F12000 ; Z hop
G0 X124.607 Y98.0068 F12000 ; Move to start next pattern perimeter
G1 Z0.4 F12000 ; Z hop return
G1 E0.75 F1800 ; Un-retract
G1 X145.8202 Y119.22 E1.08801 F12000 ; Print pattern perimeter
G1 X124.607 Y140.4332 E1.08801 F12000 ; Print pattern perimeter
G1 E-0.75 F3000 ; Retract
G1 Z0.8 F12000 ; Z hop
G0 X128.071 Y98.0068 F12000 ; Move to next pattern
G1 Z0.4 F12000 ; Z hop return
G1 E0.75 F1800 ; Un-retract
SET_PRESSURE_ADVANCE ADVANCE=0.055 ; Set pressure advance
M117 PA0.055
G1 X149.2842 Y119.22 E1.08801 F12000 ; Print pattern perimeter
G1 X128.071 Y140.4332 E1.08801 F12000 ; Print pattern perimeter
G1 E-0.75 F3000 ; Retract
G1 Z0.8 F12000 ; Z hop
G0 X128.6665 Y98.0068 F12000 ; Move to start next pattern perimeter
G1 Z0.4 F12000 ; Z hop return
G1 E0.75 F1800 ; Un-retract
G1 X149.8797 Y119.22 E1.08801 F12000 ; Print pattern perimeter
G1 X128.6665 Y140.4332 E1.08801 F12000 ; Print pattern perimeter
G1 E-0.75 F3000 ; Retract
G1 Z0.8 F12000 ; Z hop
G0 X129.262 Y98.0068 F12000 ; Move to start next pattern perimeter
G1 Z0.4 F12000 ; Z hop return
G1 E0.75 F1800 ; Un-retract
G1 X150.4752 Y119.22 E1.08801 F12000 ; Print pattern perimeter
G1 X129.262 Y140.4332 E1.08801 F12000 ; Print pattern perimeter
G1 E-0.75 F3000 ; Retract
G1 Z0.8 F12000 ; Z hop
G0 X132.726 Y98.0068 F12000 ; Move to next pattern
G1 Z0.4 F12000 ; Z hop return
G1 E0.75 F1800 ; Un-retract
SET_PRESSURE_ADVANCE ADVANCE=0.06 ; Set pressure advance
M117 PA0.06
G1 X153.9392 Y119.22 E1.08801 F12000 ; Print pattern perimeter
G1 X132.726 Y140.4332 E1.08801 F12000 ; Print pattern perimeter
G1 E-0.75 F3000 ; Retract
G1 Z0.8 F12000 ; Z hop
G0 X133.3215 Y98.0068 F12000 ; Move to start next pattern perimeter
G1 Z0.4 F12000 ; Z hop return
G1 E0.75 F1800 ; Un-retract
G1 X154.5347 Y119.22 E1.08801 F12000 ; Print pattern perimeter
G1 X133.3215 Y140.4332 E1.08801 F12000 ; Print pattern perimeter
G1 E-0.75 F3000 ; Retract
G1 Z0.8 F12000 ; Z hop
G0 X133.917 Y98.0068 F12000 ; Move to start next pattern perimeter
G1 Z0.4 F12000 ; Z hop return
G1 E0.75 F1800 ; Un-retract
G1 X155.1302 Y119.22 E1.08801 F12000 ; Print pattern perimeter
G1 X133.917 Y140.4332 E1.08801 F12000 ; Print pattern perimeter
G1 E-0.75 F3000 ; Retract
G1 Z0.8 F12000 ; Z hop
G0 X137.381 Y98.0068 F12000 ; Move to next pattern
G1 Z0.4 F12000 ; Z hop return
G1 E0.75 F1800 ; Un-retract
SET_PRESSURE_ADVANCE ADVANCE=0.065 ; Set pressure advance
M117 PA0.065
G1 X158.5942 Y119.22 E1.08801 F12000 ; Print pattern perimeter
G1 X137.381 Y140.4332 E1.08801 F12000 ; Print pattern perimeter
G1 E-0.75 F3000 ; Retract
G1 Z0.8 F12000 ; Z hop
G0 X137.9764 Y98.0068 F12000 ; Move to start next pattern perimeter
G1 Z0.4 F12000 ; Z hop return
G1 E0.75 F1800 ; Un-retract
G1 X159.1897 Y119.22 E1.08801 F12000 ; Print pattern perimeter
G1 X137.9764 Y140.4332 E1.08801 F12000 ; Print pattern perimeter
G1 E-0.75 F3000 ; Retract
G1 Z0.8 F12000 ; Z hop
G0 X138.5719 Y98.0068 F12000 ; Move to start next pattern perimeter
G1 Z0.4 F12000 ; Z hop return
G1 E0.75 F1800 ; Un-retract
G1 X159.7851 Y119.22 E1.08801 F12000 ; Print pattern perimeter
G1 X138.5719 Y140.4332 E1.08801 F12000 ; Print pattern perimeter
G1 E-0.75 F3000 ; Retract
G1 Z0.8 F12000 ; Z hop
G0 X142.0359 Y98.0068 F12000 ; Move to next pattern
G1 Z0.4 F12000 ; Z hop return
G1 E0.75 F1800 ; Un-retract
SET_PRESSURE_ADVANCE ADVANCE=0.07 ; Set pressure advance
M117 PA0.07
G1 X163.2491 Y119.22 E1.08801 F12000 ; Print pattern perimeter
G1 X142.0359 Y140.4332 E1.08801 F12000 ; Print pattern perimeter
G1 E-0.75 F3000 ; Retract
G1 Z0.8 F12000 ; Z hop
G0 X142.6314 Y98.0068 F12000 ; Move to start next pattern perimeter
G1 Z0.4 F12000 ; Z hop return
G1 E0.75 F1800 ; Un-retract
G1 X163.8446 Y119.22 E1.08801 F12000 ; Print pattern perimeter
G1 X142.6314 Y140.4332 E1.08801 F12000 ; Print pattern perimeter
G1 E-0.75 F3000 ; Retract
G1 Z0.8 F12000 ; Z hop
G0 X143.2269 Y98.0068 F12000 ; Move to start next pattern perimeter
G1 Z0.4 F12000 ; Z hop return
G1 E0.75 F1800 ; Un-retract
G1 X164.4401 Y119.22 E1.08801 F12000 ; Print pattern perimeter
G1 X143.2269 Y140.4332 E1.08801 F12000 ; Print pattern perimeter
G1 E-0.75 F3000 ; Retract
G1 Z0.8 F12000 ; Z hop
G0 X146.6909 Y98.0068 F12000 ; Move to next pattern
G1 Z0.4 F12000 ; Z hop return
G1 E0.75 F1800 ; Un-retract
SET_PRESSURE_ADVANCE ADVANCE=0.075 ; Set pressure advance
M117 PA0.075
G1 X167.9041 Y119.22 E1.08801 F12000 ; Print pattern perimeter
G1 X146.6909 Y140.4332 E1.08801 F12000 ; Print pattern perimeter
G1 E-0.75 F3000 ; Retract
G1 Z0.8 F12000 ; Z hop
G0 X147.2864 Y98.0068 F12000 ; Move to start next pattern perimeter
G1 Z0.4 F12000 ; Z hop return
G1 E0.75 F1800 ; Un-retract
G1 X168.4996 Y119.22 E1.08801 F12000 ; Print pattern perimeter
G1 X147.2864 Y140.4332 E1.08801 F12000 ; Print pattern perimeter
G1 E-0.75 F3000 ; Retract
G1 Z0.8 F12000 ; Z hop
G0 X147.8819 Y98.0068 F12000 ; Move to start next pattern perimeter
G1 Z0.4 F12000 ; Z hop return
G1 E0.75 F1800 ; Un-retract
G1 X169.0951 Y119.22 E1.08801 F12000 ; Print pattern perimeter
G1 X147.8819 Y140.4332 E1.08801 F12000 ; Print pattern perimeter
G1 E-0.75 F3000 ; Retract
G1 Z0.8 F12000 ; Z hop
G0 X151.3459 Y98.0068 F12000 ; Move to next pattern
G1 Z0.4 F12000 ; Z hop return
G1 E0.75 F1800 ; Un-retract
SET_PRESSURE_ADVANCE ADVANCE=0.08 ; Set pressure advance
M117 PA0.08
G1 X172.5591 Y119.22 E1.08801 F12000 ; Print pattern perimeter
G1 X151.3459 Y140.4332 E1.08801 F12000 ; Print pattern perimeter
G1 E-0.75 F3000 ; Retract
G1 Z0.8 F12000 ; Z hop
G0 X151.9414 Y98.0068 F12000 ; Move to start next pattern perimeter
G1 Z0.4 F12000 ; Z hop return
G1 E0.75 F1800 ; Un-retract
G1 X173.1546 Y119.22 E1.08801 F12000 ; Print pattern perimeter
G1 X151.9414 Y140.4332 E1.08801 F12000 ; Print pattern perimeter
G1 E-0.75 F3000 ; Retract
G1 Z0.8 F12000 ; Z hop
G0 X152.5369 Y98.0068 F12000 ; Move to start next pattern perimeter
G1 Z0.4 F12000 ; Z hop return
G1 E0.75 F1800 ; Un-retract
G1 X173.7501 Y119.22 E1.08801 F12000 ; Print pattern perimeter
G1 X152.5369 Y140.4332 E1.08801 F12000 ; Print pattern perimeter
G1 E-0.75 F3000 ; Retract
G1 Z0.8 F12000 ; Z hop
G0 X76.866 Y98.0068 F12000 ; Move back to start position
G1 Z0.4 F12000 ; Z hop return
G1 E0.75 F1800 ; Un-retract
G0 Z0.6 F12000 ; Move to layer height
SET_PRESSURE_ADVANCE ADVANCE=0 ; Set pressure advance
M117 PA0
G1 X98.0792 Y119.22 E1.08801 F12000 ; Print pattern perimeter
G1 X76.866 Y140.4332 E1.08801 F12000 ; Print pattern perimeter
G1 E-0.75 F3000 ; Retract
G1 Z1 F12000 ; Z hop
G0 X77.4615 Y98.0068 F12000 ; Move to start next pattern perimeter
G1 Z0.6 F12000 ; Z hop return
G1 E0.75 F1800 ; Un-retract
G1 X98.6747 Y119.22 E1.08801 F12000 ; Print pattern perimeter
G1 X77.4615 Y140.4332 E1.08801 F12000 ; Print pattern perimeter
G1 E-0.75 F3000 ; Retract
G1 Z1 F12000 ; Z hop
G0 X78.057 Y98.0068 F12000 ; Move to start next pattern perimeter
G1 Z0.6 F12000 ; Z hop return
G1 E0.75 F1800 ; Un-retract
G1 X99.2702 Y119.22 E1.08801 F12000 ; Print pattern perimeter
G1 X78.057 Y140.4332 E1.08801 F12000 ; Print pattern perimeter
G1 E-0.75 F3000 ; Retract
G1 Z1 F12000 ; Z hop
G0 X81.521 Y98.0068 F12000 ; Move to next pattern
G1 Z0.6 F12000 ; Z hop return
G1 E0.75 F1800 ; Un-retract
SET_PRESSURE_ADVANCE ADVANCE=0.005 ; Set pressure advance
M117 PA0.005
G1 X102.7342 Y119.22 E1.08801 F12000 ; Print pattern perimeter
G1 X81.521 Y140.4332 E1.08801 F12000 ; Print pattern perimeter
G1 E-0.75 F3000 ; Retract
G1 Z1 F12000 ; Z hop
G0 X82.1165 Y98.0068 F12000 ; Move to start next pattern perimeter
G1 Z0.6 F12000 ; Z hop return
G1 E0.75 F1800 ; Un-retract
G1 X103.3297 Y119.22 E1.08801 F12000 ; Print pattern perimeter
G1 X82.1165 Y140.4332 E1.08801 F12000 ; Print pattern perimeter
G1 E-0.75 F3000 ; Retract
G1 Z1 F12000 ; Z hop
G0 X82.712 Y98.0068 F12000 ; Move to start next pattern perimeter
G1 Z0.6 F12000 ; Z hop return
G1 E0.75 F1800 ; Un-retract
G1 X103.9252 Y119.22 E1.08801 F12000 ; Print pattern perimeter
G1 X82.712 Y140.4332 E1.08801 F12000 ; Print pattern perimeter
G1 E-0.75 F3000 ; Retract
G1 Z1 F12000 ; Z hop
G0 X86.176 Y98.0068 F12000 ; Move to next pattern
G1 Z0.6 F12000 ; Z hop return
G1 E0.75 F1800 ; Un-retract
SET_PRESSURE_ADVANCE ADVANCE=0.01 ; Set pressure advance
M117 PA0.01
G1 X107.3892 Y119.22 E1.08801 F12000 ; Print pattern perimeter
G1 X86.176 Y140.4332 E1.08801 F12000 ; Print pattern perimeter
G1 E-0.75 F3000 ; Retract
G1 Z1 F12000 ; Z hop
G0 X86.7715 Y98.0068 F12000 ; Move to start next pattern perimeter
G1 Z0.6 F12000 ; Z hop return
G1 E0.75 F1800 ; Un-retract
G1 X107.9847 Y119.22 E1.08801 F12000 ; Print pattern perimeter
G1 X86.7715 Y140.4332 E1.08801 F12000 ; Print pattern perimeter
G1 E-0.75 F3000 ; Retract
G1 Z1 F12000 ; Z hop
G0 X87.367 Y98.0068 F12000 ; Move to start next pattern perimeter
G1 Z0.6 F12000 ; Z hop return
G1 E0.75 F1800 ; Un-retract
G1 X108.5802 Y119.22 E1.08801 F12000 ; Print pattern perimeter
G1 X87.367 Y140.4332 E1.08801 F12000 ; Print pattern perimeter
G1 E-0.75 F3000 ; Retract
G1 Z1 F12000 ; Z hop
G0 X90.831 Y98.0068 F12000 ; Move to next pattern
G1 Z0.6 F12000 ; Z hop return
G1 E0.75 F1800 ; Un-retract
SET_PRESSURE_ADVANCE ADVANCE=0.015 ; Set pressure advance
M117 PA0.015
G1 X112.0442 Y119.22 E1.08801 F12000 ; Print pattern perimeter
G1 X90.831 Y140.4332 E1.08801 F12000 ; Print pattern perimeter
G1 E-0.75 F3000 ; Retract
G1 Z1 F12000 ; Z hop
G0 X91.4265 Y98.0068 F12000 ; Move to start next pattern perimeter
G1 Z0.6 F12000 ; Z hop return
G1 E0.75 F1800 ; Un-retract
G1 X112.6397 Y119.22 E1.08801 F12000 ; Print pattern perimeter
G1 X91.4265 Y140.4332 E1.08801 F12000 ; Print pattern perimeter
G1 E-0.75 F3000 ; Retract
G1 Z1 F12000 ; Z hop
G0 X92.022 Y98.0068 F12000 ; Move to start next pattern perimeter
G1 Z0.6 F12000 ; Z hop return
G1 E0.75 F1800 ; Un-retract
G1 X113.2352 Y119.22 E1.08801 F12000 ; Print pattern perimeter
G1 X92.022 Y140.4332 E1.08801 F12000 ; Print pattern perimeter
G1 E-0.75 F3000 ; Retract
G1 Z1 F12000 ; Z hop
G0 X95.486 Y98.0068 F12000 ; Move to next pattern
G1 Z0.6 F12000 ; Z hop return
G1 E0.75 F1800 ; Un-retract
SET_PRESSURE_ADVANCE ADVANCE=0.02 ; Set pressure advance
M117 PA0.02
G1 X116.6992 Y119.22 E1.08801 F12000 ; Print pattern perimeter
G1 X95.486 Y140.4332 E1.08801 F12000 ; Print pattern perimeter
G1 E-0.75 F3000 ; Retract
G1 Z1 F12000 ; Z hop
G0 X96.0815 Y98.0068 F12000 ; Move to start next pattern perimeter
G1 Z0.6 F12000 ; Z hop return
G1 E0.75 F1800 ; Un-retract
G1 X117.2947 Y119.22 E1.08801 F12000 ; Print pattern perimeter
G1 X96.0815 Y140.4332 E1.08801 F12000 ; Print pattern perimeter
G1 E-0.75 F3000 ; Retract
G1 Z1 F12000 ; Z hop
G0 X96.677 Y98.0068 F12000 ; Move to start next pattern perimeter
G1 Z0.6 F12000 ; Z hop return
G1 E0.75 F1800 ; Un-retract
G1 X117.8902 Y119.22 E1.08801 F12000 ; Print pattern perimeter
G1 X96.677 Y140.4332 E1.08801 F12000 ; Print pattern perimeter
G1 E-0.75 F3000 ; Retract
G1 Z1 F12000 ; Z hop
G0 X100.141 Y98.0068 F12000 ; Move to next pattern
G1 Z0.6 F12000 ; Z hop return
G1 E0.75 F1800 ; Un-retract
SET_PRESSURE_ADVANCE ADVANCE=0.025 ; Set pressure advance
M117 PA0.025
G1 X121.3542 Y119.22 E1.08801 F12000 ; Print pattern perimeter
G1 X100.141 Y140.4332 E1.08801 F12000 ; Print pattern perimeter
G1 E-0.75 F3000 ; Retract
G1 Z1 F12000 ; Z hop
G0 X100.7365 Y98.0068 F12000 ; Move to start next pattern perimeter
G1 Z0.6 F12000 ; Z hop return
G1 E0.75 F1800 ; Un-retract
G1 X121.9497 Y119.22 E1.08801 F12000 ; Print pattern perimeter
G1 X100.7365 Y140.4332 E1.08801 F12000 ; Print pattern perimeter
G1 E-0.75 F3000 ; Retract
G1 Z1 F12000 ; Z hop
G0 X101.332 Y98.0068 F12000 ; Move to start next pattern perimeter
G1 Z0.6 F12000 ; Z hop return
G1 E0.75 F1800 ; Un-retract
G1 X122.5452 Y119.22 E1.08801 F12000 ; Print pattern perimeter
G1 X101.332 Y140.4332 E1.08801 F12000 ; Print pattern perimeter
G1 E-0.75 F3000 ; Retract
G1 Z1 F12000 ; Z hop
G0 X104.796 Y98.0068 F12000 ; Move to next pattern
G1 Z0.6 F12000 ; Z hop return
G1 E0.75 F1800 ; Un-retract
SET_PRESSURE_ADVANCE ADVANCE=0.03 ; Set pressure advance
M117 PA0.03
G1 X126.0092 Y119.22 E1.08801 F12000 ; Print pattern perimeter
G1 X104.796 Y140.4332 E1.08801 F12000 ; Print pattern perimeter
G1 E-0.75 F3000 ; Retract
G1 Z1 F12000 ; Z hop
G0 X105.3915 Y98.0068 F12000 ; Move to start next pattern perimeter
G1 Z0.6 F12000 ; Z hop return
G1 E0.75 F1800 ; Un-retract
G1 X126.6047 Y119.22 E1.08801 F12000 ; Print pattern perimeter
G1 X105.3915 Y140.4332 E1.08801 F12000 ; Print pattern perimeter
G1 E-0.75 F3000 ; Retract
G1 Z1 F12000 ; Z hop
G0 X105.987 Y98.0068 F12000 ; Move to start next pattern perimeter
G1 Z0.6 F12000 ; Z hop return
G1 E0.75 F1800 ; Un-retract
G1 X127.2002 Y119.22 E1.08801 F12000 ; Print pattern perimeter
G1 X105.987 Y140.4332 E1.08801 F12000 ; Print pattern perimeter
G1 E-0.75 F3000 ; Retract
G1 Z1 F12000 ; Z hop
G0 X109.451 Y98.0068 F12000 ; Move to next pattern
G1 Z0.6 F12000 ; Z hop return
G1 E0.75 F1800 ; Un-retract
SET_PRESSURE_ADVANCE ADVANCE=0.035 ; Set pressure advance
M117 PA0.035
G1 X130.6642 Y119.22 E1.08801 F12000 ; Print pattern perimeter
G1 X109.451 Y140.4332 E1.08801 F12000 ; Print pattern perimeter
G1 E-0.75 F3000 ; Retract
G1 Z1 F12000 ; Z hop
G0 X110.0465 Y98.0068 F12000 ; Move to start next pattern perimeter
G1 Z0.6 F12000 ; Z hop return
G1 E0.75 F1800 ; Un-retract
G1 X131.2597 Y119.22 E1.08801 F12000 ; Print pattern perimeter
G1 X110.0465 Y140.4332 E1.08801 F12000 ; Print pattern perimeter
G1 E-0.75 F3000 ; Retract
G1 Z1 F12000 ; Z hop
G0 X110.642 Y98.0068 F12000 ; Move to start next pattern perimeter
G1 Z0.6 F12000 ; Z hop return
G1 E0.75 F1800 ; Un-retract
G1 X131.8552 Y119.22 E1.08801 F12000 ; Print pattern perimeter
G1 X110.642 Y140.4332 E1.08801 F12000 ; Print pattern perimeter
G1 E-0.75 F3000 ; Retract
G1 Z1 F12000 ; Z hop
G0 X114.106 Y98.0068 F12000 ; Move to next pattern
G1 Z0.6 F12000 ; Z hop return
G1 E0.75 F1800 ; Un-retract
SET_PRESSURE_ADVANCE ADVANCE=0.04 ; Set pressure advance
M117 PA0.04
G1 X135.3192 Y119.22 E1.08801 F12000 ; Print pattern perimeter
G1 X114.106 Y140.4332 E1.08801 F12000 ; Print pattern perimeter
G1 E-0.75 F3000 ; Retract
G1 Z1 F12000 ; Z hop
G0 X114.7015 Y98.0068 F12000 ; Move to start next pattern perimeter
G1 Z0.6 F12000 ; Z hop return
G1 E0.75 F1800 ; Un-retract
G1 X135.9147 Y119.22 E1.08801 F12000 ; Print pattern perimeter
G1 X114.7015 Y140.4332 E1.08801 F12000 ; Print pattern perimeter
G1 E-0.75 F3000 ; Retract
G1 Z1 F12000 ; Z hop
G0 X115.297 Y98.0068 F12000 ; Move to start next pattern perimeter
G1 Z0.6 F12000 ; Z hop return
G1 E0.75 F1800 ; Un-retract
G1 X136.5102 Y119.22 E1.08801 F12000 ; Print pattern perimeter
G1 X115.297 Y140.4332 E1.08801 F12000 ; Print pattern perimeter
G1 E-0.75 F3000 ; Retract
G1 Z1 F12000 ; Z hop
G0 X118.761 Y98.0068 F12000 ; Move to next pattern
G1 Z0.6 F12000 ; Z hop return
G1 E0.75 F1800 ; Un-retract
SET_PRESSURE_ADVANCE ADVANCE=0.045 ; Set pressure advance
M117 PA0.045
G1 X139.9742 Y119.22 E1.08801 F12000 ; Print pattern perimeter
G1 X118.761 Y140.4332 E1.08801 F12000 ; Print pattern perimeter
G1 E-0.75 F3000 ; Retract
G1 Z1 F12000 ; Z hop
G0 X119.3565 Y98.0068 F12000 ; Move to start next pattern perimeter
G1 Z0.6 F12000 ; Z hop return
G1 E0.75 F1800 ; Un-retract
G1 X140.5697 Y119.22 E1.08801 F12000 ; Print pattern perimeter
G1 X119.3565 Y140.4332 E1.08801 F12000 ; Print pattern perimeter
G1 E-0.75 F3000 ; Retract
G1 Z1 F12000 ; Z hop
G0 X119.952 Y98.0068 F12000 ; Move to start next pattern perimeter
G1 Z0.6 F12000 ; Z hop return
G1 E0.75 F1800 ; Un-retract
G1 X141.1652 Y119.22 E1.08801 F12000 ; Print pattern perimeter
G1 X119.952 Y140.4332 E1.08801 F12000 ; Print pattern perimeter
G1 E-0.75 F3000 ; Retract
G1 Z1 F12000 ; Z hop
G0 X123.416 Y98.0068 F12000 ; Move to next pattern
G1 Z0.6 F12000 ; Z hop return
G1 E0.75 F1800 ; Un-retract
SET_PRESSURE_ADVANCE ADVANCE=0.05 ; Set pressure advance
M117 PA0.05
G1 X144.6292 Y119.22 E1.08801 F12000 ; Print pattern perimeter
G1 X123.416 Y140.4332 E1.08801 F12000 ; Print pattern perimeter
G1 E-0.75 F3000 ; Retract
G1 Z1 F12000 ; Z hop
G0 X124.0115 Y98.0068 F12000 ; Move to start next pattern perimeter
G1 Z0.6 F12000 ; Z hop return
G1 E0.75 F1800 ; Un-retract
G1 X145.2247 Y119.22 E1.08801 F12000 ; Print pattern perimeter
G1 X124.0115 Y140.4332 E1.08801 F12000 ; Print pattern perimeter
G1 E-0.75 F3000 ; Retract
G1 Z1 F12000 ; Z hop
G0 X124.607 Y98.0068 F12000 ; Move to start next pattern perimeter
G1 Z0.6 F12000 ; Z hop return
G1 E0.75 F1800 ; Un-retract
G1 X145.8202 Y119.22 E1.08801 F12000 ; Print pattern perimeter
G1 X124.607 Y140.4332 E1.08801 F12000 ; Print pattern perimeter
G1 E-0.75 F3000 ; Retract
G1 Z1 F12000 ; Z hop
G0 X128.071 Y98.0068 F12000 ; Move to next pattern
G1 Z0.6 F12000 ; Z hop return
G1 E0.75 F1800 ; Un-retract
SET_PRESSURE_ADVANCE ADVANCE=0.055 ; Set pressure advance
M117 PA0.055
G1 X149.2842 Y119.22 E1.08801 F12000 ; Print pattern perimeter
G1 X128.071 Y140.4332 E1.08801 F12000 ; Print pattern perimeter
G1 E-0.75 F3000 ; Retract
G1 Z1 F12000 ; Z hop
G0 X128.6665 Y98.0068 F12000 ; Move to start next pattern perimeter
G1 Z0.6 F12000 ; Z hop return
G1 E0.75 F1800 ; Un-retract
G1 X149.8797 Y119.22 E1.08801 F12000 ; Print pattern perimeter
G1 X128.6665 Y140.4332 E1.08801 F12000 ; Print pattern perimeter
G1 E-0.75 F3000 ; Retract
G1 Z1 F12000 ; Z hop
G0 X129.262 Y98.0068 F12000 ; Move to start next pattern perimeter
G1 Z0.6 F12000 ; Z hop return
G1 E0.75 F1800 ; Un-retract
G1 X150.4752 Y119.22 E1.08801 F12000 ; Print pattern perimeter
G1 X129.262 Y140.4332 E1.08801 F12000 ; Print pattern perimeter
G1 E-0.75 F3000 ; Retract
G1 Z1 F12000 ; Z hop
G0 X132.726 Y98.0068 F12000 ; Move to next pattern
G1 Z0.6 F12000 ; Z hop return
G1 E0.75 F1800 ; Un-retract
SET_PRESSURE_ADVANCE ADVANCE=0.06 ; Set pressure advance
M117 PA0.06
G1 X153.9392 Y119.22 E1.08801 F12000 ; Print pattern perimeter
G1 X132.726 Y140.4332 E1.08801 F12000 ; Print pattern perimeter
G1 E-0.75 F3000 ; Retract
G1 Z1 F12000 ; Z hop
G0 X133.3215 Y98.0068 F12000 ; Move to start next pattern perimeter
G1 Z0.6 F12000 ; Z hop return
G1 E0.75 F1800 ; Un-retract
G1 X154.5347 Y119.22 E1.08801 F12000 ; Print pattern perimeter
G1 X133.3215 Y140.4332 E1.08801 F12000 ; Print pattern perimeter
G1 E-0.75 F3000 ; Retract
G1 Z1 F12000 ; Z hop
G0 X133.917 Y98.0068 F12000 ; Move to start next pattern perimeter
G1 Z0.6 F12000 ; Z hop return
G1 E0.75 F1800 ; Un-retract
G1 X155.1302 Y119.22 E1.08801 F12000 ; Print pattern perimeter
G1 X133.917 Y140.4332 E1.08801 F12000 ; Print pattern perimeter
G1 E-0.75 F3000 ; Retract
G1 Z1 F12000 ; Z hop
G0 X137.381 Y98.0068 F12000 ; Move to next pattern
G1 Z0.6 F12000 ; Z hop return
G1 E0.75 F1800 ; Un-retract
SET_PRESSURE_ADVANCE ADVANCE=0.065 ; Set pressure advance
M117 PA0.065
G1 X158.5942 Y119.22 E1.08801 F12000 ; Print pattern perimeter
G1 X137.381 Y140.4332 E1.08801 F12000 ; Print pattern perimeter
G1 E-0.75 F3000 ; Retract
G1 Z1 F12000 ; Z hop
G0 X137.9764 Y98.0068 F12000 ; Move to start next pattern perimeter
G1 Z0.6 F12000 ; Z hop return
G1 E0.75 F1800 ; Un-retract
G1 X159.1897 Y119.22 E1.08801 F12000 ; Print pattern perimeter
G1 X137.9764 Y140.4332 E1.08801 F12000 ; Print pattern perimeter
G1 E-0.75 F3000 ; Retract
G1 Z1 F12000 ; Z hop
G0 X138.5719 Y98.0068 F12000 ; Move to start next pattern perimeter
G1 Z0.6 F12000 ; Z hop return
G1 E0.75 F1800 ; Un-retract
G1 X159.7851 Y119.22 E1.08801 F12000 ; Print pattern perimeter
G1 X138.5719 Y140.4332 E1.08801 F12000 ; Print pattern perimeter
G1 E-0.75 F3000 ; Retract
G1 Z1 F12000 ; Z hop
G0 X142.0359 Y98.0068 F12000 ; Move to next pattern
G1 Z0.6 F12000 ; Z hop return
G1 E0.75 F1800 ; Un-retract
SET_PRESSURE_ADVANCE ADVANCE=0.07 ; Set pressure advance
M117 PA0.07
G1 X163.2491 Y119.22 E1.08801 F12000 ; Print pattern perimeter
G1 X142.0359 Y140.4332 E1.08801 F12000 ; Print pattern perimeter
G1 E-0.75 F3000 ; Retract
G1 Z1 F12000 ; Z hop
G0 X142.6314 Y98.0068 F12000 ; Move to start next pattern perimeter
G1 Z0.6 F12000 ; Z hop return
G1 E0.75 F1800 ; Un-retract
G1 X163.8446 Y119.22 E1.08801 F12000 ; Print pattern perimeter
G1 X142.6314 Y140.4332 E1.08801 F12000 ; Print pattern perimeter
G1 E-0.75 F3000 ; Retract
G1 Z1 F12000 ; Z hop
G0 X143.2269 Y98.0068 F12000 ; Move to start next pattern perimeter
G1 Z0.6 F12000 ; Z hop return
G1 E0.75 F1800 ; Un-retract
G1 X164.4401 Y119.22 E1.08801 F12000 ; Print pattern perimeter
G1 X143.2269 Y140.4332 E1.08801 F12000 ; Print pattern perimeter
G1 E-0.75 F3000 ; Retract
G1 Z1 F12000 ; Z hop
G0 X146.6909 Y98.0068 F12000 ; Move to next pattern
G1 Z0.6 F12000 ; Z hop return
G1 E0.75 F1800 ; Un-retract
SET_PRESSURE_ADVANCE ADVANCE=0.075 ; Set pressure advance
M117 PA0.075
G1 X167.9041 Y119.22 E1.08801 F12000 ; Print pattern perimeter
G1 X146.6909 Y140.4332 E1.08801 F12000 ; Print pattern perimeter
G1 E-0.75 F3000 ; Retract
G1 Z1 F12000 ; Z hop
G0 X147.2864 Y98.0068 F12000 ; Move to start next pattern perimeter
G1 Z0.6 F12000 ; Z hop return
G1 E0.75 F1800 ; Un-retract
G1 X168.4996 Y119.22 E1.08801 F12000 ; Print pattern perimeter
G1 X147.2864 Y140.4332 E1.08801 F12000 ; Print pattern perimeter
G1 E-0.75 F3000 ; Retract
G1 Z1 F12000 ; Z hop
G0 X147.8819 Y98.0068 F12000 ; Move to start next pattern perimeter
G1 Z0.6 F12000 ; Z hop return
G1 E0.75 F1800 ; Un-retract
G1 X169.0951 Y119.22 E1.08801 F12000 ; Print pattern perimeter
G1 X147.8819 Y140.4332 E1.08801 F12000 ; Print pattern perimeter
G1 E-0.75 F3000 ; Retract
G1 Z1 F12000 ; Z hop
G0 X151.3459 Y98.0068 F12000 ; Move to next pattern
G1 Z0.6 F12000 ; Z hop return
G1 E0.75 F1800 ; Un-retract
SET_PRESSURE_ADVANCE ADVANCE=0.08 ; Set pressure advance
M117 PA0.08
G1 X172.5591 Y119.22 E1.08801 F12000 ; Print pattern perimeter
G1 X151.3459 Y140.4332 E1.08801 F12000 ; Print pattern perimeter
G1 E-0.75 F3000 ; Retract
G1 Z1 F12000 ; Z hop
G0 X151.9414 Y98.0068 F12000 ; Move to start next pattern perimeter
G1 Z0.6 F12000 ; Z hop return
G1 E0.75 F1800 ; Un-retract
G1 X173.1546 Y119.22 E1.08801 F12000 ; Print pattern perimeter
G1 X151.9414 Y140.4332 E1.08801 F12000 ; Print pattern perimeter
G1 E-0.75 F3000 ; Retract
G1 Z1 F12000 ; Z hop
G0 X152.5369 Y98.0068 F12000 ; Move to start next pattern perimeter
G1 Z0.6 F12000 ; Z hop return
G1 E0.75 F1800 ; Un-retract
G1 X173.7501 Y119.22 E1.08801 F12000 ; Print pattern perimeter
G1 X152.5369 Y140.4332 E1.08801 F12000 ; Print pattern perimeter
G1 E-0.75 F3000 ; Retract
G1 Z1 F12000 ; Z hop
G0 X76.866 Y98.0068 F12000 ; Move back to start position
G1 Z0.6 F12000 ; Z hop return
G1 E0.75 F1800 ; Un-retract
G0 Z0.8 F12000 ; Move to layer height
SET_PRESSURE_ADVANCE ADVANCE=0 ; Set pressure advance
M117 PA0
G1 X98.0792 Y119.22 E1.08801 F12000 ; Print pattern perimeter
G1 X76.866 Y140.4332 E1.08801 F12000 ; Print pattern perimeter
G1 E-0.75 F3000 ; Retract
G1 Z1.2 F12000 ; Z hop
G0 X77.4615 Y98.0068 F12000 ; Move to start next pattern perimeter
G1 Z0.8 F12000 ; Z hop return
G1 E0.75 F1800 ; Un-retract
G1 X98.6747 Y119.22 E1.08801 F12000 ; Print pattern perimeter
G1 X77.4615 Y140.4332 E1.08801 F12000 ; Print pattern perimeter
G1 E-0.75 F3000 ; Retract
G1 Z1.2 F12000 ; Z hop
G0 X78.057 Y98.0068 F12000 ; Move to start next pattern perimeter
G1 Z0.8 F12000 ; Z hop return
G1 E0.75 F1800 ; Un-retract
G1 X99.2702 Y119.22 E1.08801 F12000 ; Print pattern perimeter
G1 X78.057 Y140.4332 E1.08801 F12000 ; Print pattern perimeter
G1 E-0.75 F3000 ; Retract
G1 Z1.2 F12000 ; Z hop
G0 X81.521 Y98.0068 F12000 ; Move to next pattern
G1 Z0.8 F12000 ; Z hop return
G1 E0.75 F1800 ; Un-retract
SET_PRESSURE_ADVANCE ADVANCE=0.005 ; Set pressure advance
M117 PA0.005
G1 X102.7342 Y119.22 E1.08801 F12000 ; Print pattern perimeter
G1 X81.521 Y140.4332 E1.08801 F12000 ; Print pattern perimeter
G1 E-0.75 F3000 ; Retract
G1 Z1.2 F12000 ; Z hop
G0 X82.1165 Y98.0068 F12000 ; Move to start next pattern perimeter
G1 Z0.8 F12000 ; Z hop return
G1 E0.75 F1800 ; Un-retract
G1 X103.3297 Y119.22 E1.08801 F12000 ; Print pattern perimeter
G1 X82.1165 Y140.4332 E1.08801 F12000 ; Print pattern perimeter
G1 E-0.75 F3000 ; Retract
G1 Z1.2 F12000 ; Z hop
G0 X82.712 Y98.0068 F12000 ; Move to start next pattern perimeter
G1 Z0.8 F12000 ; Z hop return
G1 E0.75 F1800 ; Un-retract
G1 X103.9252 Y119.22 E1.08801 F12000 ; Print pattern perimeter
G1 X82.712 Y140.4332 E1.08801 F12000 ; Print pattern perimeter
G1 E-0.75 F3000 ; Retract
G1 Z1.2 F12000 ; Z hop
G0 X86.176 Y98.0068 F12000 ; Move to next pattern
G1 Z0.8 F12000 ; Z hop return
G1 E0.75 F1800 ; Un-retract
SET_PRESSURE_ADVANCE ADVANCE=0.01 ; Set pressure advance
M117 PA0.01
G1 X107.3892 Y119.22 E1.08801 F12000 ; Print pattern perimeter
G1 X86.176 Y140.4332 E1.08801 F12000 ; Print pattern perimeter
G1 E-0.75 F3000 ; Retract
G1 Z1.2 F12000 ; Z hop
G0 X86.7715 Y98.0068 F12000 ; Move to start next pattern perimeter
G1 Z0.8 F12000 ; Z hop return
G1 E0.75 F1800 ; Un-retract
G1 X107.9847 Y119.22 E1.08801 F12000 ; Print pattern perimeter
G1 X86.7715 Y140.4332 E1.08801 F12000 ; Print pattern perimeter
G1 E-0.75 F3000 ; Retract
G1 Z1.2 F12000 ; Z hop
G0 X87.367 Y98.0068 F12000 ; Move to start next pattern perimeter
G1 Z0.8 F12000 ; Z hop return
G1 E0.75 F1800 ; Un-retract
G1 X108.5802 Y119.22 E1.08801 F12000 ; Print pattern perimeter
G1 X87.367 Y140.4332 E1.08801 F12000 ; Print pattern perimeter
G1 E-0.75 F3000 ; Retract
G1 Z1.2 F12000 ; Z hop
G0 X90.831 Y98.0068 F12000 ; Move to next pattern
G1 Z0.8 F12000 ; Z hop return
G1 E0.75 F1800 ; Un-retract
SET_PRESSURE_ADVANCE ADVANCE=0.015 ; Set pressure advance
M117 PA0.015
G1 X112.0442 Y119.22 E1.08801 F12000 ; Print pattern perimeter
G1 X90.831 Y140.4332 E1.08801 F12000 ; Print pattern perimeter
G1 E-0.75 F3000 ; Retract
G1 Z1.2 F12000 ; Z hop
G0 X91.4265 Y98.0068 F12000 ; Move to start next pattern perimeter
G1 Z0.8 F12000 ; Z hop return
G1 E0.75 F1800 ; Un-retract
G1 X112.6397 Y119.22 E1.08801 F12000 ; Print pattern perimeter
G1 X91.4265 Y140.4332 E1.08801 F12000 ; Print pattern perimeter
G1 E-0.75 F3000 ; Retract
G1 Z1.2 F12000 ; Z hop
G0 X92.022 Y98.0068 F12000 ; Move to start next pattern perimeter
G1 Z0.8 F12000 ; Z hop return
G1 E0.75 F1800 ; Un-retract
G1 X113.2352 Y119.22 E1.08801 F12000 ; Print pattern perimeter
G1 X92.022 Y140.4332 E1.08801 F12000 ; Print pattern perimeter
G1 E-0.75 F3000 ; Retract
G1 Z1.2 F12000 ; Z hop
G0 X95.486 Y98.0068 F12000 ; Move to next pattern
G1 Z0.8 F12000 ; Z hop return
G1 E0.75 F1800 ; Un-retract
SET_PRESSURE_ADVANCE ADVANCE=0.02 ; Set pressure advance
M117 PA0.02
G1 X116.6992 Y119.22 E1.08801 F12000 ; Print pattern perimeter
G1 X95.486 Y140.4332 E1.08801 F12000 ; Print pattern perimeter
G1 E-0.75 F3000 ; Retract
G1 Z1.2 F12000 ; Z hop
G0 X96.0815 Y98.0068 F12000 ; Move to start next pattern perimeter
G1 Z0.8 F12000 ; Z hop return
G1 E0.75 F1800 ; Un-retract
G1 X117.2947 Y119.22 E1.08801 F12000 ; Print pattern perimeter
G1 X96.0815 Y140.4332 E1.08801 F12000 ; Print pattern perimeter
G1 E-0.75 F3000 ; Retract
G1 Z1.2 F12000 ; Z hop
G0 X96.677 Y98.0068 F12000 ; Move to start next pattern perimeter
G1 Z0.8 F12000 ; Z hop return
G1 E0.75 F1800 ; Un-retract
G1 X117.8902 Y119.22 E1.08801 F12000 ; Print pattern perimeter
G1 X96.677 Y140.4332 E1.08801 F12000 ; Print pattern perimeter
G1 E-0.75 F3000 ; Retract
G1 Z1.2 F12000 ; Z hop
G0 X100.141 Y98.0068 F12000 ; Move to next pattern
G1 Z0.8 F12000 ; Z hop return
G1 E0.75 F1800 ; Un-retract
SET_PRESSURE_ADVANCE ADVANCE=0.025 ; Set pressure advance
M117 PA0.025
G1 X121.3542 Y119.22 E1.08801 F12000 ; Print pattern perimeter
G1 X100.141 Y140.4332 E1.08801 F12000 ; Print pattern perimeter
G1 E-0.75 F3000 ; Retract
G1 Z1.2 F12000 ; Z hop
G0 X100.7365 Y98.0068 F12000 ; Move to start next pattern perimeter
G1 Z0.8 F12000 ; Z hop return
G1 E0.75 F1800 ; Un-retract
G1 X121.9497 Y119.22 E1.08801 F12000 ; Print pattern perimeter
G1 X100.7365 Y140.4332 E1.08801 F12000 ; Print pattern perimeter
G1 E-0.75 F3000 ; Retract
G1 Z1.2 F12000 ; Z hop
G0 X101.332 Y98.0068 F12000 ; Move to start next pattern perimeter
G1 Z0.8 F12000 ; Z hop return
G1 E0.75 F1800 ; Un-retract
G1 X122.5452 Y119.22 E1.08801 F12000 ; Print pattern perimeter
G1 X101.332 Y140.4332 E1.08801 F12000 ; Print pattern perimeter
G1 E-0.75 F3000 ; Retract
G1 Z1.2 F12000 ; Z hop
G0 X104.796 Y98.0068 F12000 ; Move to next pattern
G1 Z0.8 F12000 ; Z hop return
G1 E0.75 F1800 ; Un-retract
SET_PRESSURE_ADVANCE ADVANCE=0.03 ; Set pressure advance
M117 PA0.03
G1 X126.0092 Y119.22 E1.08801 F12000 ; Print pattern perimeter
G1 X104.796 Y140.4332 E1.08801 F12000 ; Print pattern perimeter
G1 E-0.75 F3000 ; Retract
G1 Z1.2 F12000 ; Z hop
G0 X105.3915 Y98.0068 F12000 ; Move to start next pattern perimeter
G1 Z0.8 F12000 ; Z hop return
G1 E0.75 F1800 ; Un-retract
G1 X126.6047 Y119.22 E1.08801 F12000 ; Print pattern perimeter
G1 X105.3915 Y140.4332 E1.08801 F12000 ; Print pattern perimeter
G1 E-0.75 F3000 ; Retract
G1 Z1.2 F12000 ; Z hop
G0 X105.987 Y98.0068 F12000 ; Move to start next pattern perimeter
G1 Z0.8 F12000 ; Z hop return
G1 E0.75 F1800 ; Un-retract
G1 X127.2002 Y119.22 E1.08801 F12000 ; Print pattern perimeter
G1 X105.987 Y140.4332 E1.08801 F12000 ; Print pattern perimeter
G1 E-0.75 F3000 ; Retract
G1 Z1.2 F12000 ; Z hop
G0 X109.451 Y98.0068 F12000 ; Move to next pattern
G1 Z0.8 F12000 ; Z hop return
G1 E0.75 F1800 ; Un-retract
SET_PRESSURE_ADVANCE ADVANCE=0.035 ; Set pressure advance
M117 PA0.035
G1 X130.6642 Y119.22 E1.08801 F12000 ; Print pattern perimeter
G1 X109.451 Y140.4332 E1.08801 F12000 ; Print pattern perimeter
G1 E-0.75 F3000 ; Retract
G1 Z1.2 F12000 ; Z hop
G0 X110.0465 Y98.0068 F12000 ; Move to start next pattern perimeter
G1 Z0.8 F12000 ; Z hop return
G1 E0.75 F1800 ; Un-retract
G1 X131.2597 Y119.22 E1.08801 F12000 ; Print pattern perimeter
G1 X110.0465 Y140.4332 E1.08801 F12000 ; Print pattern perimeter
G1 E-0.75 F3000 ; Retract
G1 Z1.2 F12000 ; Z hop
G0 X110.642 Y98.0068 F12000 ; Move to start next pattern perimeter
G1 Z0.8 F12000 ; Z hop return
G1 E0.75 F1800 ; Un-retract
G1 X131.8552 Y119.22 E1.08801 F12000 ; Print pattern perimeter
G1 X110.642 Y140.4332 E1.08801 F12000 ; Print pattern perimeter
G1 E-0.75 F3000 ; Retract
G1 Z1.2 F12000 ; Z hop
G0 X114.106 Y98.0068 F12000 ; Move to next pattern
G1 Z0.8 F12000 ; Z hop return
G1 E0.75 F1800 ; Un-retract
SET_PRESSURE_ADVANCE ADVANCE=0.04 ; Set pressure advance
M117 PA0.04
G1 X135.3192 Y119.22 E1.08801 F12000 ; Print pattern perimeter
G1 X114.106 Y140.4332 E1.08801 F12000 ; Print pattern perimeter
G1 E-0.75 F3000 ; Retract
G1 Z1.2 F12000 ; Z hop
G0 X114.7015 Y98.0068 F12000 ; Move to start next pattern perimeter
G1 Z0.8 F12000 ; Z hop return
G1 E0.75 F1800 ; Un-retract
G1 X135.9147 Y119.22 E1.08801 F12000 ; Print pattern perimeter
G1 X114.7015 Y140.4332 E1.08801 F12000 ; Print pattern perimeter
G1 E-0.75 F3000 ; Retract
G1 Z1.2 F12000 ; Z hop
G0 X115.297 Y98.0068 F12000 ; Move to start next pattern perimeter
G1 Z0.8 F12000 ; Z hop return
G1 E0.75 F1800 ; Un-retract
G1 X136.5102 Y119.22 E1.08801 F12000 ; Print pattern perimeter
G1 X115.297 Y140.4332 E1.08801 F12000 ; Print pattern perimeter
G1 E-0.75 F3000 ; Retract
G1 Z1.2 F12000 ; Z hop
G0 X118.761 Y98.0068 F12000 ; Move to next pattern
G1 Z0.8 F12000 ; Z hop return
G1 E0.75 F1800 ; Un-retract
SET_PRESSURE_ADVANCE ADVANCE=0.045 ; Set pressure advance
M117 PA0.045
G1 X139.9742 Y119.22 E1.08801 F12000 ; Print pattern perimeter
G1 X118.761 Y140.4332 E1.08801 F12000 ; Print pattern perimeter
G1 E-0.75 F3000 ; Retract
G1 Z1.2 F12000 ; Z hop
G0 X119.3565 Y98.0068 F12000 ; Move to start next pattern perimeter
G1 Z0.8 F12000 ; Z hop return
G1 E0.75 F1800 ; Un-retract
G1 X140.5697 Y119.22 E1.08801 F12000 ; Print pattern perimeter
G1 X119.3565 Y140.4332 E1.08801 F12000 ; Print pattern perimeter
G1 E-0.75 F3000 ; Retract
G1 Z1.2 F12000 ; Z hop
G0 X119.952 Y98.0068 F12000 ; Move to start next pattern perimeter
G1 Z0.8 F12000 ; Z hop return
G1 E0.75 F1800 ; Un-retract
G1 X141.1652 Y119.22 E1.08801 F12000 ; Print pattern perimeter
G1 X119.952 Y140.4332 E1.08801 F12000 ; Print pattern perimeter
G1 E-0.75 F3000 ; Retract
G1 Z1.2 F12000 ; Z hop
G0 X123.416 Y98.0068 F12000 ; Move to next pattern
G1 Z0.8 F12000 ; Z hop return
G1 E0.75 F1800 ; Un-retract
SET_PRESSURE_ADVANCE ADVANCE=0.05 ; Set pressure advance
M117 PA0.05
G1 X144.6292 Y119.22 E1.08801 F12000 ; Print pattern perimeter
G1 X123.416 Y140.4332 E1.08801 F12000 ; Print pattern perimeter
G1 E-0.75 F3000 ; Retract
G1 Z1.2 F12000 ; Z hop
G0 X124.0115 Y98.0068 F12000 ; Move to start next pattern perimeter
G1 Z0.8 F12000 ; Z hop return
G1 E0.75 F1800 ; Un-retract
G1 X145.2247 Y119.22 E1.08801 F12000 ; Print pattern perimeter
G1 X124.0115 Y140.4332 E1.08801 F12000 ; Print pattern perimeter
G1 E-0.75 F3000 ; Retract
G1 Z1.2 F12000 ; Z hop
G0 X124.607 Y98.0068 F12000 ; Move to start next pattern perimeter
G1 Z0.8 F12000 ; Z hop return
G1 E0.75 F1800 ; Un-retract
G1 X145.8202 Y119.22 E1.08801 F12000 ; Print pattern perimeter
G1 X124.607 Y140.4332 E1.08801 F12000 ; Print pattern perimeter
G1 E-0.75 F3000 ; Retract
G1 Z1.2 F12000 ; Z hop
G0 X128.071 Y98.0068 F12000 ; Move to next pattern
G1 Z0.8 F12000 ; Z hop return
G1 E0.75 F1800 ; Un-retract
SET_PRESSURE_ADVANCE ADVANCE=0.055 ; Set pressure advance
M117 PA0.055
G1 X149.2842 Y119.22 E1.08801 F12000 ; Print pattern perimeter
G1 X128.071 Y140.4332 E1.08801 F12000 ; Print pattern perimeter
G1 E-0.75 F3000 ; Retract
G1 Z1.2 F12000 ; Z hop
G0 X128.6665 Y98.0068 F12000 ; Move to start next pattern perimeter
G1 Z0.8 F12000 ; Z hop return
G1 E0.75 F1800 ; Un-retract
G1 X149.8797 Y119.22 E1.08801 F12000 ; Print pattern perimeter
G1 X128.6665 Y140.4332 E1.08801 F12000 ; Print pattern perimeter
G1 E-0.75 F3000 ; Retract
G1 Z1.2 F12000 ; Z hop
G0 X129.262 Y98.0068 F12000 ; Move to start next pattern perimeter
G1 Z0.8 F12000 ; Z hop return
G1 E0.75 F1800 ; Un-retract
G1 X150.4752 Y119.22 E1.08801 F12000 ; Print pattern perimeter
G1 X129.262 Y140.4332 E1.08801 F12000 ; Print pattern perimeter
G1 E-0.75 F3000 ; Retract
G1 Z1.2 F12000 ; Z hop
G0 X132.726 Y98.0068 F12000 ; Move to next pattern
G1 Z0.8 F12000 ; Z hop return
G1 E0.75 F1800 ; Un-retract
SET_PRESSURE_ADVANCE ADVANCE=0.06 ; Set pressure advance
M117 PA0.06
G1 X153.9392 Y119.22 E1.08801 F12000 ; Print pattern perimeter
G1 X132.726 Y140.4332 E1.08801 F12000 ; Print pattern perimeter
G1 E-0.75 F3000 ; Retract
G1 Z1.2 F12000 ; Z hop
G0 X133.3215 Y98.0068 F12000 ; Move to start next pattern perimeter
G1 Z0.8 F12000 ; Z hop return
G1 E0.75 F1800 ; Un-retract
G1 X154.5347 Y119.22 E1.08801 F12000 ; Print pattern perimeter
G1 X133.3215 Y140.4332 E1.08801 F12000 ; Print pattern perimeter
G1 E-0.75 F3000 ; Retract
G1 Z1.2 F12000 ; Z hop
G0 X133.917 Y98.0068 F12000 ; Move to start next pattern perimeter
G1 Z0.8 F12000 ; Z hop return
G1 E0.75 F1800 ; Un-retract
G1 X155.1302 Y119.22 E1.08801 F12000 ; Print pattern perimeter
G1 X133.917 Y140.4332 E1.08801 F12000 ; Print pattern perimeter
G1 E-0.75 F3000 ; Retract
G1 Z1.2 F12000 ; Z hop
G0 X137.381 Y98.0068 F12000 ; Move to next pattern
G1 Z0.8 F12000 ; Z hop return
G1 E0.75 F1800 ; Un-retract
SET_PRESSURE_ADVANCE ADVANCE=0.065 ; Set pressure advance
M117 PA0.065
G1 X158.5942 Y119.22 E1.08801 F12000 ; Print pattern perimeter
G1 X137.381 Y140.4332 E1.08801 F12000 ; Print pattern perimeter
G1 E-0.75 F3000 ; Retract
G1 Z1.2 F12000 ; Z hop
G0 X137.9764 Y98.0068 F12000 ; Move to start next pattern perimeter
G1 Z0.8 F12000 ; Z hop return
G1 E0.75 F1800 ; Un-retract
G1 X159.1897 Y119.22 E1.08801 F12000 ; Print pattern perimeter
G1 X137.9764 Y140.4332 E1.08801 F12000 ; Print pattern perimeter
G1 E-0.75 F3000 ; Retract
G1 Z1.2 F12000 ; Z hop
G0 X138.5719 Y98.0068 F12000 ; Move to start next pattern perimeter
G1 Z0.8 F12000 ; Z hop return
G1 E0.75 F1800 ; Un-retract
G1 X159.7851 Y119.22 E1.08801 F12000 ; Print pattern perimeter
G1 X138.5719 Y140.4332 E1.08801 F12000 ; Print pattern perimeter
G1 E-0.75 F3000 ; Retract
G1 Z1.2 F12000 ; Z hop
G0 X142.0359 Y98.0068 F12000 ; Move to next pattern
G1 Z0.8 F12000 ; Z hop return
G1 E0.75 F1800 ; Un-retract
SET_PRESSURE_ADVANCE ADVANCE=0.07 ; Set pressure advance
M117 PA0.07
G1 X163.2491 Y119.22 E1.08801 F12000 ; Print pattern perimeter
G1 X142.0359 Y140.4332 E1.08801 F12000 ; Print pattern perimeter
G1 E-0.75 F3000 ; Retract
G1 Z1.2 F12000 ; Z hop
G0 X142.6314 Y98.0068 F12000 ; Move to start next pattern perimeter
G1 Z0.8 F12000 ; Z hop return
G1 E0.75 F1800 ; Un-retract
G1 X163.8446 Y119.22 E1.08801 F12000 ; Print pattern perimeter
G1 X142.6314 Y140.4332 E1.08801 F12000 ; Print pattern perimeter
G1 E-0.75 F3000 ; Retract
G1 Z1.2 F12000 ; Z hop
G0 X143.2269 Y98.0068 F12000 ; Move to start next pattern perimeter
G1 Z0.8 F12000 ; Z hop return
G1 E0.75 F1800 ; Un-retract
G1 X164.4401 Y119.22 E1.08801 F12000 ; Print pattern perimeter
G1 X143.2269 Y140.4332 E1.08801 F12000 ; Print pattern perimeter
G1 E-0.75 F3000 ; Retract
G1 Z1.2 F12000 ; Z hop
G0 X146.6909 Y98.0068 F12000 ; Move to next pattern
G1 Z0.8 F12000 ; Z hop return
G1 E0.75 F1800 ; Un-retract
SET_PRESSURE_ADVANCE ADVANCE=0.075 ; Set pressure advance
M117 PA0.075
G1 X167.9041 Y119.22 E1.08801 F12000 ; Print pattern perimeter
G1 X146.6909 Y140.4332 E1.08801 F12000 ; Print pattern perimeter
G1 E-0.75 F3000 ; Retract
G1 Z1.2 F12000 ; Z hop
G0 X147.2864 Y98.0068 F12000 ; Move to start next pattern perimeter
G1 Z0.8 F12000 ; Z hop return
G1 E0.75 F1800 ; Un-retract
G1 X168.4996 Y119.22 E1.08801 F12000 ; Print pattern perimeter
G1 X147.2864 Y140.4332 E1.08801 F12000 ; Print pattern perimeter
G1 E-0.75 F3000 ; Retract
G1 Z1.2 F12000 ; Z hop
G0 X147.8819 Y98.0068 F12000 ; Move to start next pattern perimeter
G1 Z0.8 F12000 ; Z hop return
G1 E0.75 F1800 ; Un-retract
G1 X169.0951 Y119.22 E1.08801 F12000 ; Print pattern perimeter
G1 X147.8819 Y140.4332 E1.08801 F12000 ; Print pattern perimeter
G1 E-0.75 F3000 ; Retract
G1 Z1.2 F12000 ; Z hop
G0 X151.3459 Y98.0068 F12000 ; Move to next pattern
G1 Z0.8 F12000 ; Z hop return
G1 E0.75 F1800 ; Un-retract
SET_PRESSURE_ADVANCE ADVANCE=0.08 ; Set pressure advance
M117 PA0.08
G1 X172.5591 Y119.22 E1.08801 F12000 ; Print pattern perimeter
G1 X151.3459 Y140.4332 E1.08801 F12000 ; Print pattern perimeter
G1 E-0.75 F3000 ; Retract
G1 Z1.2 F12000 ; Z hop
G0 X151.9414 Y98.0068 F12000 ; Move to start next pattern perimeter
G1 Z0.8 F12000 ; Z hop return
G1 E0.75 F1800 ; Un-retract
G1 X173.1546 Y119.22 E1.08801 F12000 ; Print pattern perimeter
G1 X151.9414 Y140.4332 E1.08801 F12000 ; Print pattern perimeter
G1 E-0.75 F3000 ; Retract
G1 Z1.2 F12000 ; Z hop
G0 X152.5369 Y98.0068 F12000 ; Move to start next pattern perimeter
G1 Z0.8 F12000 ; Z hop return
G1 E0.75 F1800 ; Un-retract
G1 X173.7501 Y119.22 E1.08801 F12000 ; Print pattern perimeter
G1 X152.5369 Y140.4332 E1.08801 F12000 ; Print pattern perimeter
G1 E-0.75 F3000 ; Retract
G1 Z1.2 F12000 ; Z hop
G0 X76.866 Y98.0068 F12000 ; Move back to start position
G1 Z0.8 F12000 ; Z hop return
G1 E0.75 F1800 ; Un-retract
G0 Z1 F12000 ; Move to layer height
SET_PRESSURE_ADVANCE ADVANCE=0 ; Set pressure advance
M117 PA0
G1 X98.0792 Y119.22 E1.08801 F12000 ; Print pattern perimeter
G1 X76.866 Y140.4332 E1.08801 F12000 ; Print pattern perimeter
G1 E-0.75 F3000 ; Retract
G1 Z1.4 F12000 ; Z hop
G0 X77.4615 Y98.0068 F12000 ; Move to start next pattern perimeter
G1 Z1 F12000 ; Z hop return
G1 E0.75 F1800 ; Un-retract
G1 X98.6747 Y119.22 E1.08801 F12000 ; Print pattern perimeter
G1 X77.4615 Y140.4332 E1.08801 F12000 ; Print pattern perimeter
G1 E-0.75 F3000 ; Retract
G1 Z1.4 F12000 ; Z hop
G0 X78.057 Y98.0068 F12000 ; Move to start next pattern perimeter
G1 Z1 F12000 ; Z hop return
G1 E0.75 F1800 ; Un-retract
G1 X99.2702 Y119.22 E1.08801 F12000 ; Print pattern perimeter
G1 X78.057 Y140.4332 E1.08801 F12000 ; Print pattern perimeter
G1 E-0.75 F3000 ; Retract
G1 Z1.4 F12000 ; Z hop
G0 X81.521 Y98.0068 F12000 ; Move to next pattern
G1 Z1 F12000 ; Z hop return
G1 E0.75 F1800 ; Un-retract
SET_PRESSURE_ADVANCE ADVANCE=0.005 ; Set pressure advance
M117 PA0.005
G1 X102.7342 Y119.22 E1.08801 F12000 ; Print pattern perimeter
G1 X81.521 Y140.4332 E1.08801 F12000 ; Print pattern perimeter
G1 E-0.75 F3000 ; Retract
G1 Z1.4 F12000 ; Z hop
G0 X82.1165 Y98.0068 F12000 ; Move to start next pattern perimeter
G1 Z1 F12000 ; Z hop return
G1 E0.75 F1800 ; Un-retract
G1 X103.3297 Y119.22 E1.08801 F12000 ; Print pattern perimeter
G1 X82.1165 Y140.4332 E1.08801 F12000 ; Print pattern perimeter
G1 E-0.75 F3000 ; Retract
G1 Z1.4 F12000 ; Z hop
G0 X82.712 Y98.0068 F12000 ; Move to start next pattern perimeter
G1 Z1 F12000 ; Z hop return
G1 E0.75 F1800 ; Un-retract
G1 X103.9252 Y119.22 E1.08801 F12000 ; Print pattern perimeter
G1 X82.712 Y140.4332 E1.08801 F12000 ; Print pattern perimeter
G1 E-0.75 F3000 ; Retract
G1 Z1.4 F12000 ; Z hop
G0 X86.176 Y98.0068 F12000 ; Move to next pattern
G1 Z1 F12000 ; Z hop return
G1 E0.75 F1800 ; Un-retract
SET_PRESSURE_ADVANCE ADVANCE=0.01 ; Set pressure advance
M117 PA0.01
G1 X107.3892 Y119.22 E1.08801 F12000 ; Print pattern perimeter
G1 X86.176 Y140.4332 E1.08801 F12000 ; Print pattern perimeter
G1 E-0.75 F3000 ; Retract
G1 Z1.4 F12000 ; Z hop
G0 X86.7715 Y98.0068 F12000 ; Move to start next pattern perimeter
G1 Z1 F12000 ; Z hop return
G1 E0.75 F1800 ; Un-retract
G1 X107.9847 Y119.22 E1.08801 F12000 ; Print pattern perimeter
G1 X86.7715 Y140.4332 E1.08801 F12000 ; Print pattern perimeter
G1 E-0.75 F3000 ; Retract
G1 Z1.4 F12000 ; Z hop
G0 X87.367 Y98.0068 F12000 ; Move to start next pattern perimeter
G1 Z1 F12000 ; Z hop return
G1 E0.75 F1800 ; Un-retract
G1 X108.5802 Y119.22 E1.08801 F12000 ; Print pattern perimeter
G1 X87.367 Y140.4332 E1.08801 F12000 ; Print pattern perimeter
G1 E-0.75 F3000 ; Retract
G1 Z1.4 F12000 ; Z hop
G0 X90.831 Y98.0068 F12000 ; Move to next pattern
G1 Z1 F12000 ; Z hop return
G1 E0.75 F1800 ; Un-retract
SET_PRESSURE_ADVANCE ADVANCE=0.015 ; Set pressure advance
M117 PA0.015
G1 X112.0442 Y119.22 E1.08801 F12000 ; Print pattern perimeter
G1 X90.831 Y140.4332 E1.08801 F12000 ; Print pattern perimeter
G1 E-0.75 F3000 ; Retract
G1 Z1.4 F12000 ; Z hop
G0 X91.4265 Y98.0068 F12000 ; Move to start next pattern perimeter
G1 Z1 F12000 ; Z hop return
G1 E0.75 F1800 ; Un-retract
G1 X112.6397 Y119.22 E1.08801 F12000 ; Print pattern perimeter
G1 X91.4265 Y140.4332 E1.08801 F12000 ; Print pattern perimeter
G1 E-0.75 F3000 ; Retract
G1 Z1.4 F12000 ; Z hop
G0 X92.022 Y98.0068 F12000 ; Move to start next pattern perimeter
G1 Z1 F12000 ; Z hop return
G1 E0.75 F1800 ; Un-retract
G1 X113.2352 Y119.22 E1.08801 F12000 ; Print pattern perimeter
G1 X92.022 Y140.4332 E1.08801 F12000 ; Print pattern perimeter
G1 E-0.75 F3000 ; Retract
G1 Z1.4 F12000 ; Z hop
G0 X95.486 Y98.0068 F12000 ; Move to next pattern
G1 Z1 F12000 ; Z hop return
G1 E0.75 F1800 ; Un-retract
SET_PRESSURE_ADVANCE ADVANCE=0.02 ; Set pressure advance
M117 PA0.02
G1 X116.6992 Y119.22 E1.08801 F12000 ; Print pattern perimeter
G1 X95.486 Y140.4332 E1.08801 F12000 ; Print pattern perimeter
G1 E-0.75 F3000 ; Retract
G1 Z1.4 F12000 ; Z hop
G0 X96.0815 Y98.0068 F12000 ; Move to start next pattern perimeter
G1 Z1 F12000 ; Z hop return
G1 E0.75 F1800 ; Un-retract
G1 X117.2947 Y119.22 E1.08801 F12000 ; Print pattern perimeter
G1 X96.0815 Y140.4332 E1.08801 F12000 ; Print pattern perimeter
G1 E-0.75 F3000 ; Retract
G1 Z1.4 F12000 ; Z hop
G0 X96.677 Y98.0068 F12000 ; Move to start next pattern perimeter
G1 Z1 F12000 ; Z hop return
G1 E0.75 F1800 ; Un-retract
G1 X117.8902 Y119.22 E1.08801 F12000 ; Print pattern perimeter
G1 X96.677 Y140.4332 E1.08801 F12000 ; Print pattern perimeter
G1 E-0.75 F3000 ; Retract
G1 Z1.4 F12000 ; Z hop
G0 X100.141 Y98.0068 F12000 ; Move to next pattern
G1 Z1 F12000 ; Z hop return
G1 E0.75 F1800 ; Un-retract
SET_PRESSURE_ADVANCE ADVANCE=0.025 ; Set pressure advance
M117 PA0.025
G1 X121.3542 Y119.22 E1.08801 F12000 ; Print pattern perimeter
G1 X100.141 Y140.4332 E1.08801 F12000 ; Print pattern perimeter
G1 E-0.75 F3000 ; Retract
G1 Z1.4 F12000 ; Z hop
G0 X100.7365 Y98.0068 F12000 ; Move to start next pattern perimeter
G1 Z1 F12000 ; Z hop return
G1 E0.75 F1800 ; Un-retract
G1 X121.9497 Y119.22 E1.08801 F12000 ; Print pattern perimeter
G1 X100.7365 Y140.4332 E1.08801 F12000 ; Print pattern perimeter
G1 E-0.75 F3000 ; Retract
G1 Z1.4 F12000 ; Z hop
G0 X101.332 Y98.0068 F12000 ; Move to start next pattern perimeter
G1 Z1 F12000 ; Z hop return
G1 E0.75 F1800 ; Un-retract
G1 X122.5452 Y119.22 E1.08801 F12000 ; Print pattern perimeter
G1 X101.332 Y140.4332 E1.08801 F12000 ; Print pattern perimeter
G1 E-0.75 F3000 ; Retract
G1 Z1.4 F12000 ; Z hop
G0 X104.796 Y98.0068 F12000 ; Move to next pattern
G1 Z1 F12000 ; Z hop return
G1 E0.75 F1800 ; Un-retract
SET_PRESSURE_ADVANCE ADVANCE=0.03 ; Set pressure advance
M117 PA0.03
G1 X126.0092 Y119.22 E1.08801 F12000 ; Print pattern perimeter
G1 X104.796 Y140.4332 E1.08801 F12000 ; Print pattern perimeter
G1 E-0.75 F3000 ; Retract
G1 Z1.4 F12000 ; Z hop
G0 X105.3915 Y98.0068 F12000 ; Move to start next pattern perimeter
G1 Z1 F12000 ; Z hop return
G1 E0.75 F1800 ; Un-retract
G1 X126.6047 Y119.22 E1.08801 F12000 ; Print pattern perimeter
G1 X105.3915 Y140.4332 E1.08801 F12000 ; Print pattern perimeter
G1 E-0.75 F3000 ; Retract
G1 Z1.4 F12000 ; Z hop
G0 X105.987 Y98.0068 F12000 ; Move to start next pattern perimeter
G1 Z1 F12000 ; Z hop return
G1 E0.75 F1800 ; Un-retract
G1 X127.2002 Y119.22 E1.08801 F12000 ; Print pattern perimeter
G1 X105.987 Y140.4332 E1.08801 F12000 ; Print pattern perimeter
G1 E-0.75 F3000 ; Retract
G1 Z1.4 F12000 ; Z hop
G0 X109.451 Y98.0068 F12000 ; Move to next pattern
G1 Z1 F12000 ; Z hop return
G1 E0.75 F1800 ; Un-retract
SET_PRESSURE_ADVANCE ADVANCE=0.035 ; Set pressure advance
M117 PA0.035
G1 X130.6642 Y119.22 E1.08801 F12000 ; Print pattern perimeter
G1 X109.451 Y140.4332 E1.08801 F12000 ; Print pattern perimeter
G1 E-0.75 F3000 ; Retract
G1 Z1.4 F12000 ; Z hop
